;FLAVOR:Marlin
;TIME:554
;Filament used: 0.174903m
;Layer height: 0.2
;MINX:97.453
;MINY:95.329
;MINZ:0.2
;MAXX:122.551
;MAXY:124.662
;MAXZ:8
;Generated with Cura_SteamEngine 4.10.0
M140 S70
M105
M190 S70
M104 S210
M105
M109 S210
M82 ;absolute extrusion mode
; Ender 3 Custom Start G-code
G92 E0 ; Reset Extruder
G28 ; Home all axes
G1 Z2.0 F3000 ; Move Z Axis up little to prevent scratching of Heat Bed
G1 X0.1 Y20 Z0.3 F5000.0 ; Move to start position
G1 X0.1 Y200.0 Z0.3 F1500.0 E15 ; Draw the first line
G1 X0.4 Y200.0 Z0.3 F5000.0 ; Move to side a little
G1 X0.4 Y20 Z0.3 F1500.0 E30 ; Draw the second line
G92 E0 ; Reset Extruder
G1 Z2.0 F3000 ; Move Z Axis up little to prevent scratching of Heat Bed
G1 X5 Y20 Z0.3 F5000.0 ; Move over to prevent blob squish
G92 E0
G92 E0
G1 F1500 E-6.5
;LAYER_COUNT:40
;LAYER:0
M107
G1 F300 Z0.4
G0 F9000 X101.043 Y105.113 Z0.4
;TYPE:SKIRT
G1 F300 Z0.2
G1 F1500 E0
G1 F1200 X101.315 Y104.867 E0.01098
G1 X101.977 Y104.331 E0.03648
G1 X102.273 Y104.117 E0.04741
G1 X102.946 Y103.681 E0.07141
G1 X103.265 Y103.497 E0.08244
G1 X103.441 Y103.407 E0.08835
G1 X109.236 Y97.612 E0.33368
G1 X109.822 Y97.082 E0.35733
G1 X110.458 Y96.615 E0.38095
G1 X111.138 Y96.214 E0.40458
G1 X111.856 Y95.884 E0.42823
G1 X112.603 Y95.629 E0.45186
G1 X113.372 Y95.45 E0.47549
G1 X114.156 Y95.35 E0.49915
G1 X114.945 Y95.329 E0.52278
G1 X115.732 Y95.389 E0.5464
G1 X116.51 Y95.528 E0.57006
G1 X117.269 Y95.745 E0.59369
G1 X118.003 Y96.037 E0.61734
G1 X118.703 Y96.402 E0.64097
G1 X119.363 Y96.836 E0.66462
G1 X119.975 Y97.335 E0.68825
G1 X120.534 Y97.893 E0.7119
G1 X121.034 Y98.504 E0.73553
G1 X121.469 Y99.163 E0.75917
G1 X121.835 Y99.863 E0.78281
G1 X122.129 Y100.596 E0.80645
G1 X122.347 Y101.355 E0.83009
G1 X122.487 Y102.132 E0.85372
G1 X122.551 Y103.127 E0.88357
G1 X122.551 Y106.38 E0.98095
G1 X122.511 Y107.169 E1.00459
G1 X122.487 Y107.365 E1.01051
G1 X122.551 Y108.36 E1.04035
G1 X122.551 Y111.613 E1.13773
G1 X122.511 Y112.402 E1.16138
G1 X122.392 Y113.182 E1.18499
G1 X122.194 Y113.947 E1.20865
G1 X121.92 Y114.687 E1.23227
G1 X121.572 Y115.396 E1.25591
G1 X121.154 Y116.067 E1.27958
G1 X120.671 Y116.691 E1.3032
G1 X120.266 Y117.128 E1.32103
G1 X118.727 Y118.667 E1.38618
G1 X118.318 Y119.377 E1.41071
G1 X118.117 Y119.686 E1.42174
G1 X117.615 Y120.373 E1.44721
G1 X117.385 Y120.654 E1.45808
G1 X116.875 Y121.219 E1.48087
G1 X116.616 Y121.479 E1.49185
G1 X115.997 Y122.038 E1.51682
G1 X115.714 Y122.267 E1.52772
G1 X115.055 Y122.745 E1.55209
G1 X114.747 Y122.945 E1.56308
G1 X114.038 Y123.354 E1.58758
G1 X113.71 Y123.521 E1.5986
G1 X112.98 Y123.847 E1.62253
G1 X112.638 Y123.979 E1.6335
G1 X111.867 Y124.231 E1.65778
G1 X111.516 Y124.326 E1.66867
G1 X110.658 Y124.507 E1.69492
G1 X110.292 Y124.563 E1.706
G1 X109.539 Y124.641 E1.72866
G1 X109.174 Y124.661 E1.73961
G1 X108.33 Y124.662 E1.76487
G1 X107.956 Y124.642 E1.77608
G1 X107.171 Y124.56 E1.79971
G1 X106.398 Y124.399 E1.82334
G1 X105.645 Y124.16 E1.84699
G1 X104.92 Y123.847 E1.87063
G1 X104.401 Y123.566 E1.8883
G1 X103.742 Y123.132 E1.91192
G1 X103.13 Y122.633 E1.93555
G1 X102.571 Y122.075 E1.9592
G1 X102.072 Y121.463 E1.98283
G1 X101.637 Y120.804 E2.00647
G1 X101.529 Y120.597 E2.01346
G1 X101.177 Y120.404 E2.02548
G1 X100.526 Y119.956 E2.04913
G1 X99.925 Y119.445 E2.07275
G1 X99.378 Y118.875 E2.0964
G1 X98.892 Y118.253 E2.12002
G1 X98.471 Y117.585 E2.14366
G1 X98.119 Y116.877 E2.16733
G1 X97.841 Y116.138 E2.19096
G1 X97.64 Y115.375 E2.21458
G1 X97.503 Y114.459 E2.24231
G1 X97.484 Y114.246 E2.24871
G1 X97.453 Y113.553 E2.26947
G1 X97.453 Y113.188 E2.2804
G1 X97.498 Y112.355 E2.30537
G1 X97.537 Y111.992 E2.3163
G1 X97.664 Y111.198 E2.34037
G1 X97.741 Y110.837 E2.35142
G1 X97.952 Y110.049 E2.37584
G1 X98.065 Y109.702 E2.38676
G1 X98.354 Y108.949 E2.4109
G1 X98.502 Y108.616 E2.42181
G1 X98.873 Y107.887 E2.4463
G1 X99.057 Y107.568 E2.45732
G1 X99.49 Y106.899 E2.48118
G1 X99.703 Y106.604 E2.49207
G1 X100.263 Y105.915 E2.51865
G1 X100.511 Y105.643 E2.52966
G1 X101.043 Y105.113 E2.55214
G0 F9000 X101.311 Y105.41
G1 F1200 X101.583 Y105.164 E2.56312
G1 X102.211 Y104.655 E2.58732
G1 X102.507 Y104.441 E2.59825
G1 X103.146 Y104.028 E2.62103
G1 X103.465 Y103.844 E2.63205
G1 X103.677 Y103.735 E2.63919
G1 X109.518 Y97.894 E2.88646
G1 X110.09 Y97.38 E2.90948
G1 X110.712 Y96.927 E2.93251
G1 X111.377 Y96.541 E2.95553
G1 X112.079 Y96.226 E2.97856
G1 X112.81 Y95.986 E3.00159
G1 X113.561 Y95.823 E3.02459
G1 X114.326 Y95.739 E3.04763
G1 X115.095 Y95.735 E3.07065
G1 X115.86 Y95.811 E3.09366
G1 X116.614 Y95.965 E3.1167
G1 X117.347 Y96.197 E3.13971
G1 X118.052 Y96.504 E3.16273
G1 X118.722 Y96.883 E3.18577
G1 X119.349 Y97.329 E3.20881
G1 X119.926 Y97.837 E3.23182
G1 X120.447 Y98.403 E3.25485
G1 X120.906 Y99.02 E3.27787
G1 X121.3 Y99.681 E3.3009
G1 X121.622 Y100.379 E3.32391
G1 X121.87 Y101.107 E3.34693
G1 X122.041 Y101.857 E3.36996
G1 X122.134 Y102.621 E3.393
G1 X122.151 Y103.127 E3.40815
G1 X122.151 Y106.38 E3.50553
G1 X122.111 Y107.148 E3.52855
G1 X122.076 Y107.374 E3.53539
G1 X122.134 Y107.854 E3.54987
G1 X122.151 Y108.36 E3.56502
G1 X122.151 Y111.613 E3.6624
G1 X122.111 Y112.381 E3.68542
G1 X121.992 Y113.141 E3.70845
G1 X121.794 Y113.884 E3.73146
G1 X121.52 Y114.603 E3.7545
G1 X121.173 Y115.289 E3.77751
G1 X120.757 Y115.936 E3.80053
G1 X120.276 Y116.536 E3.82355
G1 X119.984 Y116.846 E3.8363
G1 X118.4 Y118.43 E3.90336
G1 X118.382 Y118.466 E3.90456
G1 X117.983 Y119.159 E3.9285
G1 X117.782 Y119.468 E3.93953
G1 X117.305 Y120.12 E3.96372
G1 X117.075 Y120.401 E3.97458
G1 X116.592 Y120.936 E3.99616
G1 X116.333 Y121.196 E4.00715
G1 X115.745 Y121.727 E4.03086
G1 X115.462 Y121.956 E4.04176
G1 X114.837 Y122.409 E4.06487
G1 X114.529 Y122.609 E4.07586
G1 X113.857 Y122.997 E4.09909
G1 X113.529 Y123.164 E4.1101
G1 X112.836 Y123.474 E4.13283
G1 X112.494 Y123.606 E4.1438
G1 X111.762 Y123.845 E4.16685
G1 X111.411 Y123.94 E4.17774
G1 X110.597 Y124.112 E4.20264
G1 X110.231 Y124.168 E4.21373
G1 X109.517 Y124.242 E4.23521
G1 X109.152 Y124.262 E4.24616
G1 X108.352 Y124.262 E4.2701
G1 X107.978 Y124.242 E4.28131
G1 X107.213 Y124.162 E4.30434
G1 X106.461 Y124.002 E4.32735
G1 X105.729 Y123.764 E4.35039
G1 X105.026 Y123.453 E4.37341
G1 X104.604 Y123.221 E4.38782
G1 X103.962 Y122.797 E4.41085
G1 X103.368 Y122.309 E4.43386
G1 X102.827 Y121.762 E4.45689
G1 X102.347 Y121.161 E4.47992
G1 X101.931 Y120.514 E4.50294
G1 X101.828 Y120.31 E4.50978
G1 X101.251 Y119.978 E4.52971
G1 X100.628 Y119.528 E4.55272
G1 X100.055 Y119.014 E4.57576
G1 X99.539 Y118.445 E4.59875
G1 X99.084 Y117.824 E4.62179
G1 X98.696 Y117.16 E4.64482
G1 X98.379 Y116.459 E4.66785
G1 X98.137 Y115.729 E4.69087
G1 X97.972 Y114.978 E4.71388
G1 X97.901 Y114.423 E4.73063
G1 X97.882 Y114.21 E4.73703
G1 X97.853 Y113.553 E4.75672
G1 X97.853 Y113.188 E4.76765
G1 X97.895 Y112.398 E4.79133
G1 X97.934 Y112.035 E4.80226
G1 X98.055 Y111.281 E4.82511
G1 X98.132 Y110.92 E4.83616
G1 X98.333 Y110.173 E4.85932
G1 X98.446 Y109.826 E4.87024
G1 X98.72 Y109.112 E4.89314
G1 X98.868 Y108.779 E4.90404
G1 X99.22 Y108.087 E4.92729
G1 X99.404 Y107.768 E4.93831
G1 X99.814 Y107.133 E4.96093
G1 X100.027 Y106.838 E4.97183
G1 X100.559 Y106.184 E4.99706
G1 X100.807 Y105.912 E5.00808
G1 X101.311 Y105.41 E5.02937
G0 F9000 X101.58 Y105.706
G1 F1200 X101.852 Y105.46 E5.04035
G1 X102.446 Y104.979 E5.06323
G1 X102.742 Y104.765 E5.07417
G1 X103.345 Y104.374 E5.09568
G1 X103.664 Y104.19 E5.1067
G1 X103.918 Y104.06 E5.11524
G1 X109.801 Y98.177 E5.36429
G1 X110.358 Y97.677 E5.3867
G1 X110.964 Y97.24 E5.40906
G1 X111.614 Y96.869 E5.43146
G1 X112.3 Y96.57 E5.45386
G1 X113.014 Y96.346 E5.47626
G1 X113.747 Y96.199 E5.49864
G1 X114.492 Y96.132 E5.52103
G1 X115.24 Y96.144 E5.54343
G1 X115.983 Y96.236 E5.56584
G1 X116.711 Y96.407 E5.58822
G1 X117.417 Y96.654 E5.61061
G1 X118.092 Y96.976 E5.633
G1 X118.73 Y97.368 E5.65541
G1 X119.321 Y97.825 E5.67778
G1 X119.861 Y98.343 E5.70018
G1 X120.343 Y98.916 E5.72259
G1 X120.76 Y99.536 E5.74496
G1 X121.109 Y100.198 E5.76736
G1 X121.385 Y100.893 E5.78974
G1 X121.586 Y101.614 E5.81215
G1 X121.708 Y102.352 E5.83454
G1 X121.751 Y103.127 E5.85777
G1 X121.751 Y106.38 E5.95515
G1 X121.711 Y107.127 E5.97754
G1 X121.672 Y107.367 E5.98482
G1 X121.708 Y107.585 E5.99144
G1 X121.751 Y108.36 E6.01467
G1 X121.751 Y111.613 E6.11205
G1 X121.711 Y112.36 E6.13444
G1 X121.592 Y113.098 E6.15682
G1 X121.394 Y113.82 E6.17923
G1 X121.121 Y114.516 E6.20161
G1 X120.774 Y115.179 E6.22401
G1 X120.359 Y115.802 E6.24641
G1 X119.701 Y116.563 E6.27653
G1 X118.074 Y118.19 E6.3454
G1 X118.026 Y118.285 E6.34859
G1 X117.648 Y118.941 E6.37125
G1 X117.447 Y119.25 E6.38229
G1 X116.996 Y119.867 E6.40517
G1 X116.766 Y120.148 E6.41604
G1 X116.308 Y120.654 E6.43647
G1 X116.049 Y120.914 E6.44745
G1 X115.493 Y121.416 E6.46987
G1 X115.21 Y121.645 E6.48077
G1 X114.619 Y122.074 E6.50263
G1 X114.311 Y122.274 E6.51363
G1 X113.675 Y122.641 E6.53561
G1 X113.347 Y122.808 E6.54662
G1 X112.692 Y123.1 E6.56809
G1 X112.35 Y123.232 E6.57906
G1 X111.658 Y123.459 E6.60086
G1 X111.307 Y123.554 E6.61175
G1 X110.537 Y123.716 E6.6353
G1 X110.171 Y123.772 E6.64639
G1 X109.495 Y123.843 E6.66673
G1 X109.13 Y123.863 E6.67768
G1 X108.373 Y123.863 E6.70034
G1 X107.999 Y123.843 E6.71155
G1 X107.255 Y123.763 E6.73395
G1 X106.524 Y123.604 E6.75634
G1 X105.814 Y123.369 E6.77873
G1 X104.824 Y122.887 E6.81169
G1 X104.183 Y122.463 E6.83469
G1 X103.607 Y121.986 E6.85708
G1 X103.086 Y121.45 E6.87946
G1 X102.624 Y120.861 E6.90186
G1 X102.228 Y120.227 E6.92424
G1 X102.123 Y120.01 E6.93146
G1 X101.972 Y119.939 E6.93645
G1 X101.332 Y119.552 E6.95884
G1 X100.737 Y119.098 E6.98124
G1 X100.194 Y118.584 E7.00362
G1 X99.709 Y118.015 E7.026
G1 X99.287 Y117.397 E7.0484
G1 X98.934 Y116.737 E7.07081
G1 X98.653 Y116.044 E7.09319
G1 X98.448 Y115.325 E7.11557
G1 X98.3 Y114.388 E7.14397
G1 X98.281 Y114.175 E7.15037
G1 X98.253 Y113.553 E7.16901
G1 X98.253 Y113.188 E7.17994
G1 X98.293 Y112.44 E7.20236
G1 X98.332 Y112.077 E7.21329
G1 X98.446 Y111.365 E7.23487
G1 X98.523 Y111.004 E7.24592
G1 X98.713 Y110.296 E7.26786
G1 X98.826 Y109.949 E7.27879
G1 X99.085 Y109.274 E7.30043
G1 X99.233 Y108.941 E7.31134
G1 X99.566 Y108.286 E7.33333
G1 X99.75 Y107.967 E7.34436
G1 X100.139 Y107.367 E7.36576
G1 X100.352 Y107.072 E7.37665
G1 X100.854 Y106.454 E7.40049
G1 X101.102 Y106.182 E7.41151
G1 X101.58 Y105.706 E7.4317
G0 F9000 X101.848 Y106.003
G1 F1200 X102.12 Y105.757 E7.44268
G1 X102.68 Y105.303 E7.46426
G1 X102.976 Y105.089 E7.47519
G1 X103.545 Y104.721 E7.49547
G1 X103.864 Y104.537 E7.5065
G1 X104.158 Y104.386 E7.51639
G1 X110.084 Y98.46 E7.76726
G1 X110.625 Y97.976 E7.78899
G1 X111.216 Y97.553 E7.81074
G1 X111.85 Y97.199 E7.83248
G1 X112.519 Y96.916 E7.85422
G1 X113.215 Y96.708 E7.87597
G1 X113.93 Y96.578 E7.89772
G1 X114.654 Y96.528 E7.91945
G1 X115.38 Y96.557 E7.9412
G1 X116.098 Y96.666 E7.96293
G1 X116.8 Y96.853 E7.98468
G1 X117.477 Y97.116 E8.00642
G1 X118.121 Y97.452 E8.02817
G1 X118.724 Y97.857 E8.04991
G1 X119.279 Y98.326 E8.07166
G1 X119.78 Y98.852 E8.0934
G1 X120.219 Y99.431 E8.11515
G1 X120.592 Y100.054 E8.13689
G1 X120.894 Y100.714 E8.15862
G1 X121.122 Y101.404 E8.18037
G1 X121.273 Y102.115 E8.20213
G1 X121.351 Y103.127 E8.23251
G1 X121.351 Y106.38 E8.32989
G1 X121.311 Y107.105 E8.35162
G1 X121.273 Y107.348 E8.35898
G1 X121.351 Y108.36 E8.38937
G1 X121.351 Y111.613 E8.48674
G1 X121.311 Y112.338 E8.50848
G1 X121.192 Y113.055 E8.53024
G1 X120.994 Y113.754 E8.55198
G1 X120.721 Y114.427 E8.57372
G1 X120.376 Y115.066 E8.59546
G1 X119.962 Y115.663 E8.61721
G1 X119.418 Y116.28 E8.64183
G1 X117.746 Y117.952 E8.71261
G1 X117.669 Y118.104 E8.71771
G1 X117.313 Y118.723 E8.73909
G1 X117.112 Y119.032 E8.75012
G1 X116.686 Y119.613 E8.77169
G1 X116.456 Y119.894 E8.78256
G1 X116.025 Y120.372 E8.80182
G1 X115.766 Y120.632 E8.81281
G1 X115.242 Y121.105 E8.83394
G1 X114.959 Y121.334 E8.84484
G1 X114.401 Y121.738 E8.86546
G1 X114.093 Y121.938 E8.87645
G1 X113.494 Y122.285 E8.89717
G1 X113.166 Y122.452 E8.90819
G1 X112.547 Y122.727 E8.92847
G1 X112.205 Y122.859 E8.93944
G1 X111.553 Y123.073 E8.95998
G1 X111.202 Y123.168 E8.97087
G1 X110.476 Y123.321 E8.99308
G1 X110.11 Y123.377 E9.00416
G1 X109.473 Y123.443 E9.02333
G1 X109.108 Y123.463 E9.03427
G1 X108.395 Y123.464 E9.05561
G1 X108.021 Y123.444 E9.06683
G1 X107.298 Y123.365 E9.0886
G1 X106.589 Y123.207 E9.11034
G1 X105.902 Y122.973 E9.13207
G1 X105.027 Y122.542 E9.16126
G1 X104.405 Y122.13 E9.1836
G1 X103.848 Y121.663 E9.20535
G1 X103.345 Y121.139 E9.2271
G1 X102.904 Y120.562 E9.24884
G1 X102.528 Y119.941 E9.27057
G1 X102.42 Y119.708 E9.27826
G1 X102.031 Y119.516 E9.29124
G1 X101.419 Y119.125 E9.31298
G1 X100.853 Y118.669 E9.33474
G1 X100.341 Y118.153 E9.3565
G1 X99.889 Y117.585 E9.37823
G1 X99.502 Y116.97 E9.39998
G1 X99.185 Y116.317 E9.42171
G1 X98.941 Y115.633 E9.44344
G1 X98.775 Y114.926 E9.46518
G1 X98.698 Y114.352 E9.48252
G1 X98.679 Y114.139 E9.48892
G1 X98.653 Y113.553 E9.50648
G1 X98.653 Y113.188 E9.5174
G1 X98.691 Y112.483 E9.53854
G1 X98.73 Y112.12 E9.54947
G1 X98.837 Y111.448 E9.56984
G1 X98.914 Y111.087 E9.58089
G1 X99.093 Y110.42 E9.60156
G1 X99.206 Y110.073 E9.61248
G1 X99.451 Y109.436 E9.63291
G1 X99.599 Y109.103 E9.64382
G1 X99.913 Y108.486 E9.66454
G1 X100.097 Y108.167 E9.67557
G1 X100.463 Y107.601 E9.69574
G1 X100.676 Y107.306 E9.70664
G1 X101.15 Y106.723 E9.72913
G1 X101.398 Y106.451 E9.74015
G1 X101.848 Y106.003 E9.75915
G0 F9000 X102.116 Y106.3
G1 F1200 X102.388 Y106.054 E9.77013
G1 X102.914 Y105.628 E9.79039
G1 X103.21 Y105.414 E9.80133
G1 X103.745 Y105.067 E9.82042
G1 X104.064 Y104.883 E9.83144
G1 X104.398 Y104.712 E9.84267
G1 X110.367 Y98.743 E10.09536
G1 X110.892 Y98.274 E10.11643
G1 X111.467 Y97.868 E10.1375
G1 X112.085 Y97.53 E10.15859
G1 X112.736 Y97.263 E10.17965
G1 X113.414 Y97.073 E10.20073
G1 X114.109 Y96.96 E10.2218
G1 X114.812 Y96.927 E10.24287
G1 X115.515 Y96.974 E10.26396
G1 X116.207 Y97.1 E10.28502
G1 X116.881 Y97.304 E10.3061
G1 X117.527 Y97.583 E10.32716
G1 X118.138 Y97.934 E10.34825
G1 X118.705 Y98.351 E10.36932
G1 X119.221 Y98.83 E10.3904
G1 X119.679 Y99.365 E10.41148
G1 X120.074 Y99.947 E10.43253
G1 X120.4 Y100.571 E10.45361
G1 X120.653 Y101.228 E10.47468
G1 X120.83 Y101.91 E10.49577
G1 X120.929 Y102.607 E10.51685
G1 X120.951 Y103.127 E10.53243
G1 X120.951 Y106.38 E10.6298
G1 X120.911 Y107.083 E10.65088
G1 X120.862 Y107.369 E10.65957
G1 X120.929 Y107.84 E10.67381
G1 X120.951 Y108.36 E10.68939
G1 X120.951 Y111.613 E10.78676
G1 X120.911 Y112.316 E10.80784
G1 X120.792 Y113.01 E10.82892
G1 X120.594 Y113.685 E10.84997
G1 X120.322 Y114.334 E10.87104
G1 X119.977 Y114.948 E10.89212
G1 X119.566 Y115.519 E10.91318
G1 X119.135 Y115.997 E10.93245
G1 X117.419 Y117.713 E11.00509
G1 X117.312 Y117.924 E11.01217
G1 X116.977 Y118.505 E11.03225
G1 X116.776 Y118.814 E11.04328
G1 X116.377 Y119.36 E11.06353
G1 X116.147 Y119.641 E11.0744
G1 X115.742 Y120.09 E11.0925
G1 X115.483 Y120.35 E11.10348
G1 X114.99 Y120.794 E11.12334
G1 X114.707 Y121.023 E11.13424
G1 X114.184 Y121.403 E11.15359
G1 X113.876 Y121.603 E11.16458
G1 X113.312 Y121.928 E11.18407
G1 X112.984 Y122.095 E11.19509
G1 X112.403 Y122.354 E11.21413
G1 X112.061 Y122.486 E11.2251
G1 X111.449 Y122.687 E11.24438
G1 X111.098 Y122.782 E11.25527
G1 X110.416 Y122.926 E11.27613
G1 X110.05 Y122.982 E11.28722
G1 X109.451 Y123.044 E11.30524
G1 X109.086 Y123.064 E11.31619
G1 X108.416 Y123.064 E11.33624
G1 X108.042 Y123.044 E11.34745
G1 X107.342 Y122.967 E11.36853
G1 X106.656 Y122.81 E11.3896
G1 X105.991 Y122.577 E11.41069
G1 X105.212 Y122.187 E11.43677
G1 X104.627 Y121.796 E11.45783
G1 X104.089 Y121.342 E11.47891
