;FLAVOR:Marlin
;TIME:8227
;Filament used: 4.9158m
;Layer height: 0.2
;MINX:37.249
;MINY:90.424
;MINZ:0.2
;MAXX:184.817
;MAXY:129.576
;MAXZ:33
;Generated with Cura_SteamEngine 4.10.0
M140 S70
M105
M190 S70
M104 S210
M105
M109 S210
M82 ;absolute extrusion mode
; Ender 3 Custom Start G-code
G92 E0 ; Reset Extruder
G28 ; Home all axes
G1 Z2.0 F3000 ; Move Z Axis up little to prevent scratching of Heat Bed
G1 X0.1 Y20 Z0.3 F5000.0 ; Move to start position
G1 X0.1 Y200.0 Z0.3 F1500.0 E15 ; Draw the first line
G1 X0.4 Y200.0 Z0.3 F5000.0 ; Move to side a little
G1 X0.4 Y20 Z0.3 F1500.0 E30 ; Draw the second line
G92 E0 ; Reset Extruder
G1 Z2.0 F3000 ; Move Z Axis up little to prevent scratching of Heat Bed
G1 X5 Y20 Z0.3 F5000.0 ; Move over to prevent blob squish
G92 E0
G92 E0
G1 F1500 E-6.5
;LAYER_COUNT:165
;LAYER:0
M107
G1 F300 Z0.4
G0 F9000 X48.548 Y97.782 Z0.4
;TYPE:SKIRT
G1 F300 Z0.2
G1 F1500 E0
G1 F1200 X49.272 Y97.469 E0.02361
G1 X50.025 Y97.23 E0.04726
G1 X50.798 Y97.069 E0.0709
G1 X51.584 Y96.987 E0.09455
G1 X51.985 Y96.976 E0.10656
G1 X124.986 Y96.828 E2.29178
G1 X125.775 Y96.866 E2.31543
G1 X126.556 Y96.984 E2.33907
G1 X127.321 Y97.181 E2.36272
G1 X128.062 Y97.453 E2.38635
G1 X128.772 Y97.799 E2.40999
G1 X128.948 Y97.909 E2.4162
G1 X129.509 Y97.597 E2.43542
G1 X130.234 Y97.285 E2.45905
G1 X130.987 Y97.048 E2.48268
G1 X131.761 Y96.889 E2.50633
G1 X132.349 Y96.821 E2.52405
G1 X134.895 Y96.625 E2.60049
G1 X135.135 Y96.606 E2.60769
G1 X135.924 Y96.559 E2.63135
G1 X136.19 Y96.57 E2.63932
G1 X137.044 Y96.454 E2.66512
G1 X137.328 Y96.421 E2.67368
G1 X139.22 Y96.234 E2.73059
G1 X139.387 Y96.229 E2.73559
G1 X141.131 Y96.013 E2.78819
G1 X141.365 Y95.988 E2.79524
G1 X142.34 Y95.897 E2.82455
G1 X143.016 Y95.817 E2.84493
G1 X143.431 Y95.779 E2.8574
G1 X145.194 Y95.525 E2.91072
G1 X146.255 Y95.384 E2.94276
G1 X147.936 Y95.099 E2.9938
G1 X148.281 Y95.049 E3.00423
G1 X148.629 Y95.006 E3.01473
G1 X148.82 Y94.992 E3.02046
G1 X149.248 Y94.917 E3.03347
G1 X149.481 Y94.862 E3.04064
G1 X150.008 Y94.768 E3.05666
G1 X150.792 Y94.669 E3.08032
G1 X151.581 Y94.65 E3.10394
G1 X152.369 Y94.71 E3.1276
G1 X153.146 Y94.85 E3.15123
G1 X153.905 Y95.068 E3.17487
G1 X154.638 Y95.361 E3.1985
G1 X155.338 Y95.727 E3.22214
G1 X155.997 Y96.162 E3.24578
G1 X156.111 Y96.255 E3.25018
G1 X156.526 Y95.588 E3.2737
G1 X157.009 Y94.964 E3.29732
G1 X157.552 Y94.391 E3.32095
G1 X158.151 Y93.876 E3.3446
G1 X158.799 Y93.425 E3.36823
G1 X159.49 Y93.041 E3.39189
G1 X160.215 Y92.729 E3.41552
G1 X161.014 Y92.481 E3.44056
G1 X161.799 Y92.282 E3.4648
G1 X162.791 Y92.025 E3.49548
G1 X162.939 Y91.978 E3.50013
G1 X164.015 Y91.658 E3.53373
G1 X164.198 Y91.598 E3.5395
G1 X164.739 Y91.44 E3.55637
G1 X165 Y91.374 E3.56443
G1 X165.249 Y91.324 E3.57203
G1 X165.367 Y91.29 E3.5757
G1 X167.777 Y90.686 E3.65008
G1 X168.552 Y90.533 E3.67372
G1 X169.338 Y90.459 E3.69736
G1 X169.512 Y90.442 E3.70259
G1 X170.047 Y90.424 E3.71861
G1 X174.599 Y90.424 E3.85487
G1 X175.258 Y90.457 E3.87462
G1 X175.467 Y90.472 E3.8809
G1 X175.858 Y90.513 E3.89266
G1 X176.062 Y90.54 E3.89882
G1 X176.421 Y90.596 E3.9097
G1 X176.632 Y90.634 E3.91612
G1 X177.115 Y90.737 E3.9309
G1 X177.314 Y90.786 E3.93704
G1 X177.694 Y90.89 E3.94883
G1 X177.897 Y90.951 E3.95518
G1 X178.209 Y91.052 E3.96499
G1 X178.405 Y91.12 E3.9712
G1 X178.858 Y91.293 E3.98572
G1 X179.054 Y91.375 E3.99208
G1 X179.425 Y91.542 E4.00426
G1 X179.61 Y91.631 E4.0104
G1 X179.92 Y91.789 E4.02082
G1 X180.108 Y91.89 E4.0272
G1 X180.48 Y92.103 E4.04004
G1 X180.657 Y92.211 E4.04624
G1 X181.047 Y92.465 E4.06018
G1 X181.221 Y92.586 E4.06652
G1 X181.502 Y92.791 E4.07693
G1 X181.667 Y92.917 E4.08315
G1 X182.009 Y93.194 E4.09632
G1 X182.093 Y93.266 E4.09963
G1 X182.666 Y93.809 E4.12326
G1 X183.181 Y94.408 E4.14691
G1 X183.633 Y95.056 E4.17056
G1 X184.016 Y95.746 E4.19418
G1 X184.329 Y96.471 E4.21782
G1 X184.566 Y97.225 E4.24148
G1 X184.726 Y97.998 E4.26511
G1 X184.807 Y98.783 E4.28873
G1 X184.817 Y99.188 E4.30086
G1 X184.817 Y100.224 E4.33187
G1 X184.777 Y101.013 E4.35552
G1 X184.658 Y101.793 E4.37914
G1 X184.55 Y102.21 E4.39203
G1 X184.567 Y102.263 E4.3937
G1 X184.726 Y103.037 E4.41735
G1 X184.807 Y103.822 E4.44097
G1 X184.817 Y104.232 E4.45325
G1 X184.816 Y105.268 E4.48426
G1 X184.775 Y106.056 E4.50788
G1 X184.655 Y106.837 E4.53154
G1 X184.456 Y107.601 E4.55517
G1 X184.182 Y108.341 E4.57879
G1 X183.833 Y109.05 E4.60244
G1 X183.415 Y109.72 E4.62608
G1 X182.931 Y110.344 E4.64972
G1 X182.109 Y111.168 E4.68456
G1 X182.022 Y111.243 E4.688
G1 X181.651 Y111.544 E4.7023
G1 X181.484 Y111.671 E4.70858
G1 X181.208 Y111.871 E4.71879
G1 X181.035 Y111.991 E4.72509
G1 X180.635 Y112.251 E4.73937
G1 X180.457 Y112.359 E4.7456
G1 X180.107 Y112.559 E4.75767
G1 X179.923 Y112.658 E4.76392
G1 X179.58 Y112.831 E4.77542
G1 X179.391 Y112.921 E4.78169
G1 X179.025 Y113.085 E4.79369
G1 X178.832 Y113.165 E4.79995
G1 X178.435 Y113.316 E4.81266
G1 X178.239 Y113.385 E4.81888
G1 X177.874 Y113.504 E4.83037
G1 X177.669 Y113.565 E4.83678
G1 X177.247 Y113.678 E4.84985
G1 X177.045 Y113.726 E4.85607
G1 X176.664 Y113.806 E4.86772
G1 X176.459 Y113.844 E4.87396
G1 X176.051 Y113.909 E4.88633
G1 X175.845 Y113.936 E4.89255
G1 X175.468 Y113.976 E4.9039
G1 X175.236 Y113.995 E4.91087
G1 X174.601 Y114.021 E4.92989
G1 X165.742 Y114.024 E5.19508
G1 X164.828 Y114.253 E5.22328
G1 X164.053 Y114.407 E5.24693
G1 X163.267 Y114.481 E5.27057
G1 X162.477 Y114.475 E5.29422
G1 X161.692 Y114.389 E5.31785
G1 X160.92 Y114.225 E5.34148
G1 X160.168 Y113.983 E5.36513
G1 X159.444 Y113.666 E5.38879
G1 X158.757 Y113.278 E5.4124
G1 X158.21 Y112.892 E5.43244
G1 X158.201 Y112.91 E5.43305
G1 X157.783 Y113.581 E5.45671
G1 X157.3 Y114.205 E5.48033
G1 X156.756 Y114.778 E5.50398
G1 X156.158 Y115.293 E5.52761
G1 X155.51 Y115.744 E5.55124
G1 X154.82 Y116.128 E5.57488
G1 X154.094 Y116.44 E5.59853
G1 X153.341 Y116.677 E5.62216
G1 X152.609 Y116.83 E5.64455
G1 X152.042 Y116.92 E5.66173
G1 X151.547 Y116.99 E5.6767
G1 X148.361 Y117.475 E5.77316
G1 X147.91 Y117.538 E5.7868
G1 X147.471 Y117.587 E5.80002
G1 X145.874 Y117.826 E5.84836
G1 X145.521 Y117.871 E5.85901
G1 X143.963 Y118.032 E5.90589
G1 X143.63 Y118.077 E5.91595
G1 X142.224 Y118.237 E5.95831
G1 X142.06 Y118.254 E5.96325
G1 X138.186 Y118.612 E6.07971
G1 X137.971 Y118.629 E6.08616
G1 X137.646 Y118.65 E6.09591
G1 X137.34 Y118.664 E6.10508
G1 X135.523 Y118.804 E6.15963
G1 X135.318 Y118.817 E6.16578
G1 X133.342 Y118.917 E6.22501
G1 X132.829 Y118.917 E6.24036
G1 X132.829 Y119.134 E6.24686
G1 X132.812 Y119.662 E6.26267
G1 X132.794 Y119.935 E6.27086
G1 X132.744 Y120.44 E6.28605
G1 X132.709 Y120.706 E6.29408
G1 X132.622 Y121.229 E6.30995
G1 X132.569 Y121.492 E6.31798
G1 X132.43 Y122.07 E6.33578
G1 X132.36 Y122.318 E6.34349
G1 X132.179 Y122.877 E6.36108
G1 X132.092 Y123.115 E6.36867
G1 X131.859 Y123.681 E6.38699
G1 X131.757 Y123.904 E6.39433
G1 X131.436 Y124.53 E6.41539
G1 X131.32 Y124.733 E6.42239
G1 X130.94 Y125.334 E6.44367
G1 X130.812 Y125.517 E6.45036
G1 X130.286 Y126.187 E6.47586
G1 X130.144 Y126.349 E6.4823
G1 X129.577 Y126.932 E6.50665
G1 X129.429 Y127.069 E6.51269
G1 X128.823 Y127.575 E6.53632
G1 X128.419 Y127.86 E6.55112
G1 X128.179 Y128.018 E6.55972
G1 X127.498 Y128.418 E6.58336
G1 X126.632 Y128.805 E6.61175
G1 X126.379 Y128.9 E6.61984
G1 X125.627 Y129.14 E6.64347
G1 X124.645 Y129.333 E6.67343
G1 X124.384 Y129.367 E6.68131
G1 X123.392 Y129.432 E6.71107
G1 X52.067 Y129.576 E8.84612
G1 X51.278 Y129.539 E8.86977
G1 X50.497 Y129.423 E8.8934
G1 X49.732 Y129.228 E8.91703
G1 X48.99 Y128.957 E8.94068
G1 X48.279 Y128.612 E8.96434
G1 X47.607 Y128.198 E8.98796
G1 X46.981 Y127.717 E9.01159
G1 X46.406 Y127.176 E9.03523
G1 X45.889 Y126.579 E9.05887
G1 X45.435 Y125.933 E9.0825
G1 X45.048 Y125.244 E9.10616
G1 X44.734 Y124.52 E9.12978
G1 X44.494 Y123.767 E9.15344
G1 X44.331 Y122.995 E9.17706
G1 X44.247 Y122.21 E9.20069
G1 X44.235 Y121.792 E9.21321
G1 X44.234 Y121.182 E9.23147
G1 X43.483 Y121.068 E9.25421
G1 X42.719 Y120.871 E9.27782
G1 X41.978 Y120.597 E9.30147
G1 X41.269 Y120.25 E9.3251
G1 X40.598 Y119.833 E9.34875
G1 X39.974 Y119.35 E9.37237
G1 X39.401 Y118.806 E9.39602
G1 X38.886 Y118.208 E9.41964
G1 X38.434 Y117.56 E9.44329
G1 X38.05 Y116.87 E9.46693
G1 X37.738 Y116.145 E9.49056
G1 X37.5 Y115.391 E9.51423
G1 X37.34 Y114.618 E9.53786
G1 X37.26 Y113.833 E9.56148
G1 X37.249 Y113.427 E9.57363
G1 X37.249 Y109.427 E9.69337
G1 X37.289 Y108.638 E9.71702
G1 X37.408 Y107.858 E9.74064
G1 X37.606 Y107.093 E9.76429
G1 X37.88 Y106.353 E9.78791
G1 X38.228 Y105.644 E9.81156
G1 X38.646 Y104.973 E9.83522
G1 X39.129 Y104.349 E9.85884
G1 X39.672 Y103.776 E9.88247
G1 X40.271 Y103.261 E9.90612
G1 X40.919 Y102.81 E9.92975
G1 X41.61 Y102.426 E9.95341
G1 X42.335 Y102.114 E9.97704
G1 X43.088 Y101.877 E10.00067
G1 X43.862 Y101.718 E10.02432
G1 X44.433 Y101.659 E10.04151
G1 X44.897 Y101.26 E10.05983
G1 X45.126 Y101.101 E10.06817
G1 X45.172 Y101.006 E10.07133
G1 X45.589 Y100.335 E10.09498
G1 X46.071 Y99.71 E10.11861
G1 X46.613 Y99.136 E10.14224
G1 X47.211 Y98.62 E10.16588
G1 X47.858 Y98.167 E10.18952
G1 X48.548 Y97.782 E10.21318
G0 F9000 X48.923 Y98.046
G1 F1200 X49.638 Y97.763 E10.23619
G1 X50.379 Y97.556 E10.25922
G1 X51.137 Y97.427 E10.28224
G1 X51.986 Y97.376 E10.3077
G1 X124.987 Y97.228 E12.49293
G1 X125.755 Y97.266 E12.51594
G1 X126.515 Y97.384 E12.53897
G1 X127.259 Y97.581 E12.562
G1 X127.978 Y97.853 E12.58502
G1 X128.665 Y98.198 E12.60803
G1 X128.951 Y98.381 E12.61819
G1 X129.201 Y98.217 E12.62714
G1 X129.884 Y97.862 E12.65018
G1 X130.599 Y97.581 E12.67318
G1 X131.341 Y97.375 E12.69623
G1 X132.38 Y97.22 E12.72768
G1 X134.926 Y97.024 E12.80411
G1 X135.179 Y97.004 E12.81171
G1 X135.947 Y96.959 E12.83474
G1 X136.182 Y96.976 E12.84179
G1 X137.098 Y96.851 E12.86947
G1 X137.367 Y96.819 E12.87758
G1 X139.259 Y96.632 E12.93449
G1 X139.428 Y96.627 E12.93955
G1 X141.18 Y96.41 E12.99239
G1 X141.402 Y96.386 E12.99908
G1 X142.423 Y96.291 E13.02977
G1 X143.063 Y96.215 E13.04906
G1 X143.475 Y96.177 E13.06145
G1 X145.247 Y95.922 E13.11504
G1 X146.318 Y95.779 E13.14738
G1 X148.003 Y95.494 E13.19854
G1 X148.331 Y95.446 E13.20846
G1 X148.679 Y95.403 E13.21896
G1 X148.873 Y95.389 E13.22478
G1 X149.321 Y95.311 E13.23839
G1 X149.552 Y95.256 E13.2455
G1 X150.079 Y95.162 E13.26152
G1 X150.842 Y95.066 E13.28454
G1 X151.611 Y95.051 E13.30757
G1 X152.377 Y95.115 E13.33058
G1 X153.133 Y95.258 E13.35361
G1 X153.87 Y95.479 E13.37664
G1 X154.579 Y95.775 E13.39964
G1 X155.255 Y96.144 E13.42269
G1 X155.888 Y96.58 E13.4457
G1 X156.245 Y96.885 E13.45976
G1 X156.507 Y96.366 E13.47716
G1 X156.923 Y95.719 E13.50019
G1 X157.404 Y95.119 E13.52321
G1 X157.945 Y94.572 E13.54623
G1 X158.54 Y94.084 E13.56927
G1 X159.182 Y93.661 E13.59228
G1 X159.865 Y93.306 E13.61533
G1 X160.58 Y93.025 E13.63832
G1 X161.112 Y92.869 E13.65492
G1 X161.899 Y92.669 E13.67922
G1 X162.91 Y92.407 E13.71049
G1 X163.053 Y92.362 E13.71498
G1 X164.1 Y92.051 E13.74767
G1 X164.324 Y91.977 E13.75473
G1 X164.837 Y91.828 E13.77072
G1 X165.098 Y91.762 E13.77878
G1 X165.464 Y91.678 E13.79002
G1 X167.874 Y91.074 E13.86439
G1 X168.629 Y90.926 E13.88742
G1 X169.395 Y90.857 E13.91045
G1 X169.579 Y90.839 E13.91598
G1 X170.047 Y90.824 E13.93
G1 X174.599 Y90.824 E14.06626
G1 X175.226 Y90.857 E14.08505
G1 X175.435 Y90.87 E14.09132
G1 X175.806 Y90.91 E14.10249
G1 X176.01 Y90.937 E14.10865
G1 X176.351 Y90.99 E14.11898
G1 X176.562 Y91.028 E14.1254
G1 X177.019 Y91.126 E14.13939
G1 X177.218 Y91.175 E14.14552
G1 X177.579 Y91.273 E14.15672
G1 X177.782 Y91.334 E14.16307
G1 X178.078 Y91.43 E14.17238
G1 X178.274 Y91.498 E14.17859
G1 X178.704 Y91.662 E14.19237
G1 X178.9 Y91.744 E14.19873
G1 X179.252 Y91.903 E14.21029
G1 X179.437 Y91.992 E14.21643
G1 X179.731 Y92.141 E14.2263
G1 X179.919 Y92.242 E14.23269
G1 X180.271 Y92.444 E14.24484
G1 X180.448 Y92.552 E14.25104
G1 X180.819 Y92.794 E14.2643
G1 X180.993 Y92.915 E14.27065
G1 X181.259 Y93.109 E14.2805
G1 X181.424 Y93.235 E14.28672
G1 X181.749 Y93.498 E14.29923
G1 X181.833 Y93.57 E14.30254
G1 X182.39 Y94.1 E14.32556
G1 X182.889 Y94.685 E14.34858
G1 X183.325 Y95.319 E14.37161
G1 X183.692 Y95.994 E14.39461
G1 X183.988 Y96.705 E14.41766
G1 X184.208 Y97.442 E14.44069
G1 X184.35 Y98.197 E14.46368
G1 X184.417 Y99.188 E14.49341
G1 X184.417 Y100.224 E14.52443
G1 X184.377 Y100.992 E14.54745
G1 X184.258 Y101.752 E14.57047
G1 X184.132 Y102.226 E14.58516
G1 X184.24 Y102.617 E14.5973
G1 X184.368 Y103.375 E14.62031
G1 X184.417 Y104.231 E14.64597
G1 X184.416 Y105.267 E14.67699
G1 X184.375 Y106.035 E14.70001
G1 X184.255 Y106.795 E14.72304
G1 X184.057 Y107.538 E14.74606
G1 X183.782 Y108.257 E14.7691
G1 X183.435 Y108.943 E14.79211
G1 X183.018 Y109.589 E14.81513
G1 X182.536 Y110.189 E14.83817
G1 X181.848 Y110.865 E14.86704
G1 X181.761 Y110.94 E14.87048
G1 X181.408 Y111.225 E14.88406
G1 X181.241 Y111.352 E14.89034
G1 X180.98 Y111.542 E14.9
G1 X180.807 Y111.662 E14.90631
G1 X180.428 Y111.909 E14.91985
G1 X180.25 Y112.017 E14.92608
G1 X179.917 Y112.207 E14.93756
G1 X179.733 Y112.306 E14.94381
G1 X179.409 Y112.47 E14.95468
G1 X179.22 Y112.56 E14.96095
G1 X178.872 Y112.715 E14.97235
G1 X178.679 Y112.795 E14.9786
G1 X178.302 Y112.939 E14.99068
G1 X178.106 Y113.008 E14.9969
G1 X177.759 Y113.121 E15.00783
G1 X177.554 Y113.182 E15.01423
G1 X177.155 Y113.289 E15.0266
G1 X176.953 Y113.337 E15.03281
G1 X176.591 Y113.413 E15.04388
G1 X176.386 Y113.451 E15.05013
G1 X175.999 Y113.512 E15.06185
G1 X175.793 Y113.539 E15.06807
G1 X175.435 Y113.577 E15.07885
G1 X175.203 Y113.596 E15.08582
G1 X174.601 Y113.621 E15.10385
G1 X165.691 Y113.624 E15.37057
G1 X164.73 Y113.865 E15.40022
G1 X163.975 Y114.014 E15.42326
G1 X163.209 Y114.083 E15.44628
G1 X162.44 Y114.072 E15.4693
G1 X161.676 Y113.981 E15.49233
G1 X160.926 Y113.812 E15.51535
G1 X160.198 Y113.565 E15.53836
G1 X159.498 Y113.245 E15.5614
G1 X158.836 Y112.853 E15.58443
G1 X158.219 Y112.395 E15.60743
G1 X158.075 Y112.263 E15.61328
G1 X157.802 Y112.804 E15.63142
G1 X157.385 Y113.45 E15.65443
G1 X156.904 Y114.05 E15.67745
G1 X156.364 Y114.597 E15.70046
G1 X155.769 Y115.085 E15.7235
G1 X155.127 Y115.509 E15.74653
G1 X154.444 Y115.863 E15.76956
G1 X153.729 Y116.145 E15.79256
G1 X152.988 Y116.351 E15.81559
G1 X152.545 Y116.435 E15.82908
G1 X151.986 Y116.524 E15.84603
G1 X151.454 Y116.599 E15.86211
G1 X148.398 Y117.065 E15.95465
G1 X147.855 Y117.142 E15.97106
G1 X147.443 Y117.188 E15.98347
G1 X145.815 Y117.431 E16.03274
G1 X145.48 Y117.473 E16.04285
G1 X143.933 Y117.633 E16.08941
G1 X143.585 Y117.68 E16.09992
G1 X142.179 Y117.84 E16.14228
G1 X142.023 Y117.856 E16.14697
G1 X138.149 Y118.214 E16.26343
G1 X137.945 Y118.23 E16.26956
G1 X137.62 Y118.251 E16.2793
G1 X137.319 Y118.264 E16.28832
G1 X135.492 Y118.405 E16.34318
G1 X135.298 Y118.418 E16.349
G1 X133.322 Y118.518 E16.40822
G1 X132.553 Y118.516 E16.43124
G1 X132.428 Y118.503 E16.435
G1 X132.429 Y119.135 E16.45392
G1 X132.413 Y119.636 E16.46893
G1 X132.395 Y119.909 E16.47712
G1 X132.348 Y120.387 E16.49149
G1 X132.313 Y120.653 E16.49952
G1 X132.23 Y121.15 E16.51461
G1 X132.177 Y121.413 E16.52264
G1 X132.045 Y121.961 E16.53951
G1 X131.975 Y122.209 E16.54722
G1 X131.803 Y122.74 E16.56393
G1 X131.716 Y122.978 E16.57152
G1 X131.495 Y123.515 E16.5889
G1 X131.393 Y123.738 E16.59624
G1 X131.089 Y124.331 E16.61619
G1 X130.973 Y124.534 E16.62319
G1 X130.612 Y125.104 E16.64338
G1 X130.484 Y125.287 E16.65007
G1 X129.985 Y125.924 E16.67429
G1 X129.843 Y126.086 E16.68074
G1 X129.305 Y126.639 E16.70383
G1 X129.157 Y126.776 E16.70987
G1 X128.566 Y127.268 E16.73289
G1 X128.199 Y127.526 E16.74632
G1 X127.959 Y127.684 E16.75492
G1 X127.296 Y128.073 E16.77793
