;FLAVOR:Marlin
;TIME:2269
;Filament used: 0.985794m
;Layer height: 0.2
;MINX:80.48
;MINY:99.047
;MINZ:0.2
;MAXX:133.359
;MAXY:120.954
;MAXZ:26.4
;Generated with Cura_SteamEngine 4.10.0
M140 S70
M105
M190 S70
M104 S210
M105
M109 S210
M82 ;absolute extrusion mode
; Ender 3 Custom Start G-code
G92 E0 ; Reset Extruder
G28 ; Home all axes
G1 Z2.0 F3000 ; Move Z Axis up little to prevent scratching of Heat Bed
G1 X0.1 Y20 Z0.3 F5000.0 ; Move to start position
G1 X0.1 Y200.0 Z0.3 F1500.0 E15 ; Draw the first line
G1 X0.4 Y200.0 Z0.3 F5000.0 ; Move to side a little
G1 X0.4 Y20 Z0.3 F1500.0 E30 ; Draw the second line
G92 E0 ; Reset Extruder
G1 Z2.0 F3000 ; Move Z Axis up little to prevent scratching of Heat Bed
G1 X5 Y20 Z0.3 F5000.0 ; Move over to prevent blob squish
G92 E0
G92 E0
G1 F1500 E-6.5
;LAYER_COUNT:132
;LAYER:0
M107
G1 F300 Z0.4
G0 F9000 X83.739 Y101.165 Z0.4
;TYPE:SKIRT
G1 F300 Z0.2
G1 F1500 E0
G1 F1200 X83.946 Y100.998 E0.00796
G1 X84.585 Y100.534 E0.0316
G1 X84.967 Y100.301 E0.04499
G1 X85.166 Y100.187 E0.05186
G1 X85.87 Y99.83 E0.07549
G1 X86.628 Y99.538 E0.0998
G1 X86.843 Y99.468 E0.10657
G1 X87.821 Y99.219 E0.13678
G1 X87.869 Y99.21 E0.13824
G1 X88.553 Y99.112 E0.15893
G1 X88.852 Y99.083 E0.16792
G1 X89.641 Y99.047 E0.19156
G1 X90.784 Y99.137 E0.22588
G1 X91.098 Y99.185 E0.23539
G1 X91.871 Y99.343 E0.25901
G1 X92.838 Y99.662 E0.28949
G1 X93.118 Y99.775 E0.29853
G1 X93.835 Y100.107 E0.32218
G1 X94.772 Y100.689 E0.3552
G1 X95.029 Y100.875 E0.36469
G1 X95.645 Y101.37 E0.38835
G1 X96.288 Y102.014 E0.41559
G1 X96.447 Y102.193 E0.42276
G1 X96.94 Y102.809 E0.44638
G1 X96.96 Y102.839 E0.44745
G1 X97.413 Y102.839 E0.46102
G1 X97.88 Y102.207 E0.48454
G1 X98.411 Y101.622 E0.50819
G1 X98.999 Y101.095 E0.53182
G1 X99.636 Y100.629 E0.55545
G1 X100.318 Y100.23 E0.5791
G1 X101.036 Y99.903 E0.60272
G1 X101.784 Y99.649 E0.62636
G1 X102.554 Y99.473 E0.65001
G1 X103.338 Y99.375 E0.67366
G1 X103.91 Y99.354 E0.69079
G1 X125.557 Y99.354 E1.33878
G1 X126.346 Y99.394 E1.36243
G1 X127.126 Y99.513 E1.38604
G1 X127.891 Y99.711 E1.4097
G1 X128.631 Y99.985 E1.43332
G1 X129.34 Y100.333 E1.45696
G1 X130.011 Y100.751 E1.48063
G1 X130.635 Y101.234 E1.50425
G1 X131.208 Y101.777 E1.52788
G1 X131.723 Y102.376 E1.55152
G1 X132.174 Y103.024 E1.57516
G1 X132.558 Y103.715 E1.59882
G1 X132.87 Y104.44 E1.62245
G1 X133.107 Y105.193 E1.64608
G1 X133.266 Y105.967 E1.66973
G1 X133.347 Y106.752 E1.69335
G1 X133.357 Y107.151 E1.7053
G1 X133.359 Y113.151 E1.88491
G1 X133.319 Y113.94 E1.90855
G1 X133.2 Y114.721 E1.9322
G1 X133.002 Y115.485 E1.95583
G1 X132.729 Y116.226 E1.97947
G1 X132.381 Y116.935 E2.00311
G1 X131.964 Y117.606 E2.02676
G1 X131.481 Y118.23 E2.05038
G1 X130.937 Y118.803 E2.07403
G1 X130.339 Y119.318 E2.09765
G1 X129.691 Y119.77 E2.1213
G1 X129.001 Y120.154 E2.14494
G1 X128.275 Y120.466 E2.16859
G1 X127.522 Y120.703 E2.19222
G1 X126.749 Y120.863 E2.21585
G1 X125.963 Y120.944 E2.23951
G1 X125.559 Y120.954 E2.2516
G1 X122.029 Y120.954 E2.35727
G1 X121.24 Y120.914 E2.38092
G1 X120.929 Y120.889 E2.39026
G1 X118.752 Y120.662 E2.45578
G1 X115.837 Y120.524 E2.54313
G1 X112.986 Y120.547 E2.62848
G1 X112.796 Y120.554 E2.63417
G1 X110.153 Y120.723 E2.71345
G1 X109.743 Y120.759 E2.72577
G1 X108.761 Y120.876 E2.75537
G1 X108.264 Y120.906 E2.77028
G1 X108.173 Y120.919 E2.77303
G1 X107.433 Y120.954 E2.7952
G1 X103.902 Y120.954 E2.9009
G1 X103.113 Y120.914 E2.92455
G1 X102.941 Y120.888 E2.92976
G1 X102.435 Y120.94 E2.94498
G1 X102.023 Y120.95 E2.95732
G1 X93.394 Y120.939 E3.21562
G1 X92.605 Y120.898 E3.23927
G1 X91.554 Y120.716 E3.2712
G1 X90.608 Y120.485 E3.30035
G1 X90.467 Y120.447 E3.30472
G1 X89.959 Y120.361 E3.32014
G1 X89.513 Y120.27 E3.33377
G1 X88.748 Y120.073 E3.35742
G1 X88.007 Y119.8 E3.38106
G1 X87.297 Y119.453 E3.40471
G1 X86.627 Y119.036 E3.42833
G1 X85.808 Y118.383 E3.45969
G1 X84.073 Y116.795 E3.53009
G1 X83.875 Y116.609 E3.53823
G1 X83.327 Y116.04 E3.56187
G1 X82.84 Y115.418 E3.58552
G1 X82.506 Y114.903 E3.60389
G1 X82.006 Y114.06 E3.63323
G1 X81.638 Y113.361 E3.65688
G1 X81.374 Y112.717 E3.67772
G1 X80.989 Y111.645 E3.71181
G1 X80.76 Y110.89 E3.73543
G1 X80.609 Y110.115 E3.75906
G1 X80.553 Y109.604 E3.77445
G1 X80.505 Y108.977 E3.79327
G1 X80.489 Y108.722 E3.80092
G1 X80.48 Y108.516 E3.8071
G1 X80.489 Y107.67 E3.83242
G1 X80.507 Y107.393 E3.84073
G1 X80.598 Y106.609 E3.86436
G1 X80.81 Y105.693 E3.8925
G1 X80.874 Y105.476 E3.89927
G1 X81.135 Y104.73 E3.92293
G1 X81.436 Y104.082 E3.94432
G1 X81.564 Y103.836 E3.95262
G1 X81.963 Y103.154 E3.97627
G1 X82.303 Y102.677 E3.99381
G1 X82.457 Y102.477 E4.00136
G1 X82.97 Y101.877 E4.02499
G1 X83.739 Y101.165 E4.05636
G0 F9000 X83.991 Y101.477
G1 F1200 X84.198 Y101.31 E4.06433
G1 X84.82 Y100.858 E4.08734
G1 X85.166 Y100.648 E4.09946
G1 X85.365 Y100.534 E4.10632
G1 X86.051 Y100.187 E4.12933
G1 X86.752 Y99.919 E4.1518
G1 X86.967 Y99.849 E4.15857
G1 X87.894 Y99.612 E4.18721
G1 X87.942 Y99.603 E4.18867
G1 X88.592 Y99.511 E4.20832
G1 X88.891 Y99.482 E4.21731
G1 X89.659 Y99.447 E4.24033
G1 X90.723 Y99.532 E4.27228
G1 X91.037 Y99.58 E4.28179
G1 X91.79 Y99.736 E4.30481
G1 X92.688 Y100.033 E4.33312
G1 X92.968 Y100.146 E4.34216
G1 X93.666 Y100.47 E4.36519
G1 X94.538 Y101.013 E4.39594
G1 X94.795 Y101.199 E4.40544
G1 X95.393 Y101.682 E4.42845
G1 X95.989 Y102.28 E4.45372
G1 X96.148 Y102.459 E4.46089
G1 X96.628 Y103.059 E4.48389
G1 X96.746 Y103.239 E4.49033
G1 X97.642 Y103.239 E4.51715
G1 X97.8 Y102.98 E4.52624
G1 X98.266 Y102.368 E4.54926
G1 X98.793 Y101.808 E4.57228
G1 X99.376 Y101.306 E4.59531
G1 X100.007 Y100.867 E4.61832
G1 X100.681 Y100.496 E4.64135
G1 X101.389 Y100.196 E4.66437
G1 X102.125 Y99.972 E4.6874
G1 X102.88 Y99.826 E4.71042
G1 X103.91 Y99.754 E4.74132
G1 X125.557 Y99.754 E5.38931
G1 X126.325 Y99.794 E5.41233
G1 X127.085 Y99.913 E5.43535
G1 X127.828 Y100.111 E5.45837
G1 X128.547 Y100.385 E5.4814
G1 X129.233 Y100.732 E5.50442
G1 X129.88 Y101.148 E5.52744
G1 X130.48 Y101.629 E5.55046
G1 X131.027 Y102.17 E5.57349
G1 X131.515 Y102.765 E5.59653
G1 X131.938 Y103.407 E5.61954
G1 X132.293 Y104.09 E5.64258
G1 X132.574 Y104.805 E5.66558
G1 X132.78 Y105.547 E5.68863
G1 X132.908 Y106.305 E5.71164
G1 X132.957 Y107.152 E5.73704
G1 X132.959 Y113.152 E5.91664
G1 X132.919 Y113.92 E5.93966
G1 X132.8 Y114.68 E5.96269
G1 X132.603 Y115.423 E5.9857
G1 X132.329 Y116.142 E6.00873
G1 X131.982 Y116.828 E6.03174
G1 X131.566 Y117.475 E6.05477
G1 X131.085 Y118.075 E6.07779
G1 X130.545 Y118.622 E6.1008
G1 X129.95 Y119.11 E6.12383
G1 X129.308 Y119.534 E6.14686
G1 X128.626 Y119.889 E6.16988
G1 X127.91 Y120.171 E6.19291
G1 X127.169 Y120.377 E6.21594
G1 X126.41 Y120.505 E6.23898
G1 X125.559 Y120.554 E6.26449
G1 X122.029 Y120.554 E6.37016
G1 X121.261 Y120.514 E6.39318
G1 X120.971 Y120.491 E6.40189
G1 X118.796 Y120.265 E6.46735
G1 X115.835 Y120.124 E6.55608
G1 X113.006 Y120.147 E6.64077
G1 X112.758 Y120.156 E6.6482
G1 X110.092 Y120.326 E6.72816
G1 X109.726 Y120.358 E6.73916
G1 X108.714 Y120.479 E6.76967
G1 X108.084 Y120.516 E6.78856
G1 X107.836 Y120.543 E6.79603
G1 X107.433 Y120.554 E6.8081
G1 X103.902 Y120.554 E6.91379
G1 X103.134 Y120.514 E6.93681
G1 X102.882 Y120.501 E6.94437
G1 X102.024 Y120.55 E6.97009
G1 X93.395 Y120.539 E7.2284
G1 X92.627 Y120.498 E7.25142
G1 X91.649 Y120.328 E7.28113
G1 X90.703 Y120.097 E7.31028
G1 X90.506 Y120.048 E7.31636
G1 X90.039 Y119.969 E7.33054
G1 X89.593 Y119.878 E7.34416
G1 X88.848 Y119.685 E7.3672
G1 X88.127 Y119.416 E7.39023
G1 X87.439 Y119.074 E7.41323
G1 X86.789 Y118.662 E7.43627
G1 X86.078 Y118.088 E7.46362
G1 X84.346 Y116.503 E7.5339
G1 X84.148 Y116.317 E7.54203
G1 X83.616 Y115.762 E7.56505
G1 X83.144 Y115.155 E7.58806
G1 X82.85 Y114.699 E7.60431
G1 X82.35 Y113.856 E7.63364
G1 X81.993 Y113.175 E7.65666
G1 X81.751 Y112.582 E7.67583
G1 X81.366 Y111.51 E7.70993
G1 X81.144 Y110.774 E7.73294
G1 X80.999 Y110.018 E7.75598
G1 X80.952 Y109.574 E7.76935
G1 X80.904 Y108.947 E7.78817
G1 X80.88 Y108.499 E7.8016
G1 X80.889 Y107.696 E7.82564
G1 X80.907 Y107.419 E7.83395
G1 X80.996 Y106.655 E7.85697
G1 X81.193 Y105.806 E7.88306
G1 X81.257 Y105.589 E7.88984
G1 X81.513 Y104.863 E7.91288
G1 X81.79 Y104.266 E7.93258
G1 X81.918 Y104.02 E7.94088
G1 X82.308 Y103.357 E7.96391
G1 X82.62 Y102.921 E7.97996
G1 X82.774 Y102.721 E7.98751
G1 X83.274 Y102.137 E8.01052
G1 X83.991 Y101.477 E8.0397
G0 F9000 X84.242 Y101.788
G1 F1200 X84.449 Y101.621 E8.04766
G1 X85.364 Y100.995 E8.08084
G1 X85.563 Y100.881 E8.08771
G1 X86.231 Y100.544 E8.11011
G1 X86.876 Y100.299 E8.13076
G1 X87.091 Y100.229 E8.13753
G1 X87.968 Y100.005 E8.16462
G1 X88.016 Y99.996 E8.16608
G1 X88.63 Y99.909 E8.18465
G1 X88.929 Y99.88 E8.19364
G1 X89.677 Y99.847 E8.21605
G1 X90.663 Y99.927 E8.24566
G1 X90.977 Y99.975 E8.25517
G1 X91.709 Y100.128 E8.27756
G1 X92.539 Y100.404 E8.30374
G1 X92.819 Y100.517 E8.31278
G1 X93.496 Y100.833 E8.33514
G1 X94.303 Y101.337 E8.36362
G1 X94.56 Y101.523 E8.37312
G1 X95.142 Y101.994 E8.39553
G1 X95.689 Y102.545 E8.41877
G1 X95.848 Y102.724 E8.42594
G1 X96.315 Y103.309 E8.44835
G1 X96.53 Y103.639 E8.46014
G1 X97.864 Y103.639 E8.50007
G1 X98.188 Y103.121 E8.51836
G1 X98.651 Y102.534 E8.54074
G1 X99.175 Y101.999 E8.56315
G1 X99.752 Y101.523 E8.58555
G1 X100.376 Y101.111 E8.60793
G1 X101.041 Y100.769 E8.63031
G1 X101.739 Y100.499 E8.65272
G1 X102.462 Y100.305 E8.67512
G1 X103.201 Y100.19 E8.69751
G1 X103.91 Y100.154 E8.71876
G1 X125.557 Y100.154 E9.36675
G1 X126.304 Y100.194 E9.38914
G1 X127.042 Y100.313 E9.41152
G1 X127.764 Y100.511 E9.43393
G1 X128.46 Y100.784 E9.45631
G1 X129.123 Y101.131 E9.47871
G1 X129.746 Y101.546 E9.50111
G1 X130.32 Y102.025 E9.52349
G1 X130.841 Y102.562 E9.54589
G1 X131.3 Y103.152 E9.56827
G1 X131.695 Y103.788 E9.59068
G1 X132.019 Y104.462 E9.61306
G1 X132.269 Y105.167 E9.63545
G1 X132.443 Y105.895 E9.65786
G1 X132.538 Y106.637 E9.68025
G1 X132.557 Y107.152 E9.69568
G1 X132.559 Y113.152 E9.87528
G1 X132.519 Y113.899 E9.89768
G1 X132.4 Y114.637 E9.92005
G1 X132.203 Y115.359 E9.94245
G1 X131.93 Y116.055 E9.96483
G1 X131.584 Y116.718 E9.98722
G1 X131.169 Y117.341 E10.00963
G1 X130.69 Y117.916 E10.03203
G1 X130.153 Y118.436 E10.05441
G1 X129.563 Y118.896 E10.0768
G1 X128.927 Y119.29 E10.0992
G1 X128.253 Y119.615 E10.1216
G1 X127.548 Y119.865 E10.14399
G1 X126.821 Y120.039 E10.16636
G1 X126.079 Y120.135 E10.18876
G1 X125.559 Y120.154 E10.20434
G1 X122.029 Y120.154 E10.31
G1 X121.282 Y120.114 E10.3324
G1 X121.012 Y120.093 E10.3405
G1 X118.82 Y119.865 E10.40647
G1 X115.851 Y119.724 E10.49545
G1 X112.989 Y119.747 E10.58112
G1 X112.752 Y119.755 E10.58822
G1 X110.074 Y119.926 E10.66855
G1 X109.673 Y119.962 E10.6806
G1 X108.666 Y120.082 E10.71095
G1 X107.433 Y120.154 E10.74793
G1 X103.902 Y120.154 E10.85362
G1 X103.155 Y120.114 E10.87602
G1 X102.946 Y120.08 E10.88235
G1 X102.55 Y120.131 E10.89431
G1 X102.024 Y120.15 E10.91006
G1 X93.395 Y120.139 E11.16836
G1 X92.648 Y120.098 E11.19076
G1 X91.743 Y119.939 E11.21826
G1 X90.797 Y119.708 E11.24741
G1 X90.54 Y119.649 E11.25531
G1 X90.119 Y119.577 E11.26809
G1 X89.673 Y119.486 E11.28172
G1 X88.949 Y119.297 E11.30412
G1 X88.249 Y119.033 E11.32651
G1 X87.582 Y118.695 E11.34889
G1 X86.954 Y118.288 E11.3713
G1 X86.348 Y117.793 E11.39472
G1 X84.62 Y116.212 E11.46483
G1 X84.422 Y116.026 E11.47296
G1 X83.905 Y115.485 E11.49536
G1 X83.449 Y114.893 E11.51773
G1 X83.194 Y114.495 E11.53188
G1 X82.694 Y113.652 E11.56122
G1 X82.348 Y112.989 E11.5836
G1 X82.127 Y112.447 E11.60112
G1 X81.742 Y111.375 E11.63522
G1 X81.527 Y110.658 E11.65763
G1 X81.39 Y109.923 E11.68001
G1 X81.35 Y109.543 E11.69145
G1 X81.302 Y108.916 E11.71027
G1 X81.28 Y108.482 E11.72328
G1 X81.288 Y107.722 E11.74603
G1 X81.306 Y107.445 E11.75434
G1 X81.394 Y106.702 E11.77673
G1 X81.577 Y105.919 E11.8008
G1 X81.641 Y105.702 E11.80758
G1 X81.891 Y104.997 E11.82997
G1 X82.145 Y104.451 E11.84799
G1 X82.273 Y104.205 E11.85629
G1 X82.654 Y103.561 E11.87869
G1 X82.937 Y103.165 E11.89326
G1 X83.091 Y102.965 E11.90082
G1 X83.578 Y102.398 E11.92319
G1 X84.242 Y101.788 E11.95018
G0 F9000 X84.493 Y102.099
G1 F1200 X84.7 Y101.932 E11.95814
G1 X85.563 Y101.342 E11.98944
G1 X85.762 Y101.228 E11.9963
G1 X86.411 Y100.902 E12.01804
G1 X87 Y100.679 E12.0369
G1 X87.215 Y100.609 E12.04366
G1 X88.042 Y100.398 E12.06921
G1 X88.09 Y100.389 E12.07067
G1 X88.669 Y100.307 E12.08818
G1 X88.968 Y100.278 E12.09717
G1 X89.694 Y100.248 E12.11892
G1 X90.602 Y100.323 E12.1462
G1 X90.916 Y100.371 E12.1557
G1 X91.627 Y100.52 E12.17745
G1 X92.389 Y100.775 E12.2015
G1 X92.669 Y100.888 E12.21054
G1 X93.327 Y101.196 E12.23229
G1 X94.069 Y101.661 E12.2585
G1 X94.326 Y101.847 E12.268
G1 X94.89 Y102.305 E12.28975
G1 X95.39 Y102.811 E12.31104
G1 X95.549 Y102.99 E12.31821
G1 X96.001 Y103.559 E12.33996
G1 X96.274 Y103.977 E12.3549
G1 X96.311 Y104.039 E12.35707
G1 X98.1 Y104.039 E12.41062
G1 X98.182 Y103.876 E12.41608
G1 X98.577 Y103.266 E12.43783
G1 X99.036 Y102.704 E12.45955
G1 X99.555 Y102.195 E12.48131
G1 X100.126 Y101.746 E12.50306
G1 X100.743 Y101.363 E12.5248
G1 X101.399 Y101.05 E12.54655
G1 X102.085 Y100.811 E12.5683
G1 X102.793 Y100.649 E12.59004
G1 X103.514 Y100.566 E12.61177
G1 X103.91 Y100.554 E12.62362
G1 X125.557 Y100.554 E13.27161
G1 X126.282 Y100.594 E13.29334
G1 X126.999 Y100.713 E13.3151
G1 X127.698 Y100.911 E13.33685
G1 X128.371 Y101.184 E13.35859
G1 X129.01 Y101.529 E13.38033
G1 X129.607 Y101.943 E13.40207
G1 X130.155 Y102.419 E13.4238
G1 X130.648 Y102.953 E13.44556
G1 X131.078 Y103.538 E13.46729
G1 X131.442 Y104.167 E13.48904
G1 X131.735 Y104.832 E13.5108
G1 X131.953 Y105.525 E13.53254
G1 X132.093 Y106.237 E13.55426
G1 X132.157 Y107.152 E13.58172
G1 X132.159 Y113.152 E13.76132
G1 X132.119 Y113.877 E13.78306
G1 X132 Y114.594 E13.80482
G1 X131.803 Y115.293 E13.82656
G1 X131.53 Y115.966 E13.8483
G1 X131.185 Y116.605 E13.87003
G1 X130.772 Y117.202 E13.89176
G1 X130.295 Y117.751 E13.91353
G1 X129.761 Y118.243 E13.93527
G1 X129.177 Y118.674 E13.957
G1 X128.548 Y119.038 E13.97875
G1 X127.883 Y119.331 E14.0005
G1 X127.191 Y119.549 E14.02222
G1 X126.478 Y119.69 E14.04398
G1 X125.559 Y119.754 E14.07155
G1 X122.029 Y119.754 E14.17722
G1 X121.304 Y119.714 E14.19896
G1 X121.054 Y119.696 E14.20646
G1 X118.846 Y119.466 E14.27291
G1 X115.848 Y119.324 E14.36275
G1 X112.971 Y119.347 E14.44888
G1 X112.748 Y119.355 E14.45556
G1 X110.01 Y119.53 E14.53768
G1 X109.66 Y119.561 E14.5482
G1 X108.619 Y119.685 E14.57958
G1 X108.06 Y119.718 E14.59635
G1 X107.912 Y119.737 E14.60081
G1 X107.433 Y119.754 E14.61516
G1 X103.902 Y119.754 E14.72086
G1 X103.177 Y119.714 E14.74259
G1 X102.95 Y119.686 E14.74944
G1 X102.025 Y119.75 E14.77719
G1 X93.396 Y119.739 E15.0355
G1 X92.67 Y119.698 E15.05726
G1 X91.838 Y119.551 E15.08255
G1 X90.892 Y119.32 E15.1117
G1 X90.575 Y119.25 E15.12142
G1 X90.199 Y119.185 E15.13284
G1 X89.753 Y119.094 E15.14647
G1 X89.05 Y118.91 E15.16822
G1 X88.372 Y118.649 E15.18997
G1 X87.726 Y118.316 E15.21172
G1 X87.121 Y117.914 E15.23347
G1 X86.618 Y117.498 E15.25301
G1 X84.894 Y115.92 E15.32297
G1 X84.696 Y115.734 E15.3311
G1 X84.195 Y115.209 E15.35282
G1 X83.754 Y114.631 E15.37458
G1 X83.538 Y114.291 E15.38664
G1 X83.038 Y113.448 E15.41598
G1 X82.703 Y112.804 E15.43771
G1 X82.503 Y112.312 E15.45361
G1 X82.118 Y111.24 E15.48771
G1 X81.911 Y110.544 E15.50944
G1 X81.749 Y109.513 E15.54068
G1 X81.701 Y108.886 E15.55951
G1 X81.679 Y108.464 E15.57216
G1 X81.687 Y107.748 E15.59359
G1 X81.705 Y107.471 E15.6019
G1 X81.792 Y106.75 E15.62364
G1 X81.961 Y106.032 E15.64572
G1 X82.025 Y105.815 E15.65249
G1 X82.268 Y105.131 E15.67422
G1 X82.5 Y104.636 E15.69058
G1 X82.628 Y104.39 E15.69888
G1 X82.998 Y103.765 E15.72063
