;FLAVOR:Marlin
;TIME:5091
;Filament used: 3.39062m
;Layer height: 0.2
;MINX:57.171
;MINY:84.704
;MINZ:0.2
;MAXX:162.829
;MAXY:135.296
;MAXZ:17
;Generated with Cura_SteamEngine 4.10.0
M140 S70
M105
M190 S70
M104 S210
M105
M109 S210
M82 ;absolute extrusion mode
; Ender 3 Custom Start G-code
G92 E0 ; Reset Extruder
G28 ; Home all axes
G1 Z2.0 F3000 ; Move Z Axis up little to prevent scratching of Heat Bed
G1 X0.1 Y20 Z0.3 F5000.0 ; Move to start position
G1 X0.1 Y200.0 Z0.3 F1500.0 E15 ; Draw the first line
G1 X0.4 Y200.0 Z0.3 F5000.0 ; Move to side a little
G1 X0.4 Y20 Z0.3 F1500.0 E30 ; Draw the second line
G92 E0 ; Reset Extruder
G1 Z2.0 F3000 ; Move Z Axis up little to prevent scratching of Heat Bed
G1 X5 Y20 Z0.3 F5000.0 ; Move over to prevent blob squish
G92 E0
G92 E0
G1 F1500 E-6.5
;LAYER_COUNT:85
;LAYER:0
M107
G1 F300 Z0.4
G0 F9000 X71.274 Y86.498 Z0.4
;TYPE:SKIRT
G1 F300 Z0.2
G1 F1500 E0
G1 F1200 X71.907 Y86.025 E0.02365
G1 X72.585 Y85.619 E0.04731
G1 X73.299 Y85.284 E0.07092
G1 X74.045 Y85.023 E0.09458
G1 X74.812 Y84.838 E0.11819
G1 X75.595 Y84.732 E0.14185
G1 X76.251 Y84.704 E0.1615
G1 X146.993 Y84.704 E2.2791
G1 X147.325 Y84.721 E2.28905
G1 X147.391 Y84.714 E2.29104
G1 X147.793 Y84.704 E2.30308
G1 X151.481 Y84.704 E2.41347
G1 X152.27 Y84.744 E2.43712
G1 X152.687 Y84.798 E2.44971
G1 X153.096 Y84.862 E2.4621
G1 X153.949 Y85.045 E2.48822
G1 X154.307 Y85.143 E2.49933
G1 X154.964 Y85.369 E2.52012
G1 X155.263 Y85.472 E2.52959
G1 X155.356 Y85.511 E2.53261
G1 X155.8 Y85.678 E2.54681
G1 X156.174 Y85.871 E2.55941
G1 X156.587 Y86.055 E2.57294
G1 X157.196 Y86.4 E2.59389
G1 X157.362 Y86.504 E2.59976
G1 X158.085 Y87.016 E2.62628
G1 X158.541 Y87.371 E2.64357
G1 X158.646 Y87.457 E2.64764
G1 X159.228 Y87.984 E2.67114
G1 X159.56 Y88.317 E2.68522
G1 X160.103 Y88.922 E2.70955
G1 X160.246 Y89.099 E2.71636
G1 X160.543 Y89.485 E2.73094
G1 X161.029 Y90.175 E2.7562
G1 X161.138 Y90.349 E2.76235
G1 X161.523 Y91.039 E2.786
G1 X161.607 Y91.23 E2.79225
G1 X161.749 Y91.494 E2.80122
G1 X161.97 Y92.059 E2.81938
G1 X162.062 Y92.272 E2.82633
G1 X162.236 Y92.741 E2.8413
G1 X162.312 Y92.967 E2.84844
G1 X162.55 Y93.839 E2.8755
G1 X162.572 Y93.943 E2.87868
G1 X162.636 Y94.279 E2.88892
G1 X162.724 Y94.809 E2.905
G1 X162.813 Y95.594 E2.92865
G1 X162.829 Y96.087 E2.94341
G1 X162.829 Y96.908 E2.96799
G1 X162.789 Y97.697 E2.99164
G1 X162.727 Y98.167 E3.00583
G1 X162.657 Y98.595 E3.01881
G1 X162.581 Y98.991 E3.03088
G1 X162.543 Y99.166 E3.03624
G1 X162.351 Y99.885 E3.05852
G1 X162.282 Y100.101 E3.06531
G1 X162.045 Y100.755 E3.08613
G1 X161.743 Y101.485 E3.10978
G1 X161.578 Y101.8 E3.12042
G1 X161.482 Y102.013 E3.12742
G1 X161.226 Y102.473 E3.14317
G1 X161.082 Y102.713 E3.15155
G1 X160.513 Y103.537 E3.18153
G1 X160.132 Y104.019 E3.19992
G1 X159.46 Y104.765 E3.22997
G1 X159.212 Y105.007 E3.24035
G1 X158.676 Y105.484 E3.26182
G1 X158.264 Y105.816 E3.27766
G1 X158.03 Y105.998 E3.28654
G1 X157.312 Y106.494 E3.31266
G1 X157.093 Y106.628 E3.32034
G1 X156.399 Y107.006 E3.344
G1 X156.265 Y107.065 E3.34838
G1 X156.036 Y107.188 E3.35616
G1 X155.388 Y107.446 E3.37704
G1 X155.098 Y107.562 E3.38639
G1 X154.846 Y107.644 E3.39433
G1 X154.793 Y107.657 E3.39596
G1 X154.792 Y127.496 E3.98982
G1 X154.752 Y128.285 E4.01347
G1 X154.632 Y129.065 E4.03709
G1 X154.435 Y129.83 E4.06074
G1 X154.16 Y130.571 E4.0844
G1 X153.813 Y131.28 E4.10803
G1 X153.395 Y131.95 E4.13167
G1 X152.912 Y132.575 E4.15531
G1 X152.368 Y133.147 E4.17894
G1 X151.769 Y133.662 E4.20259
G1 X151.121 Y134.113 E4.22622
G1 X150.431 Y134.497 E4.24986
G1 X149.706 Y134.809 E4.27348
G1 X148.952 Y135.046 E4.29714
G1 X148.179 Y135.205 E4.32077
G1 X147.393 Y135.286 E4.34442
G1 X146.992 Y135.296 E4.35643
G1 X76.251 Y135.296 E6.474
G1 X75.462 Y135.256 E6.49765
G1 X74.682 Y135.137 E6.52126
G1 X73.917 Y134.939 E6.54492
G1 X73.177 Y134.665 E6.56854
G1 X72.468 Y134.317 E6.59218
G1 X71.797 Y133.899 E6.61585
G1 X71.173 Y133.416 E6.63947
G1 X70.748 Y133.024 E6.65677
G1 X70.523 Y132.8 E6.66628
G1 X69.992 Y132.215 E6.68993
G1 X69.523 Y131.58 E6.71356
G1 X69.121 Y130.9 E6.7372
G1 X68.79 Y130.183 E6.76084
G1 X68.532 Y129.437 E6.78447
G1 X68.352 Y128.668 E6.80811
G1 X68.298 Y128.257 E6.82052
G1 X67.748 Y128.229 E6.83701
G1 X67.234 Y128.159 E6.85254
G1 X66.821 Y128.089 E6.86507
G1 X66.402 Y128.01 E6.87784
G1 X65.311 Y127.713 E6.91168
G1 X65.166 Y127.662 E6.91629
G1 X64.876 Y127.556 E6.92553
G1 X64.139 Y127.273 E6.94916
G1 X63.602 Y126.993 E6.96729
G1 X63.263 Y126.822 E6.97865
G1 X62.577 Y126.431 E7.00229
G1 X61.879 Y125.924 E7.02811
G1 X61.626 Y125.735 E7.03757
G1 X61.463 Y125.608 E7.04375
G1 X60.751 Y124.98 E7.07217
G1 X60.469 Y124.699 E7.08409
G1 X59.784 Y123.919 E7.11516
G1 X59.62 Y123.705 E7.12323
G1 X59.481 Y123.525 E7.13004
G1 X58.835 Y122.582 E7.16426
G1 X58.73 Y122.402 E7.1705
G1 X58.49 Y121.96 E7.18555
G1 X58.322 Y121.624 E7.1968
G1 X58.006 Y120.901 E7.22042
G1 X57.891 Y120.574 E7.23079
G1 X57.628 Y119.805 E7.25512
G1 X57.545 Y119.513 E7.26421
G1 X57.346 Y118.613 E7.2918
G1 X57.269 Y118.132 E7.30638
G1 X57.184 Y117.347 E7.33002
G1 X57.171 Y116.899 E7.34343
G1 X57.171 Y116.076 E7.36807
G1 X57.211 Y115.287 E7.39172
G1 X57.267 Y114.858 E7.40467
G1 X57.344 Y114.371 E7.41943
G1 X57.477 Y113.712 E7.43955
G1 X57.507 Y113.591 E7.44328
G1 X57.663 Y113.049 E7.46016
G1 X57.74 Y112.813 E7.4676
G1 X57.922 Y112.312 E7.48355
G1 X58.01 Y112.094 E7.49059
G1 X58.163 Y111.74 E7.50213
G1 X58.323 Y111.394 E7.51354
G1 X58.533 Y110.928 E7.52884
G1 X58.772 Y110.496 E7.54362
G1 X58.887 Y110.303 E7.55035
G1 X59.433 Y109.527 E7.57875
G1 X59.7 Y109.164 E7.59224
G1 X59.855 Y108.968 E7.59972
G1 X60.494 Y108.254 E7.6284
G1 X60.797 Y107.955 E7.64114
G1 X61.344 Y107.464 E7.66315
G1 X61.48 Y107.353 E7.6684
G1 X61.704 Y107.177 E7.67693
G1 X62.095 Y106.881 E7.69161
G1 X62.784 Y106.415 E7.71651
G1 X62.942 Y106.32 E7.72203
G1 X63.985 Y105.795 E7.75698
G1 X64.242 Y105.681 E7.7654
G1 X64.653 Y105.508 E7.77874
G1 X64.898 Y105.413 E7.78661
G1 X65.154 Y105.318 E7.79478
G1 X65.358 Y105.247 E7.80125
G1 X66.274 Y104.99 E7.82973
G1 X66.547 Y104.931 E7.83809
G1 X67.023 Y104.844 E7.85257
G1 X67.352 Y104.794 E7.86254
G1 X68.241 Y104.726 E7.88922
G1 X68.241 Y92.678 E8.24987
G1 X68.281 Y91.889 E8.27352
G1 X68.4 Y91.109 E8.29714
G1 X68.598 Y90.344 E8.32079
G1 X68.872 Y89.604 E8.34441
G1 X69.22 Y88.895 E8.36806
G1 X69.638 Y88.224 E8.39172
G1 X70.121 Y87.6 E8.41534
G1 X70.664 Y87.027 E8.43897
G1 X71.064 Y86.672 E8.45498
G1 X71.274 Y86.498 E8.46314
G0 F9000 X71.53 Y86.806
G1 F1200 X72.147 Y86.347 E8.48616
G1 X72.808 Y85.954 E8.50918
G1 X73.506 Y85.632 E8.53219
G1 X74.235 Y85.384 E8.55524
G1 X74.985 Y85.213 E8.57827
G1 X75.748 Y85.121 E8.60127
G1 X76.251 Y85.104 E8.61634
G1 X146.993 Y85.104 E10.73394
G1 X147.414 Y85.126 E10.74656
G1 X147.793 Y85.104 E10.75792
G1 X151.481 Y85.104 E10.86832
G1 X152.625 Y85.193 E10.90267
G1 X153.034 Y85.257 E10.91506
G1 X153.844 Y85.431 E10.93986
G1 X154.202 Y85.529 E10.95097
G1 X154.94 Y85.781 E10.97431
G1 X155.659 Y86.053 E10.99733
G1 X156.026 Y86.243 E11.0097
G1 X156.423 Y86.421 E11.02272
G1 X156.984 Y86.739 E11.04202
G1 X157.15 Y86.843 E11.04789
G1 X157.836 Y87.329 E11.07305
G1 X158.288 Y87.68 E11.09018
G1 X158.393 Y87.766 E11.09425
G1 X158.944 Y88.266 E11.11652
G1 X159.276 Y88.599 E11.1306
G1 X159.792 Y89.174 E11.15372
G1 X159.935 Y89.351 E11.16053
G1 X160.229 Y89.733 E11.17496
G1 X160.69 Y90.388 E11.19894
G1 X160.799 Y90.562 E11.20508
G1 X161.173 Y91.234 E11.22811
G1 X161.256 Y91.423 E11.23429
G1 X161.395 Y91.683 E11.24311
G1 X161.601 Y92.21 E11.26005
G1 X161.692 Y92.424 E11.26701
G1 X161.857 Y92.868 E11.28119
G1 X161.933 Y93.094 E11.28833
G1 X162.159 Y93.922 E11.31402
G1 X162.181 Y94.026 E11.3172
G1 X162.241 Y94.345 E11.32692
G1 X162.329 Y94.875 E11.343
G1 X162.415 Y95.639 E11.36601
G1 X162.429 Y96.087 E11.37943
G1 X162.429 Y96.908 E11.40401
G1 X162.389 Y97.676 E11.42703
G1 X162.332 Y98.102 E11.43989
G1 X162.262 Y98.53 E11.45287
G1 X162.19 Y98.906 E11.46433
G1 X162.152 Y99.081 E11.46969
G1 X161.97 Y99.763 E11.49082
G1 X161.901 Y99.979 E11.49761
G1 X161.713 Y100.5 E11.51419
G1 X161.668 Y100.621 E11.51806
G1 X161.373 Y101.332 E11.5411
G1 X161.211 Y101.639 E11.55149
G1 X161.117 Y101.848 E11.55835
G1 X160.883 Y102.267 E11.57271
G1 X160.739 Y102.507 E11.58109
G1 X160.199 Y103.289 E11.60954
G1 X159.818 Y103.771 E11.62793
G1 X159.181 Y104.478 E11.65642
G1 X158.933 Y104.72 E11.66679
G1 X158.424 Y105.173 E11.68719
G1 X158.018 Y105.5 E11.70279
G1 X157.784 Y105.682 E11.71167
G1 X157.103 Y106.153 E11.73645
G1 X156.884 Y106.287 E11.74414
G1 X156.208 Y106.654 E11.76716
G1 X156.076 Y106.711 E11.77147
G1 X155.846 Y106.835 E11.77929
G1 X154.974 Y107.182 E11.80738
G1 X154.722 Y107.264 E11.81531
G1 X154.393 Y107.372 E11.82568
G1 X154.392 Y127.496 E12.42807
G1 X154.352 Y128.264 E12.45109
G1 X154.232 Y129.024 E12.47413
G1 X154.035 Y129.767 E12.49713
G1 X153.761 Y130.486 E12.52017
G1 X153.414 Y131.173 E12.54321
G1 X152.998 Y131.819 E12.56621
G1 X152.516 Y132.419 E12.58924
G1 X151.976 Y132.966 E12.61225
G1 X151.381 Y133.454 E12.63529
G1 X150.739 Y133.877 E12.6583
G1 X150.056 Y134.232 E12.68134
G1 X149.34 Y134.513 E12.70437
G1 X148.599 Y134.719 E12.72739
G1 X147.841 Y134.847 E12.7504
G1 X146.992 Y134.896 E12.77586
G1 X76.251 Y134.896 E14.89343
G1 X75.483 Y134.856 E14.91645
G1 X74.723 Y134.737 E14.93948
G1 X73.98 Y134.539 E14.96249
G1 X73.261 Y134.265 E14.98553
G1 X72.575 Y133.918 E15.00854
G1 X71.928 Y133.502 E15.03156
G1 X71.328 Y133.021 E15.05458
G1 X71.03 Y132.74 E15.06684
G1 X70.805 Y132.516 E15.07635
G1 X70.289 Y131.946 E15.09936
G1 X69.835 Y131.325 E15.12239
G1 X69.447 Y130.661 E15.14541
G1 X69.131 Y129.96 E15.16843
G1 X68.89 Y129.229 E15.19147
G1 X68.725 Y128.478 E15.21449
G1 X68.656 Y127.869 E15.23283
G1 X68.537 Y127.869 E15.23639
G1 X67.769 Y127.829 E15.25941
G1 X67.3 Y127.765 E15.27358
G1 X66.887 Y127.695 E15.28612
G1 X66.479 Y127.617 E15.29856
G1 X65.444 Y127.336 E15.33066
G1 X65.299 Y127.285 E15.33526
G1 X65.056 Y127.194 E15.34303
G1 X65 Y127.176 E15.34479
G1 X64.283 Y126.899 E15.3678
G1 X63.731 Y126.61 E15.38645
G1 X63.443 Y126.465 E15.3961
G1 X62.775 Y126.083 E15.41914
G1 X62.055 Y125.556 E15.44585
G1 X61.709 Y125.292 E15.45887
G1 X61.034 Y124.697 E15.48581
G1 X60.752 Y124.416 E15.49772
G1 X60.101 Y123.675 E15.52725
G1 X59.937 Y123.461 E15.53532
G1 X59.794 Y123.275 E15.54234
G1 X59.18 Y122.381 E15.57481
G1 X59.075 Y122.201 E15.58105
G1 X58.848 Y121.781 E15.59534
G1 X58.68 Y121.445 E15.60658
G1 X58.363 Y120.665 E15.63179
G1 X58.262 Y120.425 E15.63958
G1 X58.013 Y119.695 E15.66267
G1 X57.93 Y119.403 E15.67176
G1 X57.741 Y118.55 E15.69791
G1 X57.664 Y118.069 E15.71249
G1 X57.582 Y117.304 E15.73552
G1 X57.571 Y116.899 E15.74765
G1 X57.571 Y116.076 E15.77228
G1 X57.611 Y115.308 E15.79531
G1 X57.662 Y114.92 E15.80702
G1 X57.739 Y114.433 E15.82178
G1 X57.865 Y113.808 E15.84086
G1 X57.895 Y113.687 E15.8446
G1 X58.043 Y113.173 E15.86061
G1 X58.12 Y112.937 E15.86804
G1 X58.293 Y112.462 E15.88317
G1 X58.381 Y112.244 E15.89021
G1 X58.526 Y111.908 E15.90116
G1 X58.686 Y111.562 E15.91257
G1 X58.898 Y111.093 E15.92798
G1 X59.116 Y110.701 E15.94141
G1 X59.231 Y110.508 E15.94813
G1 X59.755 Y109.764 E15.97537
G1 X60.014 Y109.412 E15.98845
G1 X60.169 Y109.216 E15.99593
G1 X60.775 Y108.539 E16.02313
G1 X61.078 Y108.24 E16.03587
G1 X61.597 Y107.774 E16.05675
G1 X61.733 Y107.663 E16.06201
G1 X61.945 Y107.496 E16.07009
G1 X62.336 Y107.2 E16.08477
G1 X62.99 Y106.758 E16.1084
G1 X63.148 Y106.663 E16.11391
G1 X64.138 Y106.165 E16.14709
G1 X64.408 Y106.045 E16.15593
G1 X64.798 Y105.881 E16.1686
G1 X65.043 Y105.786 E16.17646
G1 X65.286 Y105.696 E16.18422
G1 X65.49 Y105.625 E16.19068
G1 X66.359 Y105.381 E16.2177
G1 X66.632 Y105.322 E16.22606
G1 X67.083 Y105.239 E16.23979
G1 X67.412 Y105.189 E16.24975
G1 X68.524 Y105.105 E16.28313
G1 X68.641 Y105.105 E16.28664
G1 X68.641 Y92.678 E16.65863
G1 X68.681 Y91.91 E16.68165
G1 X68.8 Y91.15 E16.70468
G1 X68.998 Y90.407 E16.72769
G1 X69.272 Y89.688 E16.75072
G1 X69.619 Y89.002 E16.77374
G1 X70.035 Y88.355 E16.79676
G1 X70.516 Y87.755 E16.81978
G1 X71.32 Y86.98 E16.85321
G1 X71.53 Y86.806 E16.86137
G0 F9000 X71.785 Y87.114
G1 F1200 X72.386 Y86.668 E16.88378
G1 X73.03 Y86.289 E16.90614
G1 X73.712 Y85.981 E16.92854
G1 X74.423 Y85.747 E16.95095
G1 X75.154 Y85.59 E16.97333
G1 X76.251 Y85.504 E17.00627
G1 X146.993 Y85.504 E19.12387
G1 X147.319 Y85.521 E19.13364
G1 X147.793 Y85.504 E19.14784
G1 X151.481 Y85.504 E19.25824
G1 X152.563 Y85.588 E19.29072
G1 X152.972 Y85.652 E19.30311
G1 X153.738 Y85.816 E19.32656
G1 X154.096 Y85.914 E19.33767
G1 X154.954 Y86.21 E19.36484
G1 X155.04 Y86.246 E19.36763
G1 X155.518 Y86.427 E19.38293
G1 X155.885 Y86.618 E19.39532
G1 X156.26 Y86.787 E19.40763
G1 X156.771 Y87.078 E19.42523
G1 X156.937 Y87.182 E19.4311
G1 X157.586 Y87.642 E19.45491
G1 X158.034 Y87.99 E19.47189
G1 X158.139 Y88.076 E19.47595
G1 X158.661 Y88.549 E19.49704
G1 X158.993 Y88.882 E19.51112
G1 X159.481 Y89.425 E19.53297
G1 X159.624 Y89.602 E19.53978
G1 X159.823 Y89.86 E19.54953
G1 X159.915 Y89.981 E19.55409
G1 X160.351 Y90.6 E19.57675
G1 X160.46 Y90.774 E19.5829
G1 X160.823 Y91.428 E19.60529
G1 X160.903 Y91.611 E19.61126
G1 X161.042 Y91.872 E19.62012
G1 X161.233 Y92.36 E19.6358
G1 X161.321 Y92.575 E19.64276
G1 X161.478 Y92.996 E19.65621
G1 X161.554 Y93.222 E19.66334
G1 X161.767 Y94.004 E19.68761
G1 X161.789 Y94.108 E19.69079
G1 X161.846 Y94.41 E19.69999
G1 X161.934 Y94.94 E19.71607
G1 X162.017 Y95.684 E19.73848
G1 X162.029 Y96.087 E19.75055
G1 X162.029 Y96.908 E19.77512
G1 X161.989 Y97.655 E19.79752
G1 X161.937 Y98.038 E19.80909
G1 X161.867 Y98.466 E19.82207
G1 X161.8 Y98.821 E19.83288
G1 X161.762 Y98.996 E19.83824
G1 X161.589 Y99.641 E19.85823
G1 X161.52 Y99.857 E19.86502
G1 X161.342 Y100.351 E19.88074
G1 X161.291 Y100.488 E19.88511
G1 X161.003 Y101.178 E19.9075
G1 X160.844 Y101.479 E19.91769
G1 X160.752 Y101.683 E19.92439
G1 X160.54 Y102.061 E19.93736
G1 X160.396 Y102.301 E19.94574
G1 X159.886 Y103.041 E19.97264
G1 X159.505 Y103.523 E19.99103
G1 X158.902 Y104.192 E20.01799
G1 X158.654 Y104.434 E20.02836
G1 X158.172 Y104.863 E20.04768
G1 X157.773 Y105.184 E20.06301
G1 X157.539 Y105.366 E20.07188
G1 X156.894 Y105.812 E20.09536
G1 X156.675 Y105.946 E20.10304
G1 X156.017 Y106.302 E20.12544
G1 X155.891 Y106.357 E20.12955
G1 X155.657 Y106.482 E20.13749
G1 X154.85 Y106.801 E20.16347
G1 X154.598 Y106.883 E20.1714
G1 X153.993 Y107.087 E20.19051
G1 X153.992 Y127.496 E20.80144
G1 X153.952 Y128.243 E20.82383
G1 X153.833 Y128.982 E20.84624
G1 X153.635 Y129.703 E20.86862
G1 X153.361 Y130.399 E20.89101
G1 X153.015 Y131.063 E20.91342
G1 X152.6 Y131.685 E20.9358
G1 X152.121 Y132.26 E20.95821
G1 X151.584 Y132.78 E20.98058
G1 X150.994 Y133.239 E21.00296
G1 X150.358 Y133.634 E21.02537
G1 X149.684 Y133.958 E21.04776
G1 X148.979 Y134.208 E21.07015
G1 X148.251 Y134.382 E21.09255
G1 X147.509 Y134.477 E21.11494
G1 X146.992 Y134.496 E21.13043
G1 X76.251 Y134.496 E23.248
G1 X75.504 Y134.456 E23.27039
G1 X74.766 Y134.337 E23.29277
G1 X74.044 Y134.139 E23.31518
G1 X73.348 Y133.866 E23.33756
G1 X72.685 Y133.519 E23.35996
G1 X72.062 Y133.104 E23.38237
G1 X71.312 Y132.457 E23.41202
G1 X71.087 Y132.233 E23.42152
G1 X70.586 Y131.677 E23.44393
G1 X70.147 Y131.072 E23.4663
G1 X69.775 Y130.423 E23.48869
G1 X69.475 Y129.738 E23.51108
G1 X69.249 Y129.024 E23.5335
G1 X69.101 Y128.291 E23.55588
G1 X69.04 Y127.469 E23.58055
G1 X68.537 Y127.469 E23.59561
G1 X67.79 Y127.429 E23.618
G1 X67.367 Y127.371 E23.63078
G1 X66.954 Y127.301 E23.64332
G1 X66.556 Y127.225 E23.65545
G1 X65.576 Y126.958 E23.68586
G1 X65.201 Y126.822 E23.6978
