;FLAVOR:Marlin
;TIME:572
;Filament used: 0.300552m
;Layer height: 0.2
;MINX:80.509
;MINY:84.635
;MINZ:0.2
;MAXX:139.491
;MAXY:135.365
;MAXZ:4.6
;Generated with Cura_SteamEngine 4.10.0
M140 S70
M105
M190 S70
M104 S215
M105
M109 S215
M82 ;absolute extrusion mode
; Ender 3 Custom Start G-code
G92 E0 ; Reset Extruder
G28 ; Home all axes
G1 Z2.0 F3000 ; Move Z Axis up little to prevent scratching of Heat Bed
G1 X0.1 Y20 Z0.3 F5000.0 ; Move to start position
G1 X0.1 Y200.0 Z0.3 F1500.0 E15 ; Draw the first line
G1 X0.4 Y200.0 Z0.3 F5000.0 ; Move to side a little
G1 X0.4 Y20 Z0.3 F1500.0 E30 ; Draw the second line
G92 E0 ; Reset Extruder
G1 Z2.0 F3000 ; Move Z Axis up little to prevent scratching of Heat Bed
G1 X5 Y20 Z0.3 F5000.0 ; Move over to prevent blob squish
G92 E0
G92 E0
G1 F1500 E-6.5
;LAYER_COUNT:22
;LAYER:0
M107
G1 F300 Z0.4
G0 F9000 X89.174 Y89.12 Z0.4
;TYPE:SKIRT
G1 F300 Z0.2
G1 F1500 E0
G1 F1200 X89.36 Y88.935 E0.00787
G1 X89.771 Y88.539 E0.02501
G1 X90.222 Y88.122 E0.04344
G1 X90.462 Y87.907 E0.05312
G1 X90.688 Y87.71 E0.06212
G1 X90.895 Y87.534 E0.07027
G1 X91.322 Y87.18 E0.08692
G1 X92.069 Y86.612 E0.11509
G1 X92.862 Y86.111 E0.14325
G1 X93.694 Y85.679 E0.17139
G1 X94.56 Y85.319 E0.19954
G1 X95.454 Y85.034 E0.2277
G1 X96.368 Y84.827 E0.25583
G1 X97.297 Y84.698 E0.28399
G1 X98.142 Y84.65 E0.30939
G1 X99.056 Y84.635 E0.33683
G1 X120.952 Y84.635 E0.99409
G1 X121.811 Y84.646 E1.01988
G1 X122.747 Y84.699 E1.04802
G1 X123.675 Y84.832 E1.07616
G1 X124.589 Y85.044 E1.10432
G1 X125.482 Y85.332 E1.13249
G1 X126.346 Y85.696 E1.16063
G1 X127.177 Y86.132 E1.1888
G1 X127.967 Y86.637 E1.21695
G1 X128.683 Y87.183 E1.24397
G1 X129.055 Y87.492 E1.25849
G1 X129.311 Y87.712 E1.26862
G1 X129.793 Y88.138 E1.28793
G1 X130.112 Y88.429 E1.30089
G1 X130.337 Y88.642 E1.31019
G1 X130.808 Y89.101 E1.32993
G1 X131.024 Y89.317 E1.3391
G1 X131.256 Y89.556 E1.3491
G1 X131.442 Y89.753 E1.35723
G1 X131.892 Y90.24 E1.37714
G1 X132.096 Y90.466 E1.38628
G1 X132.304 Y90.704 E1.39577
G1 X132.498 Y90.933 E1.40477
G1 X132.933 Y91.459 E1.42526
G1 X133.11 Y91.679 E1.43374
G1 X133.303 Y91.925 E1.44312
G1 X133.472 Y92.146 E1.45148
G1 X133.842 Y92.643 E1.47007
G1 X134.007 Y92.87 E1.4785
G1 X134.182 Y93.118 E1.48761
G1 X134.344 Y93.354 E1.4962
G1 X134.707 Y93.898 E1.51583
G1 X134.859 Y94.133 E1.52423
G1 X135.037 Y94.415 E1.53424
G1 X135.199 Y94.68 E1.54357
G1 X135.523 Y95.227 E1.56265
G1 X135.663 Y95.469 E1.57104
G1 X135.811 Y95.734 E1.58015
G1 X135.949 Y95.989 E1.58886
G1 X136.282 Y96.624 E1.61038
G1 X136.499 Y97.054 E1.62484
G1 X136.647 Y97.364 E1.63515
G1 X136.913 Y97.943 E1.65428
G1 X137.033 Y98.215 E1.6632
G1 X137.194 Y98.592 E1.67551
G1 X137.302 Y98.854 E1.68401
G1 X137.554 Y99.489 E1.70452
G1 X137.666 Y99.783 E1.71396
G1 X137.802 Y100.164 E1.72611
G1 X138.008 Y100.767 E1.74523
G1 X138.117 Y101.104 E1.75587
G1 X138.244 Y101.519 E1.76889
G1 X138.316 Y101.762 E1.7765
G1 X138.497 Y102.406 E1.79658
G1 X138.582 Y102.726 E1.80652
G1 X138.687 Y103.162 E1.81998
G1 X138.831 Y103.798 E1.83956
G1 X138.895 Y104.098 E1.84876
G1 X138.968 Y104.468 E1.86008
G1 X139.021 Y104.759 E1.86896
G1 X139.13 Y105.402 E1.88854
G1 X139.174 Y105.684 E1.89711
G1 X139.211 Y105.943 E1.90496
G1 X139.247 Y106.216 E1.91323
G1 X139.323 Y106.863 E1.93278
G1 X139.354 Y107.158 E1.94168
G1 X139.387 Y107.524 E1.95271
G1 X139.41 Y107.834 E1.96205
G1 X139.454 Y108.547 E1.98349
G1 X139.468 Y108.82 E1.99169
G1 X139.476 Y109.037 E1.99821
G1 X139.482 Y109.293 E2.0059
G1 X139.491 Y109.956 E2.0258
G1 X139.491 Y110.275 E2.03538
G1 X139.486 Y110.598 E2.04507
G1 X139.478 Y110.871 E2.05327
G1 X139.454 Y111.467 E2.07118
G1 X139.438 Y111.762 E2.08005
G1 X139.409 Y112.193 E2.09301
G1 X139.384 Y112.507 E2.10247
G1 X139.325 Y113.121 E2.12098
G1 X139.263 Y113.663 E2.13736
G1 X139.221 Y113.981 E2.14699
G1 X139.134 Y114.57 E2.16486
G1 X139.092 Y114.832 E2.17282
G1 X139.027 Y115.209 E2.18431
G1 X138.973 Y115.497 E2.1931
G1 X138.843 Y116.147 E2.213
G1 X138.765 Y116.507 E2.22406
G1 X138.65 Y116.988 E2.2389
G1 X138.484 Y117.636 E2.25898
G1 X138.408 Y117.915 E2.26766
G1 X138.315 Y118.242 E2.27787
G1 X138.234 Y118.514 E2.28639
G1 X138.059 Y119.074 E2.304
G1 X137.968 Y119.352 E2.31278
G1 X137.835 Y119.741 E2.32512
G1 X137.736 Y120.02 E2.334
G1 X137.532 Y120.568 E2.35156
G1 X137.434 Y120.821 E2.3597
G1 X137.317 Y121.113 E2.36914
G1 X137.199 Y121.396 E2.37835
G1 X136.929 Y122.019 E2.39873
G1 X136.812 Y122.28 E2.40731
G1 X136.694 Y122.534 E2.41572
G1 X136.578 Y122.775 E2.42375
G1 X136.266 Y123.406 E2.44488
G1 X136.12 Y123.692 E2.45452
G1 X135.993 Y123.931 E2.46264
G1 X135.869 Y124.157 E2.47038
G1 X135.533 Y124.755 E2.49097
G1 X135.382 Y125.015 E2.5
G1 X135.239 Y125.254 E2.50836
G1 X135.088 Y125.499 E2.51699
G1 X134.746 Y126.038 E2.53616
G1 X134.597 Y126.268 E2.54438
G1 X134.394 Y126.571 E2.55533
G1 X134.218 Y126.824 E2.56458
G1 X133.836 Y127.361 E2.58436
G1 X133.687 Y127.566 E2.59197
G1 X133.522 Y127.787 E2.60025
G1 X133.342 Y128.022 E2.60913
G1 X132.967 Y128.497 E2.6273
G1 X132.779 Y128.728 E2.63624
G1 X132.522 Y129.036 E2.64828
G1 X132.318 Y129.274 E2.65769
G1 X131.907 Y129.739 E2.67632
G1 X131.745 Y129.918 E2.68357
G1 X131.515 Y130.167 E2.69374
G1 X131.306 Y130.387 E2.70285
G1 X130.855 Y130.849 E2.72223
G1 X130.642 Y131.062 E2.73127
G1 X130.411 Y131.286 E2.74093
G1 X130.218 Y131.468 E2.74889
G1 X129.784 Y131.869 E2.76663
G1 X129.553 Y132.076 E2.77594
G1 X129.301 Y132.296 E2.78598
G1 X129.069 Y132.494 E2.79514
G1 X128.651 Y132.839 E2.81141
G1 X127.903 Y133.404 E2.83955
G1 X127.109 Y133.904 E2.86771
G1 X126.276 Y134.334 E2.89585
G1 X125.409 Y134.692 E2.92401
G1 X124.515 Y134.975 E2.95216
G1 X123.6 Y135.181 E2.98031
G1 X122.671 Y135.307 E3.00845
G1 X121.805 Y135.354 E3.03448
G1 X120.942 Y135.365 E3.06039
G1 X98.896 Y135.364 E3.72215
G1 X98.193 Y135.354 E3.74326
G1 X97.256 Y135.301 E3.77143
G1 X96.328 Y135.168 E3.79957
G1 X95.414 Y134.956 E3.82773
G1 X94.522 Y134.668 E3.85587
G1 X93.657 Y134.304 E3.88404
G1 X92.827 Y133.868 E3.91218
G1 X92.036 Y133.363 E3.94035
G1 X91.303 Y132.802 E3.96806
G1 X90.917 Y132.48 E3.98315
G1 X90.69 Y132.286 E3.99211
G1 X90.269 Y131.915 E4.00895
G1 X90.081 Y131.745 E4.01656
G1 X89.847 Y131.529 E4.02612
G1 X89.618 Y131.312 E4.03559
G1 X89.126 Y130.831 E4.05624
G1 X88.927 Y130.631 E4.06471
G1 X88.755 Y130.454 E4.07212
G1 X88.564 Y130.253 E4.08045
G1 X88.127 Y129.78 E4.09978
G1 X87.91 Y129.537 E4.10955
G1 X87.675 Y129.267 E4.1203
G1 X87.5 Y129.061 E4.12841
G1 X87.047 Y128.514 E4.14973
G1 X86.878 Y128.305 E4.1578
G1 X86.737 Y128.126 E4.16464
G1 X86.558 Y127.892 E4.17348
G1 X86.172 Y127.374 E4.19287
G1 X86.004 Y127.142 E4.20147
G1 X85.81 Y126.867 E4.21157
G1 X85.645 Y126.628 E4.22029
G1 X85.303 Y126.115 E4.2388
G1 X85.14 Y125.862 E4.24783
G1 X84.914 Y125.502 E4.26059
G1 X84.761 Y125.252 E4.26939
G1 X84.421 Y124.677 E4.28944
G1 X84.272 Y124.416 E4.29846
G1 X84.048 Y124.007 E4.31246
G1 X83.784 Y123.505 E4.32949
G1 X83.646 Y123.232 E4.33867
G1 X83.43 Y122.792 E4.35338
G1 X83.3 Y122.518 E4.36249
G1 X83.039 Y121.947 E4.38133
G1 X82.925 Y121.691 E4.38974
G1 X82.829 Y121.466 E4.39709
G1 X82.73 Y121.226 E4.40488
G1 X82.485 Y120.612 E4.42472
G1 X82.374 Y120.322 E4.43404
G1 X82.264 Y120.022 E4.44364
G1 X82.167 Y119.746 E4.45242
G1 X81.942 Y119.078 E4.47358
G1 X81.781 Y118.567 E4.48966
G1 X81.697 Y118.284 E4.49852
G1 X81.523 Y117.664 E4.51785
G1 X81.448 Y117.383 E4.52658
G1 X81.366 Y117.058 E4.53664
G1 X81.295 Y116.76 E4.54584
G1 X81.149 Y116.105 E4.56598
G1 X81.047 Y115.604 E4.58133
G1 X80.987 Y115.279 E4.59125
G1 X80.876 Y114.622 E4.61125
G1 X80.834 Y114.359 E4.61924
G1 X80.783 Y114.005 E4.62998
G1 X80.744 Y113.704 E4.63909
G1 X80.666 Y113.032 E4.6594
G1 X80.637 Y112.745 E4.66805
G1 X80.592 Y112.212 E4.68411
G1 X80.553 Y111.614 E4.7021
G1 X80.538 Y111.312 E4.71118
G1 X80.523 Y110.914 E4.72313
G1 X80.516 Y110.625 E4.73181
G1 X80.509 Y110.008 E4.75033
G1 X80.509 Y109.713 E4.75919
G1 X80.514 Y109.39 E4.76888
G1 X80.522 Y109.106 E4.77741
G1 X80.548 Y108.476 E4.79634
G1 X80.581 Y107.927 E4.81285
G1 X80.606 Y107.611 E4.82236
G1 X80.666 Y106.97 E4.84169
G1 X80.696 Y106.688 E4.8502
G1 X80.741 Y106.312 E4.86157
G1 X80.782 Y106.003 E4.87092
G1 X80.88 Y105.343 E4.89095
G1 X80.923 Y105.076 E4.89907
G1 X80.968 Y104.817 E4.90696
G1 X81.02 Y104.54 E4.91542
G1 X81.159 Y103.846 E4.93667
G1 X81.269 Y103.341 E4.95218
G1 X81.356 Y102.979 E4.96336
G1 X81.509 Y102.386 E4.98174
G1 X81.578 Y102.131 E4.98967
G1 X81.681 Y101.768 E5.001
G1 X81.763 Y101.492 E5.00964
G1 X81.941 Y100.922 E5.02756
G1 X82.034 Y100.639 E5.0365
G1 X82.162 Y100.265 E5.04837
G1 X82.255 Y100.003 E5.05672
G1 X82.476 Y99.407 E5.0758
G1 X82.595 Y99.1 E5.08568
G1 X82.689 Y98.868 E5.09319
G1 X82.784 Y98.642 E5.10055
G1 X83.051 Y98.023 E5.12079
G1 X83.181 Y97.732 E5.13035
G1 X83.326 Y97.421 E5.14066
G1 X83.433 Y97.198 E5.14808
G1 X83.715 Y96.627 E5.1672
G1 X83.859 Y96.346 E5.17667
G1 X84.026 Y96.031 E5.18738
G1 X84.168 Y95.771 E5.19627
G1 X84.476 Y95.226 E5.21506
G1 X84.627 Y94.969 E5.22401
G1 X84.929 Y94.471 E5.24149
G1 X85.259 Y93.95 E5.26
G1 X85.422 Y93.7 E5.26896
G1 X85.631 Y93.389 E5.28021
G1 X85.794 Y93.154 E5.28879
G1 X86.14 Y92.667 E5.30672
G1 X86.307 Y92.438 E5.31523
G1 X86.502 Y92.178 E5.32499
G1 X86.674 Y91.955 E5.33344
G1 X87.052 Y91.477 E5.35173
G1 X87.248 Y91.236 E5.36106
G1 X87.496 Y90.94 E5.37265
G1 X87.676 Y90.73 E5.38095
G1 X88.1 Y90.249 E5.4002
G1 X88.483 Y89.831 E5.41722
G1 X88.708 Y89.595 E5.42701
G1 X89.174 Y89.12 E5.44698
G0 F9000 X89.459 Y89.4
G1 F1200 X89.638 Y89.221 E5.45458
G1 X89.851 Y89.014 E5.46349
G1 X90.043 Y88.833 E5.47141
G1 X90.494 Y88.416 E5.48985
G1 X90.725 Y88.209 E5.49916
G1 X90.951 Y88.012 E5.50816
G1 X91.151 Y87.842 E5.51604
G1 X91.578 Y87.488 E5.53269
G1 X92.311 Y86.931 E5.56032
G1 X93.09 Y86.441 E5.58795
G1 X93.909 Y86.02 E5.61559
G1 X94.761 Y85.671 E5.64323
G1 X95.641 Y85.398 E5.67089
G1 X96.54 Y85.202 E5.69851
G1 X97.453 Y85.085 E5.72614
G1 X98.15 Y85.05 E5.74708
G1 X99.056 Y85.035 E5.77428
G1 X120.952 Y85.035 E6.43154
G1 X121.805 Y85.046 E6.45715
G1 X122.724 Y85.099 E6.48478
G1 X123.635 Y85.232 E6.51242
G1 X124.531 Y85.443 E6.54005
G1 X125.406 Y85.731 E6.5677
G1 X126.252 Y86.094 E6.59533
G1 X127.063 Y86.529 E6.62296
G1 X127.834 Y87.033 E6.65061
G1 X128.427 Y87.491 E6.6731
G1 X128.799 Y87.8 E6.68761
G1 X129.046 Y88.011 E6.69736
G1 X129.528 Y88.437 E6.71667
G1 X129.841 Y88.723 E6.7294
G1 X130.058 Y88.929 E6.73838
G1 X130.529 Y89.388 E6.75812
G1 X130.737 Y89.596 E6.76695
G1 X130.969 Y89.835 E6.77695
G1 X131.148 Y90.024 E6.78477
G1 X131.598 Y90.511 E6.80467
G1 X131.794 Y90.73 E6.81349
G1 X132.002 Y90.968 E6.82298
G1 X132.19 Y91.188 E6.83167
G1 X132.625 Y91.714 E6.85215
G1 X132.796 Y91.926 E6.86033
G1 X132.989 Y92.172 E6.86972
G1 X133.152 Y92.385 E6.87777
G1 X133.522 Y92.882 E6.89637
G1 X133.68 Y93.101 E6.90447
G1 X133.855 Y93.349 E6.91358
G1 X134.011 Y93.576 E6.92185
G1 X134.374 Y94.12 E6.94148
G1 X134.521 Y94.346 E6.94957
G1 X134.699 Y94.628 E6.95958
G1 X134.855 Y94.884 E6.96858
G1 X135.179 Y95.431 E6.98767
G1 X135.314 Y95.664 E6.99575
G1 X135.462 Y95.929 E7.00486
G1 X135.594 Y96.175 E7.01324
G1 X135.927 Y96.81 E7.03476
G1 X136.14 Y97.233 E7.04898
G1 X136.283 Y97.531 E7.0589
G1 X136.549 Y98.11 E7.07803
G1 X136.665 Y98.372 E7.08663
G1 X136.826 Y98.749 E7.09893
G1 X136.931 Y99.002 E7.10716
G1 X137.183 Y99.637 E7.12766
G1 X137.353 Y100.093 E7.14227
G1 X137.424 Y100.293 E7.14864
G1 X137.63 Y100.896 E7.16777
G1 X137.735 Y101.221 E7.17802
G1 X137.862 Y101.636 E7.19105
G1 X137.931 Y101.87 E7.19837
G1 X138.112 Y102.514 E7.21845
G1 X138.193 Y102.823 E7.22804
G1 X138.297 Y103.25 E7.24123
G1 X138.441 Y103.886 E7.26081
G1 X138.503 Y104.175 E7.26968
G1 X138.576 Y104.545 E7.281
G1 X138.627 Y104.825 E7.28954
G1 X138.736 Y105.468 E7.30912
G1 X138.778 Y105.741 E7.31741
G1 X138.85 Y106.262 E7.3332
G1 X138.926 Y106.909 E7.35275
G1 X138.955 Y107.194 E7.36135
G1 X138.988 Y107.56 E7.37238
G1 X139.011 Y107.859 E7.38139
G1 X139.055 Y108.572 E7.40283
G1 X139.068 Y108.834 E7.4107
G1 X139.082 Y109.298 E7.42464
G1 X139.091 Y109.961 E7.44454
G1 X139.091 Y110.269 E7.45379
G1 X139.086 Y110.592 E7.46348
G1 X139.078 Y110.854 E7.47135
G1 X139.054 Y111.45 E7.48926
G1 X139.039 Y111.736 E7.49785
G1 X139.01 Y112.167 E7.51082
G1 X138.985 Y112.469 E7.51991
G1 X138.926 Y113.083 E7.53843
G1 X138.902 Y113.312 E7.54534
G1 X138.866 Y113.617 E7.55456
G1 X138.825 Y113.923 E7.56383
G1 X138.738 Y114.512 E7.5817
G1 X138.698 Y114.764 E7.58936
G1 X138.633 Y115.141 E7.60084
G1 X138.581 Y115.419 E7.60933
G1 X138.451 Y116.069 E7.62923
G1 X138.376 Y116.416 E7.63989
G1 X138.313 Y116.684 E7.64815
G1 X138.096 Y117.536 E7.67454
G1 X138.024 Y117.806 E7.68293
G1 X137.931 Y118.133 E7.69313
G1 X137.852 Y118.395 E7.70135
G1 X137.677 Y118.955 E7.71896
G1 X137.59 Y119.222 E7.72739
G1 X137.457 Y119.611 E7.73973
G1 X137.361 Y119.88 E7.7483
G1 X137.157 Y120.428 E7.76586
G1 X137.063 Y120.673 E7.77373
G1 X136.946 Y120.965 E7.78317
G1 X136.832 Y121.237 E7.79203
G1 X136.562 Y121.86 E7.81241
G1 X136.449 Y122.111 E7.82067
G1 X136.331 Y122.365 E7.82908
G1 X136.22 Y122.597 E7.8368
G1 X135.908 Y123.228 E7.85793
G1 X135.767 Y123.504 E7.86723
G1 X135.64 Y123.743 E7.87536
G1 X135.52 Y123.961 E7.88283
G1 X135.184 Y124.559 E7.90342
G1 X135.039 Y124.809 E7.91209
G1 X134.896 Y125.048 E7.92045
G1 X134.75 Y125.285 E7.92881
G1 X134.408 Y125.824 E7.94797
G1 X134.264 Y126.045 E7.95589
G1 X134.061 Y126.348 E7.96683
G1 X133.893 Y126.592 E7.97573
G1 X133.511 Y127.129 E7.99551
G1 X133.367 Y127.327 E8.00286
G1 X133.202 Y127.548 E8.01114
G1 X133.028 Y127.774 E8.0197
G1 X132.653 Y128.249 E8.03786
G1 X132.472 Y128.472 E8.04648
G1 X132.215 Y128.78 E8.05853
G1 X132.018 Y129.009 E8.06759
G1 X131.607 Y129.474 E8.08622
G1 X131.452 Y129.646 E8.09317
G1 X131.222 Y129.895 E8.10335
G1 X131.02 Y130.107 E8.11214
G1 X130.569 Y130.569 E8.13152
G1 X130.363 Y130.775 E8.14026
G1 X130.132 Y130.999 E8.14992
G1 X129.946 Y131.174 E8.15759
G1 X129.512 Y131.575 E8.17532
G1 X129.29 Y131.775 E8.18429
G1 X129.038 Y131.995 E8.19433
G1 X128.814 Y132.185 E8.20315
G1 X128.396 Y132.53 E8.21942
G1 X127.662 Y133.085 E8.24704
G1 X126.881 Y133.574 E8.2747
G1 X126.062 Y133.993 E8.30232
G1 X125.209 Y134.339 E8.32995
G1 X124.329 Y134.611 E8.3576
G1 X123.429 Y134.804 E8.38523
G1 X122.516 Y134.92 E8.41285
G1 X121.799 Y134.954 E8.4344
G1 X120.942 Y134.965 E8.46012
G1 X98.901 Y134.964 E9.12174
G1 X98.198 Y134.954 E9.14284
G1 X97.279 Y134.901 E9.17047
G1 X96.368 Y134.768 E9.19811
G1 X95.472 Y134.557 E9.22574
G1 X94.598 Y134.269 E9.25336
G1 X93.751 Y133.906 E9.28102
G1 X92.94 Y133.471 E9.30865
G1 X92.169 Y132.967 E9.3363
G1 X91.559 Y132.495 E9.35945
G1 X91.173 Y132.173 E9.37454
G1 X90.955 Y131.986 E9.38316
G1 X90.534 Y131.615 E9.4
G1 X90.352 Y131.451 E9.40736
G1 X90.118 Y131.235 E9.41692
G1 X89.898 Y131.026 E9.42602
G1 X89.406 Y130.545 E9.44668
G1 X89.214 Y130.352 E9.45485
G1 X89.042 Y130.175 E9.46226
G1 X88.858 Y129.981 E9.47028
G1 X88.421 Y129.508 E9.48961
G1 X88.211 Y129.274 E9.49905
G1 X87.976 Y129.004 E9.5098
G1 X87.808 Y128.806 E9.51759
G1 X87.355 Y128.259 E9.53891
G1 X87.192 Y128.057 E9.5467
G1 X87.051 Y127.878 E9.55354
G1 X86.878 Y127.653 E9.56206
G1 X86.492 Y127.135 E9.58145
G1 X86.33 Y126.911 E9.58975
G1 X86.136 Y126.636 E9.59985
G1 X85.978 Y126.406 E9.60823
G1 X85.636 Y125.893 E9.62674
G1 X85.478 Y125.649 E9.63546
G1 X85.252 Y125.289 E9.64822
G1 X85.106 Y125.048 E9.65668
G1 X84.766 Y124.473 E9.67673
G1 X84.622 Y124.222 E9.68542
G1 X84.402 Y123.821 E9.69915
G1 X84.138 Y123.319 E9.71617
G1 X84.005 Y123.056 E9.72502
G1 X83.789 Y122.616 E9.73973
G1 X83.663 Y122.352 E9.74851
