;FLAVOR:Marlin
;TIME:3760
;Filament used: 2.20276m
;Layer height: 0.2
;MINX:92.832
;MINY:87.318
;MINZ:0.2
;MAXX:135.168
;MAXY:132.674
;MAXZ:38.2
;Generated with Cura_SteamEngine 4.10.0
M140 S70
M105
M190 S70
M104 S210
M105
M109 S210
M82 ;absolute extrusion mode
; Ender 3 Custom Start G-code
G92 E0 ; Reset Extruder
G28 ; Home all axes
G1 Z2.0 F3000 ; Move Z Axis up little to prevent scratching of Heat Bed
G1 X0.1 Y20 Z0.3 F5000.0 ; Move to start position
G1 X0.1 Y200.0 Z0.3 F1500.0 E15 ; Draw the first line
G1 X0.4 Y200.0 Z0.3 F5000.0 ; Move to side a little
G1 X0.4 Y20 Z0.3 F1500.0 E30 ; Draw the second line
G92 E0 ; Reset Extruder
G1 Z2.0 F3000 ; Move Z Axis up little to prevent scratching of Heat Bed
G1 X5 Y20 Z0.3 F5000.0 ; Move over to prevent blob squish
G92 E0
G92 E0
G1 F1500 E-6.5
;LAYER_COUNT:190
;LAYER:0
M107
G1 F300 Z0.4
G0 F9000 X105.138 Y95.05 Z0.4
;TYPE:SKIRT
G1 F300 Z0.2
G1 F1500 E0
G1 F1200 X105.682 Y94.478 E0.02363
G1 X106.03 Y94.165 E0.03764
G1 X109.794 Y90.905 E0.1867
G1 X110.416 Y90.419 E0.21033
G1 X111.085 Y89.998 E0.23399
G1 X111.792 Y89.647 E0.25761
G1 X112.531 Y89.369 E0.28125
G1 X113.295 Y89.167 E0.3049
G1 X114.075 Y89.044 E0.32854
G1 X114.902 Y89 E0.35333
G1 X119.955 Y89 E0.50459
G1 X120.445 Y88.682 E0.52208
G1 X120.627 Y88.577 E0.52837
G1 X121.34 Y88.213 E0.55233
G1 X121.53 Y88.128 E0.55856
G1 X122.293 Y87.834 E0.58304
G1 X122.492 Y87.769 E0.5893
G1 X123.269 Y87.558 E0.6134
G1 X123.473 Y87.514 E0.61965
G1 X124.338 Y87.378 E0.64586
G1 X124.547 Y87.357 E0.65215
G1 X125.327 Y87.318 E0.67553
G1 X125.537 Y87.318 E0.68181
G1 X126.357 Y87.361 E0.70639
G1 X126.565 Y87.383 E0.71265
G1 X127.354 Y87.508 E0.73657
G1 X127.558 Y87.551 E0.74281
G1 X128.36 Y87.765 E0.76765
G1 X128.56 Y87.83 E0.77395
G1 X129.303 Y88.114 E0.79776
G1 X129.493 Y88.198 E0.80398
G1 X130.233 Y88.573 E0.82881
G1 X130.417 Y88.679 E0.83517
G1 X131.142 Y89.153 E0.8611
G1 X131.308 Y89.275 E0.86726
G1 X131.921 Y89.775 E0.89094
G1 X132.078 Y89.917 E0.89728
G1 X132.618 Y90.455 E0.9201
G1 X132.758 Y90.609 E0.92633
G1 X133.305 Y91.284 E0.95234
G1 X133.428 Y91.454 E0.95862
G1 X133.865 Y92.128 E0.98266
G1 X133.97 Y92.31 E0.98895
G1 X134.328 Y93.009 E1.01246
G1 X134.413 Y93.198 E1.01866
G1 X134.738 Y94.053 E1.04604
G1 X134.807 Y94.272 E1.05292
G1 X135.006 Y95.036 E1.07655
G1 X135.127 Y95.817 E1.10021
G1 X135.168 Y96.605 E1.12383
G1 X135.129 Y97.394 E1.14747
G1 X135.011 Y98.175 E1.17112
G1 X134.814 Y98.94 E1.19476
G1 X134.541 Y99.681 E1.2184
G1 X134.194 Y100.39 E1.24203
G1 X133.778 Y101.061 E1.26566
G1 X133.295 Y101.686 E1.28931
G1 X132.752 Y102.26 E1.31296
G1 X132.432 Y102.536 E1.32561
G1 X132.432 Y117.454 E1.77217
G1 X133.014 Y118.004 E1.79614
G1 X133.529 Y118.603 E1.81978
G1 X133.981 Y119.25 E1.84341
G1 X134.366 Y119.94 E1.86706
G1 X134.678 Y120.665 E1.89069
G1 X134.916 Y121.418 E1.91433
G1 X135.076 Y122.192 E1.93799
G1 X135.157 Y122.977 E1.96161
G1 X135.159 Y123.767 E1.98526
G1 X135.08 Y124.552 E2.00888
G1 X134.923 Y125.326 E2.03252
G1 X134.798 Y125.76 E2.04604
G1 X134.729 Y125.976 E2.05282
G1 X134.433 Y126.756 E2.0778
G1 X134.349 Y126.946 E2.08402
G1 X133.974 Y127.686 E2.10885
G1 X133.868 Y127.87 E2.1152
G1 X133.407 Y128.577 E2.14047
G1 X133.285 Y128.744 E2.14666
G1 X132.93 Y129.195 E2.16384
G1 X132.862 Y129.275 E2.16698
G1 X132.453 Y129.72 E2.18508
G1 X132.305 Y129.869 E2.19136
G1 X131.639 Y130.466 E2.21814
G1 X131.475 Y130.597 E2.22442
G1 X130.864 Y131.039 E2.24699
G1 X130.689 Y131.153 E2.25325
G1 X129.965 Y131.571 E2.27827
G1 X129.778 Y131.666 E2.28455
G1 X129.045 Y131.992 E2.30856
G1 X128.85 Y132.067 E2.31482
G1 X128.074 Y132.32 E2.33925
G1 X127.873 Y132.374 E2.34548
G1 X127.071 Y132.545 E2.37003
G1 X126.863 Y132.578 E2.37633
G1 X126.051 Y132.663 E2.40077
G1 X125.842 Y132.674 E2.40703
G1 X125.022 Y132.674 E2.43158
G1 X124.813 Y132.663 E2.43785
G1 X124.031 Y132.582 E2.46138
G1 X123.824 Y132.55 E2.46765
G1 X122.992 Y132.375 E2.4931
G1 X122.791 Y132.321 E2.49933
G1 X122.008 Y132.065 E2.52399
G1 X121.811 Y131.989 E2.53031
G1 X121.085 Y131.666 E2.5541
G1 X120.898 Y131.571 E2.56037
G1 X120.156 Y131.141 E2.58605
G1 X119.945 Y131 E2.59364
G1 X114.902 Y131 E2.7446
G1 X114.113 Y130.96 E2.76825
G1 X113.333 Y130.841 E2.79187
G1 X112.568 Y130.643 E2.81552
G1 X111.828 Y130.369 E2.83914
G1 X111.119 Y130.021 E2.86278
G1 X110.448 Y129.603 E2.88645
G1 X109.796 Y129.097 E2.91115
G1 X105.986 Y125.798 E3.06201
G1 X105.732 Y125.568 E3.07227
G1 X105.184 Y125 E3.0959
G1 X104.695 Y124.38 E3.11953
G1 X104.272 Y123.713 E3.14318
G1 X103.919 Y123.007 E3.16681
G1 X103.638 Y122.269 E3.19044
G1 X103.434 Y121.506 E3.21409
G1 X103.308 Y120.726 E3.23774
G1 X103.261 Y119.873 E3.26331
G1 X103.259 Y100.129 E3.85433
G1 X103.299 Y99.34 E3.87798
G1 X103.418 Y98.56 E3.9016
G1 X103.616 Y97.795 E3.92525
G1 X103.89 Y97.054 E3.9489
G1 X104.238 Y96.345 E3.97254
G1 X104.655 Y95.675 E3.99616
G1 X105.138 Y95.05 E4.01981
G0 F9000 X105.534 Y95.205
G1 F1200 X106.288 Y94.471 E4.05131
G1 X110.056 Y91.207 E4.20053
G1 X110.663 Y90.735 E4.22355
G1 X111.315 Y90.327 E4.24657
G1 X112.006 Y89.99 E4.26959
G1 X112.729 Y89.726 E4.29263
G1 X113.475 Y89.539 E4.31565
G1 X114.236 Y89.43 E4.33866
G1 X114.902 Y89.4 E4.35862
G1 X120.071 Y89.4 E4.51335
G1 X120.645 Y89.028 E4.53382
G1 X120.827 Y88.923 E4.54011
G1 X121.503 Y88.578 E4.56283
G1 X121.693 Y88.493 E4.56906
G1 X122.417 Y88.214 E4.59229
G1 X122.616 Y88.149 E4.59855
G1 X123.354 Y87.949 E4.62144
G1 X123.558 Y87.905 E4.62769
G1 X124.378 Y87.776 E4.65254
G1 X124.587 Y87.755 E4.65882
G1 X125.327 Y87.718 E4.681
G1 X125.537 Y87.718 E4.68729
G1 X126.315 Y87.759 E4.71061
G1 X126.523 Y87.781 E4.71687
G1 X127.271 Y87.899 E4.73954
G1 X127.475 Y87.942 E4.74578
G1 X128.236 Y88.145 E4.76936
G1 X128.436 Y88.21 E4.77565
G1 X129.141 Y88.48 E4.79825
G1 X129.331 Y88.564 E4.80447
G1 X130.033 Y88.92 E4.82803
G1 X130.217 Y89.026 E4.83439
G1 X130.905 Y89.475 E4.85898
G1 X131.071 Y89.597 E4.86514
G1 X131.653 Y90.072 E4.88763
G1 X131.81 Y90.214 E4.89397
G1 X132.322 Y90.724 E4.9156
G1 X132.462 Y90.878 E4.92183
G1 X132.981 Y91.518 E4.9465
G1 X133.104 Y91.688 E4.95278
G1 X133.519 Y92.328 E4.97561
G1 X133.624 Y92.51 E4.9819
G1 X133.963 Y93.173 E5.00419
G1 X134.048 Y93.362 E5.01039
G1 X134.357 Y94.173 E5.03637
G1 X134.426 Y94.392 E5.04325
G1 X134.619 Y95.137 E5.06628
G1 X134.733 Y95.897 E5.08929
G1 X134.768 Y96.666 E5.11233
G1 X134.723 Y97.434 E5.13536
G1 X134.598 Y98.193 E5.15839
G1 X134.395 Y98.935 E5.18141
G1 X134.117 Y99.652 E5.20443
G1 X133.765 Y100.336 E5.22746
G1 X133.345 Y100.98 E5.25047
G1 X132.859 Y101.576 E5.27349
G1 X132.315 Y102.12 E5.29652
G1 X132.032 Y102.349 E5.30742
G1 X132.032 Y117.653 E5.76553
G1 X132.286 Y117.857 E5.77529
G1 X132.833 Y118.397 E5.79829
G1 X133.322 Y118.991 E5.82132
G1 X133.746 Y119.633 E5.84436
G1 X134.101 Y120.315 E5.86737
G1 X134.383 Y121.031 E5.89041
G1 X134.59 Y121.772 E5.91344
G1 X134.718 Y122.53 E5.93645
G1 X134.767 Y123.298 E5.95948
G1 X134.737 Y124.066 E5.98249
G1 X134.626 Y124.827 E6.00551
G1 X134.417 Y125.638 E6.03058
G1 X134.348 Y125.854 E6.03737
G1 X134.067 Y126.594 E6.06106
G1 X133.983 Y126.784 E6.06728
G1 X133.627 Y127.486 E6.09084
G1 X133.521 Y127.67 E6.0972
G1 X133.084 Y128.341 E6.12117
G1 X132.962 Y128.508 E6.12736
G1 X132.625 Y128.936 E6.14367
G1 X132.557 Y129.016 E6.14681
G1 X132.169 Y129.438 E6.16397
G1 X132.021 Y129.587 E6.17026
G1 X131.389 Y130.154 E6.19567
G1 X131.225 Y130.285 E6.20196
G1 X130.646 Y130.703 E6.22333
G1 X130.471 Y130.817 E6.22958
G1 X129.784 Y131.214 E6.25334
G1 X129.597 Y131.309 E6.25961
G1 X128.901 Y131.619 E6.28242
G1 X128.706 Y131.694 E6.28868
G1 X127.97 Y131.934 E6.31185
G1 X127.769 Y131.988 E6.31808
G1 X127.009 Y132.15 E6.34134
G1 X126.801 Y132.183 E6.34764
G1 X126.03 Y132.264 E6.37085
G1 X125.821 Y132.275 E6.37712
G1 X125.043 Y132.275 E6.4004
G1 X124.834 Y132.264 E6.40667
G1 X124.092 Y132.187 E6.429
G1 X123.885 Y132.155 E6.43527
G1 X123.096 Y131.989 E6.4594
G1 X122.895 Y131.935 E6.46563
G1 X122.152 Y131.692 E6.48904
G1 X121.955 Y131.616 E6.49536
G1 X121.266 Y131.309 E6.51794
G1 X121.079 Y131.214 E6.52421
G1 X120.376 Y130.807 E6.54853
G1 X120.074 Y130.6 E6.55949
G1 X114.902 Y130.6 E6.71431
G1 X114.134 Y130.56 E6.73733
G1 X113.374 Y130.441 E6.76036
G1 X112.631 Y130.243 E6.78337
G1 X111.912 Y129.969 E6.80641
G1 X111.226 Y129.622 E6.82942
G1 X110.579 Y129.206 E6.85244
G1 X110.058 Y128.794 E6.87233
G1 X106.248 Y125.495 E7.02319
G1 X106.006 Y125.276 E7.03296
G1 X105.472 Y124.722 E7.05599
G1 X104.999 Y124.116 E7.079
G1 X104.591 Y123.464 E7.10203
G1 X104.253 Y122.773 E7.12505
G1 X103.989 Y122.05 E7.14809
G1 X103.801 Y121.304 E7.17112
G1 X103.691 Y120.543 E7.19414
G1 X103.661 Y119.873 E7.21421
G1 X103.659 Y100.129 E7.80523
G1 X103.699 Y99.361 E7.82825
G1 X103.818 Y98.601 E7.85128
G1 X104.016 Y97.857 E7.87433
G1 X104.29 Y97.139 E7.89733
G1 X104.637 Y96.452 E7.92037
G1 X105.053 Y95.805 E7.9434
G1 X105.534 Y95.205 E7.96642
G0 F9000 X105.929 Y95.365
G1 F1200 X106.546 Y94.777 E7.99193
G1 X110.318 Y91.51 E8.1413
G1 X110.909 Y91.051 E8.1637
G1 X111.545 Y90.657 E8.1861
G1 X112.22 Y90.334 E8.2085
G1 X112.925 Y90.085 E8.23088
G1 X113.653 Y89.912 E8.25328
G1 X114.395 Y89.818 E8.27567
G1 X114.902 Y89.8 E8.29085
G1 X120.194 Y89.8 E8.44927
G1 X120.24 Y89.767 E8.45096
G1 X120.845 Y89.375 E8.47254
G1 X121.027 Y89.27 E8.47883
G1 X121.666 Y88.943 E8.50032
G1 X121.856 Y88.858 E8.50655
G1 X122.542 Y88.594 E8.52855
G1 X122.741 Y88.529 E8.53482
G1 X123.438 Y88.34 E8.55643
G1 X123.642 Y88.296 E8.56268
G1 X124.418 Y88.174 E8.58619
G1 X124.627 Y88.153 E8.59248
G1 X125.327 Y88.118 E8.61346
G1 X125.537 Y88.118 E8.61975
G1 X126.273 Y88.157 E8.64181
G1 X126.481 Y88.179 E8.64807
G1 X127.189 Y88.291 E8.66953
G1 X127.393 Y88.334 E8.67577
G1 X128.113 Y88.526 E8.69808
G1 X128.313 Y88.591 E8.70437
G1 X128.979 Y88.846 E8.72572
G1 X129.169 Y88.93 E8.73194
G1 X129.833 Y89.267 E8.75423
G1 X130.017 Y89.373 E8.76058
G1 X130.668 Y89.797 E8.78384
G1 X130.834 Y89.919 E8.79001
G1 X131.385 Y90.368 E8.81128
G1 X131.542 Y90.51 E8.81762
G1 X132.026 Y90.993 E8.83809
G1 X132.166 Y91.147 E8.84432
G1 X132.657 Y91.753 E8.86766
G1 X132.78 Y91.923 E8.87394
G1 X133.172 Y92.528 E8.89552
G1 X133.277 Y92.71 E8.90181
G1 X133.598 Y93.337 E8.9229
G1 X133.683 Y93.526 E8.9291
G1 X133.975 Y94.293 E8.95367
G1 X134.044 Y94.512 E8.96054
G1 X134.231 Y95.237 E8.98296
G1 X134.339 Y95.977 E9.00534
G1 X134.367 Y96.725 E9.02775
G1 X134.316 Y97.471 E9.05013
G1 X134.185 Y98.208 E9.07254
G1 X133.976 Y98.926 E9.09492
G1 X133.692 Y99.618 E9.11731
G1 X133.335 Y100.275 E9.1397
G1 X132.911 Y100.891 E9.16208
G1 X132.423 Y101.458 E9.18447
G1 X131.877 Y101.97 E9.20688
G1 X131.632 Y102.155 E9.21607
G1 X131.632 Y117.841 E9.68562
G1 X132.127 Y118.252 E9.70488
G1 X132.647 Y118.789 E9.72725
G1 X133.108 Y119.379 E9.74967
G1 X133.502 Y120.014 E9.77204
G1 X133.827 Y120.688 E9.79443
G1 X134.078 Y121.393 E9.81684
G1 X134.253 Y122.12 E9.83922
G1 X134.348 Y122.862 E9.86161
G1 X134.364 Y123.61 E9.88401
G1 X134.301 Y124.355 E9.90639
G1 X134.157 Y125.09 E9.92881
G1 X134.036 Y125.516 E9.94206
G1 X133.967 Y125.732 E9.94885
G1 X133.701 Y126.432 E9.97127
G1 X133.617 Y126.622 E9.97749
G1 X133.28 Y127.286 E9.99978
G1 X133.174 Y127.47 E10.00613
G1 X132.761 Y128.105 E10.02881
G1 X132.639 Y128.272 E10.035
G1 X132.321 Y128.677 E10.05041
G1 X132.253 Y128.757 E10.05355
G1 X131.885 Y129.156 E10.0698
G1 X131.737 Y129.305 E10.07609
G1 X131.14 Y129.841 E10.10011
G1 X130.976 Y129.972 E10.10639
G1 X130.428 Y130.368 E10.12663
G1 X130.253 Y130.482 E10.13288
G1 X129.602 Y130.858 E10.15538
G1 X129.415 Y130.953 E10.16166
G1 X128.758 Y131.245 E10.18318
G1 X128.563 Y131.32 E10.18944
G1 X127.866 Y131.547 E10.21138
G1 X127.665 Y131.601 E10.21761
G1 X126.946 Y131.755 E10.23962
G1 X126.738 Y131.788 E10.24593
G1 X126.009 Y131.864 E10.26787
G1 X125.8 Y131.875 E10.27413
G1 X125.064 Y131.875 E10.29616
G1 X124.855 Y131.864 E10.30243
G1 X124.154 Y131.792 E10.32352
G1 X123.947 Y131.76 E10.32979
G1 X123.2 Y131.602 E10.35265
G1 X122.999 Y131.548 E10.35888
G1 X122.295 Y131.319 E10.38104
G1 X122.098 Y131.243 E10.38736
G1 X121.448 Y130.953 E10.40866
G1 X121.261 Y130.858 E10.41494
G1 X120.595 Y130.472 E10.43798
G1 X120.421 Y130.358 E10.44421
G1 X120.204 Y130.2 E10.45225
G1 X114.902 Y130.2 E10.61096
G1 X114.155 Y130.16 E10.63335
G1 X113.417 Y130.041 E10.65573
G1 X112.695 Y129.843 E10.67814
G1 X111.999 Y129.57 E10.70052
G1 X111.336 Y129.223 E10.72292
G1 X110.713 Y128.808 E10.74532
G1 X110.32 Y128.492 E10.76042
G1 X106.51 Y125.193 E10.91128
G1 X106.279 Y124.984 E10.92061
G1 X105.761 Y124.444 E10.94301
G1 X105.303 Y123.853 E10.96539
G1 X104.911 Y123.215 E10.9878
G1 X104.589 Y122.54 E11.01019
G1 X104.342 Y121.834 E11.03258
G1 X104.171 Y121.106 E11.05496
G1 X104.078 Y120.364 E11.07735
G1 X104.061 Y119.873 E11.09206
G1 X104.059 Y100.129 E11.68307
G1 X104.099 Y99.382 E11.70547
G1 X104.218 Y98.643 E11.72787
G1 X104.416 Y97.922 E11.75026
G1 X104.689 Y97.225 E11.77266
G1 X105.035 Y96.562 E11.79505
G1 X105.45 Y95.94 E11.81743
G1 X105.929 Y95.365 E11.83983
G0 F9000 X105.847 Y96.079
G1 F1200 X106.324 Y95.53 E11.8616
G1 X106.804 Y95.083 E11.88124
G1 X110.58 Y91.812 E12.03078
G1 X111.154 Y91.367 E12.05252
G1 X111.774 Y90.988 E12.07427
G1 X112.432 Y90.68 E12.09602
G1 X113.119 Y90.445 E12.11776
G1 X113.828 Y90.288 E12.13949
G1 X114.902 Y90.2 E12.17175
G1 X120.323 Y90.2 E12.33402
G1 X120.474 Y90.091 E12.3396
G1 X121.045 Y89.721 E12.35997
G1 X121.227 Y89.616 E12.36626
G1 X121.83 Y89.308 E12.38652
G1 X122.02 Y89.223 E12.39275
G1 X122.666 Y88.974 E12.41348
G1 X122.865 Y88.909 E12.41975
G1 X123.522 Y88.731 E12.44012
G1 X123.726 Y88.687 E12.44637
G1 X124.458 Y88.572 E12.46855
G1 X124.667 Y88.551 E12.47484
G1 X125.327 Y88.518 E12.49462
G1 X125.537 Y88.518 E12.5009
G1 X126.231 Y88.555 E12.52171
G1 X126.439 Y88.577 E12.52797
G1 X127.106 Y88.682 E12.54818
G1 X127.31 Y88.725 E12.55442
G1 X127.989 Y88.906 E12.57546
G1 X128.189 Y88.971 E12.58175
G1 X128.818 Y89.212 E12.60191
G1 X129.008 Y89.296 E12.60813
G1 X129.634 Y89.613 E12.62914
G1 X129.818 Y89.719 E12.63549
G1 X130.432 Y90.12 E12.65745
G1 X130.598 Y90.242 E12.66361
G1 X131.116 Y90.665 E12.68363
G1 X131.273 Y90.807 E12.68997
G1 X131.73 Y91.262 E12.70927
G1 X131.87 Y91.416 E12.7155
G1 X132.333 Y91.987 E12.73751
G1 X132.456 Y92.157 E12.74379
G1 X132.826 Y92.728 E12.76416
G1 X132.931 Y92.91 E12.77045
G1 X133.233 Y93.501 E12.79031
G1 X133.318 Y93.69 E12.79652
G1 X133.594 Y94.414 E12.81971
G1 X133.663 Y94.633 E12.82658
G1 X133.843 Y95.336 E12.84831
G1 X133.944 Y96.056 E12.87007
G1 X133.966 Y96.782 E12.89181
G1 X133.908 Y97.506 E12.91355
G1 X133.77 Y98.219 E12.93529
G1 X133.555 Y98.913 E12.95704
G1 X133.266 Y99.579 E12.97877
G1 X132.904 Y100.209 E13.00052
G1 X132.476 Y100.796 E13.02227
G1 X131.986 Y101.332 E13.04401
G1 X131.44 Y101.81 E13.06573
G1 X131.232 Y101.955 E13.07332
G1 X131.232 Y118.046 E13.55499
G1 X131.413 Y118.171 E13.56157
G1 X131.962 Y118.647 E13.58333
G1 X132.455 Y119.181 E13.60508
G1 X132.886 Y119.765 E13.62681
G1 X133.25 Y120.393 E13.64854
G1 X133.544 Y121.058 E13.6703
G1 X133.762 Y121.751 E13.69205
G1 X133.903 Y122.463 E13.71377
G1 X133.965 Y123.187 E13.73553
G1 X133.947 Y123.913 E13.75726
G1 X133.849 Y124.633 E13.77902
G1 X133.655 Y125.394 E13.80252
G1 X133.586 Y125.61 E13.80931
G1 X133.335 Y126.271 E13.83048
G1 X133.251 Y126.461 E13.8367
G1 X132.934 Y127.087 E13.8577
G1 X132.828 Y127.271 E13.86406
G1 X132.438 Y127.869 E13.88543
G1 X132.316 Y128.036 E13.89162
G1 X132.016 Y128.417 E13.90613
G1 X131.948 Y128.497 E13.90928
G1 X131.602 Y128.874 E13.92459
G1 X131.454 Y129.023 E13.93088
G1 X130.89 Y129.529 E13.95356
G1 X130.726 Y129.66 E13.95985
