;FLAVOR:Marlin
;TIME:1576
;Filament used: 0.711457m
;Layer height: 0.2
;MINX:83.439
;MINY:99.056
;MINZ:0.2
;MAXX:133.785
;MAXY:120.953
;MAXZ:17.6
;Generated with Cura_SteamEngine 4.10.0
M140 S70
M105
M190 S70
M104 S210
M105
M109 S210
M82 ;absolute extrusion mode
; Ender 3 Custom Start G-code
G92 E0 ; Reset Extruder
G28 ; Home all axes
G1 Z2.0 F3000 ; Move Z Axis up little to prevent scratching of Heat Bed
G1 X0.1 Y20 Z0.3 F5000.0 ; Move to start position
G1 X0.1 Y200.0 Z0.3 F1500.0 E15 ; Draw the first line
G1 X0.4 Y200.0 Z0.3 F5000.0 ; Move to side a little
G1 X0.4 Y20 Z0.3 F1500.0 E30 ; Draw the second line
G92 E0 ; Reset Extruder
G1 Z2.0 F3000 ; Move Z Axis up little to prevent scratching of Heat Bed
G1 X5 Y20 Z0.3 F5000.0 ; Move over to prevent blob squish
G92 E0
G92 E0
G1 F1500 E-6.5
;LAYER_COUNT:88
;LAYER:0
M107
G1 F300 Z0.4
G0 F9000 X86.906 Y100.992 Z0.4
;TYPE:SKIRT
G1 F300 Z0.2
G1 F1500 E0
G1 F1200 X87.286 Y100.713 E0.01411
G1 X87.453 Y100.598 E0.02018
G1 X88.125 Y100.183 E0.04382
G1 X88.51 Y99.986 E0.05677
G1 X88.696 Y99.897 E0.06294
G1 X89.425 Y99.593 E0.08659
G1 X90.05 Y99.397 E0.10619
G1 X90.312 Y99.327 E0.11431
G1 X91.084 Y99.162 E0.13794
G1 X91.891 Y99.075 E0.16224
G1 X92.16 Y99.06 E0.1703
G1 X92.949 Y99.056 E0.19392
G1 X93.821 Y99.145 E0.22016
G1 X94.091 Y99.188 E0.22834
G1 X94.863 Y99.352 E0.25197
G1 X95.481 Y99.543 E0.27133
G1 X95.686 Y99.616 E0.27784
G1 X96.415 Y99.918 E0.30147
G1 X97.024 Y100.241 E0.3221
G1 X97.245 Y100.371 E0.32978
G1 X97.466 Y100.517 E0.3377
G1 X98.138 Y100.145 E0.3607
G1 X98.864 Y99.835 E0.38433
G1 X99.618 Y99.599 E0.40798
G1 X100.391 Y99.441 E0.43159
G1 X101.562 Y99.353 E0.46675
G1 X125.984 Y99.353 E1.1978
G1 X126.773 Y99.393 E1.22145
G1 X127.553 Y99.512 E1.24506
G1 X128.318 Y99.71 E1.26872
G1 X129.058 Y99.984 E1.29234
G1 X129.767 Y100.332 E1.31598
G1 X130.438 Y100.75 E1.33965
G1 X131.062 Y101.233 E1.36327
G1 X131.635 Y101.776 E1.3869
G1 X132.15 Y102.375 E1.41054
G1 X132.601 Y103.023 E1.43418
G1 X132.985 Y103.714 E1.45784
G1 X133.297 Y104.439 E1.48147
G1 X133.534 Y105.192 E1.5051
G1 X133.693 Y105.966 E1.52875
G1 X133.774 Y106.751 E1.55237
G1 X133.784 Y107.152 E1.56438
G1 X133.785 Y113.152 E1.74399
G1 X133.745 Y113.94 E1.7676
G1 X133.626 Y114.721 E1.79125
G1 X133.428 Y115.486 E1.81491
G1 X133.154 Y116.226 E1.83853
G1 X132.807 Y116.935 E1.86216
G1 X132.389 Y117.606 E1.88582
G1 X131.906 Y118.23 E1.90944
G1 X131.362 Y118.803 E1.93309
G1 X130.764 Y119.318 E1.95672
G1 X130.116 Y119.769 E1.98035
G1 X129.426 Y120.153 E2.00399
G1 X128.7 Y120.465 E2.02764
G1 X127.947 Y120.702 E2.05127
G1 X127.174 Y120.862 E2.0749
G1 X126.388 Y120.943 E2.09855
G1 X125.985 Y120.953 E2.11062
G1 X122.876 Y120.953 E2.20369
G1 X122.087 Y120.913 E2.22733
G1 X121.307 Y120.794 E2.25095
G1 X120.911 Y120.692 E2.26319
G1 X120.817 Y120.673 E2.26606
G1 X118.35 Y120.336 E2.3406
G1 X115.93 Y120.147 E2.41326
G1 X115.513 Y120.135 E2.42575
G1 X113.622 Y120.096 E2.48236
G1 X113.452 Y120.097 E2.48745
G1 X111.191 Y120.176 E2.55518
G1 X111.056 Y120.184 E2.55922
G1 X108.851 Y120.384 E2.6255
G1 X108.525 Y120.423 E2.63533
G1 X106.594 Y120.71 E2.69377
G1 X105.82 Y120.866 E2.7174
G1 X104.661 Y120.953 E2.75219
G1 X101.532 Y120.953 E2.84586
G1 X97.21 Y120.939 E2.97523
G1 X96.778 Y120.931 E2.98816
G1 X96.426 Y120.917 E2.99871
G1 X96.103 Y120.896 E3.0084
G1 X95.736 Y120.863 E3.01943
G1 X95.372 Y120.822 E3.03039
G1 X94.991 Y120.77 E3.0419
G1 X94.684 Y120.72 E3.05122
G1 X94.385 Y120.665 E3.06032
G1 X94.129 Y120.613 E3.06814
G1 X93.802 Y120.539 E3.07817
G1 X93.5 Y120.464 E3.08749
G1 X93.174 Y120.375 E3.0976
G1 X92.879 Y120.288 E3.10681
G1 X92.542 Y120.181 E3.11739
G1 X92.252 Y120.081 E3.12658
G1 X91.935 Y119.964 E3.13669
G1 X91.661 Y119.856 E3.14551
G1 X91.303 Y119.704 E3.15715
G1 X91.016 Y119.574 E3.16658
G1 X90.694 Y119.419 E3.17728
G1 X90.427 Y119.283 E3.18625
G1 X90.089 Y119.1 E3.19775
G1 X89.829 Y118.951 E3.20672
G1 X89.497 Y118.75 E3.21834
G1 X89.249 Y118.591 E3.22716
G1 X88.933 Y118.377 E3.23858
G1 X88.693 Y118.206 E3.2474
G1 X88.384 Y117.975 E3.25895
G1 X88.165 Y117.802 E3.26731
G1 X87.875 Y117.561 E3.27859
G1 X87.657 Y117.371 E3.28725
G1 X87.322 Y117.061 E3.30091
G1 X87.12 Y116.863 E3.30938
G1 X86.849 Y116.584 E3.32102
G1 X86.657 Y116.376 E3.3295
G1 X86.396 Y116.078 E3.34135
G1 X86.216 Y115.862 E3.34977
G1 X85.913 Y115.475 E3.36448
G1 X85.744 Y115.244 E3.37305
G1 X85.517 Y114.917 E3.38497
G1 X85.372 Y114.696 E3.39288
G1 X85.143 Y114.324 E3.40596
G1 X85.007 Y114.089 E3.41408
G1 X84.739 Y113.584 E3.4312
G1 X84.596 Y113.289 E3.44101
G1 X84.44 Y112.947 E3.45226
G1 X84.353 Y112.743 E3.4589
G1 X84.189 Y112.325 E3.47234
G1 X84.099 Y112.075 E3.4803
G1 X83.916 Y111.496 E3.49847
G1 X83.834 Y111.197 E3.50775
G1 X83.741 Y110.822 E3.51932
G1 X83.696 Y110.619 E3.52554
G1 X83.609 Y110.162 E3.53947
G1 X83.566 Y109.893 E3.54762
G1 X83.503 Y109.403 E3.56241
G1 X83.478 Y109.141 E3.57029
G1 X83.447 Y108.647 E3.58511
G1 X83.439 Y108.395 E3.59265
G1 X83.447 Y107.713 E3.61307
G1 X83.459 Y107.498 E3.61952
G1 X83.543 Y106.713 E3.64315
G1 X83.729 Y105.854 E3.66946
G1 X83.802 Y105.59 E3.67766
G1 X84.051 Y104.841 E3.70128
G1 X84.328 Y104.212 E3.72186
G1 X84.418 Y104.03 E3.72794
G1 X84.804 Y103.34 E3.7516
G1 X85.108 Y102.89 E3.76786
G1 X85.259 Y102.683 E3.77553
G1 X85.757 Y102.07 E3.79917
G1 X86.16 Y101.652 E3.81655
G1 X86.309 Y101.509 E3.82273
G1 X86.906 Y100.992 E3.84637
G0 F9000 X87.168 Y101.295
G1 F1200 X87.513 Y101.042 E3.85918
G1 X87.68 Y100.927 E3.86525
G1 X88.335 Y100.525 E3.88825
G1 X88.683 Y100.347 E3.89995
G1 X88.869 Y100.258 E3.90613
G1 X89.579 Y99.962 E3.92915
G1 X90.153 Y99.784 E3.94714
G1 X90.415 Y99.714 E3.95526
G1 X91.167 Y99.554 E3.97827
G1 X91.913 Y99.474 E4.00073
G1 X92.182 Y99.459 E4.0088
G1 X92.951 Y99.457 E4.03182
G1 X93.758 Y99.54 E4.0561
G1 X94.028 Y99.583 E4.06429
G1 X94.78 Y99.743 E4.0873
G1 X95.346 Y99.92 E4.10505
G1 X95.551 Y99.993 E4.11157
G1 X96.262 Y100.288 E4.13461
G1 X96.821 Y100.586 E4.15357
G1 X97.042 Y100.716 E4.16125
G1 X97.471 Y100.999 E4.17663
G1 X97.829 Y100.764 E4.18945
G1 X98.512 Y100.411 E4.21246
G1 X99.229 Y100.131 E4.23551
G1 X99.97 Y99.926 E4.25852
G1 X100.729 Y99.8 E4.28155
G1 X101.562 Y99.753 E4.30653
G1 X125.984 Y99.753 E5.03758
G1 X126.752 Y99.793 E5.0606
G1 X127.512 Y99.912 E5.08362
G1 X128.255 Y100.11 E5.10664
G1 X128.974 Y100.384 E5.12967
G1 X129.66 Y100.731 E5.15269
G1 X130.307 Y101.147 E5.17571
G1 X130.907 Y101.628 E5.19873
G1 X131.454 Y102.169 E5.22176
G1 X131.942 Y102.764 E5.2448
G1 X132.365 Y103.406 E5.26781
G1 X132.72 Y104.089 E5.29085
G1 X133.001 Y104.804 E5.31385
G1 X133.207 Y105.546 E5.3369
G1 X133.335 Y106.304 E5.35991
G1 X133.384 Y107.152 E5.38534
G1 X133.385 Y113.152 E5.56494
G1 X133.345 Y113.92 E5.58796
G1 X133.226 Y114.68 E5.61099
G1 X133.028 Y115.423 E5.63401
G1 X132.755 Y116.142 E5.65703
G1 X132.408 Y116.828 E5.68004
G1 X131.992 Y117.475 E5.70307
G1 X131.51 Y118.075 E5.7261
G1 X130.97 Y118.622 E5.74911
G1 X130.375 Y119.11 E5.77215
G1 X129.733 Y119.534 E5.79518
G1 X129.05 Y119.888 E5.81821
G1 X128.335 Y120.17 E5.84121
G1 X127.594 Y120.376 E5.86424
G1 X126.835 Y120.504 E5.88728
G1 X125.985 Y120.553 E5.91276
G1 X122.876 Y120.553 E6.00583
G1 X122.108 Y120.513 E6.02885
G1 X121.348 Y120.394 E6.05188
G1 X121.011 Y120.304 E6.06232
G1 X120.876 Y120.278 E6.06643
G1 X118.382 Y119.937 E6.14178
G1 X115.949 Y119.747 E6.21483
G1 X115.523 Y119.735 E6.22759
G1 X113.621 Y119.696 E6.28454
G1 X113.436 Y119.697 E6.29008
G1 X111.19 Y119.775 E6.35735
G1 X110.999 Y119.787 E6.36308
G1 X110.725 Y119.81 E6.37131
G1 X108.843 Y119.982 E6.42788
G1 X108.492 Y120.024 E6.43846
G1 X106.505 Y120.318 E6.49859
G1 X106.475 Y120.327 E6.49952
G1 X105.721 Y120.477 E6.52254
G1 X104.661 Y120.553 E6.55435
G1 X101.533 Y120.553 E6.64798
G1 X97.088 Y120.538 E6.78104
G1 X96.785 Y120.532 E6.79011
G1 X96.452 Y120.517 E6.80009
G1 X96.129 Y120.496 E6.80978
G1 X95.781 Y120.465 E6.82024
G1 X95.417 Y120.424 E6.8312
G1 X95.055 Y120.375 E6.84214
G1 X94.748 Y120.325 E6.85145
G1 X94.465 Y120.273 E6.86006
G1 X94.209 Y120.221 E6.86788
G1 X93.898 Y120.151 E6.87742
G1 X93.596 Y120.076 E6.88674
G1 X93.287 Y119.992 E6.89632
G1 X92.992 Y119.905 E6.90553
G1 X92.673 Y119.803 E6.91556
G1 X92.383 Y119.703 E6.92474
G1 X92.081 Y119.592 E6.93437
G1 X91.807 Y119.484 E6.94319
G1 X91.468 Y119.34 E6.95421
G1 X91.181 Y119.21 E6.96364
G1 X90.875 Y119.063 E6.9738
G1 X90.608 Y118.927 E6.98277
G1 X90.288 Y118.753 E6.99368
G1 X90.028 Y118.604 E7.00265
G1 X89.713 Y118.414 E7.01366
G1 X89.465 Y118.255 E7.02248
G1 X89.165 Y118.052 E7.03332
G1 X88.925 Y117.881 E7.04214
G1 X88.632 Y117.661 E7.05311
G1 X88.413 Y117.488 E7.06146
G1 X88.138 Y117.26 E7.07216
G1 X87.92 Y117.07 E7.08081
G1 X87.602 Y116.776 E7.09378
G1 X87.4 Y116.578 E7.10224
G1 X87.142 Y116.312 E7.11334
G1 X86.95 Y116.104 E7.12181
G1 X86.703 Y115.822 E7.13303
G1 X86.523 Y115.606 E7.14145
G1 X86.236 Y115.238 E7.15542
G1 X86.067 Y115.007 E7.16399
G1 X85.852 Y114.697 E7.17528
G1 X85.707 Y114.476 E7.18319
G1 X85.489 Y114.124 E7.19559
G1 X85.353 Y113.889 E7.20371
G1 X85.099 Y113.41 E7.21994
G1 X84.956 Y113.115 E7.22976
G1 X84.808 Y112.79 E7.24045
G1 X84.721 Y112.586 E7.24708
G1 X84.565 Y112.19 E7.25983
G1 X84.475 Y111.94 E7.26778
G1 X84.302 Y111.39 E7.28504
G1 X84.22 Y111.091 E7.29432
G1 X84.131 Y110.736 E7.30527
G1 X84.086 Y110.533 E7.3115
G1 X84.004 Y110.099 E7.32472
G1 X83.961 Y109.83 E7.33287
G1 X83.901 Y109.365 E7.34691
G1 X83.876 Y109.103 E7.35479
G1 X83.847 Y108.635 E7.36882
G1 X83.839 Y108.383 E7.37637
G1 X83.846 Y107.736 E7.39574
G1 X83.858 Y107.521 E7.40218
G1 X83.941 Y106.756 E7.42522
G1 X84.115 Y105.961 E7.44958
G1 X84.188 Y105.697 E7.45778
G1 X84.431 Y104.967 E7.48081
G1 X84.687 Y104.389 E7.49973
G1 X84.777 Y104.207 E7.50581
G1 X85.153 Y103.536 E7.52883
G1 X85.432 Y103.126 E7.54368
G1 X85.583 Y102.919 E7.55135
G1 X86.068 Y102.322 E7.57437
G1 X86.437 Y101.941 E7.59025
G1 X86.586 Y101.798 E7.59643
G1 X87.168 Y101.295 E7.61946
G0 F9000 X87.43 Y101.598
G1 F1200 X87.74 Y101.372 E7.63094
G1 X87.907 Y101.257 E7.63701
G1 X88.856 Y100.708 E7.66983
G1 X89.042 Y100.619 E7.676
G1 X89.733 Y100.332 E7.6984
G1 X90.256 Y100.17 E7.71479
G1 X90.518 Y100.1 E7.72291
G1 X91.25 Y99.946 E7.7453
G1 X91.935 Y99.874 E7.76592
G1 X92.204 Y99.859 E7.77398
G1 X92.952 Y99.857 E7.79637
G1 X93.695 Y99.935 E7.81874
G1 X93.965 Y99.978 E7.82692
G1 X94.696 Y100.135 E7.8493
G1 X95.212 Y100.297 E7.86549
G1 X95.417 Y100.37 E7.87201
G1 X96.108 Y100.658 E7.89441
G1 X96.618 Y100.93 E7.91172
G1 X96.839 Y101.06 E7.91939
G1 X97.471 Y101.48 E7.94211
G1 X97.573 Y101.401 E7.94597
G1 X98.209 Y101.008 E7.96835
G1 X98.884 Y100.685 E7.99075
G1 X99.59 Y100.437 E8.01315
G1 X100.318 Y100.265 E8.03554
G1 X101.06 Y100.171 E8.05793
G1 X101.562 Y100.153 E8.07296
G1 X125.984 Y100.153 E8.80402
G1 X126.731 Y100.193 E8.82641
G1 X127.469 Y100.312 E8.84879
G1 X128.191 Y100.51 E8.8712
G1 X128.887 Y100.783 E8.89358
G1 X129.55 Y101.13 E8.91598
G1 X130.173 Y101.545 E8.93838
G1 X130.747 Y102.024 E8.96076
G1 X131.268 Y102.561 E8.98316
G1 X131.727 Y103.151 E9.00554
G1 X132.122 Y103.787 E9.02795
G1 X132.446 Y104.461 E9.05033
G1 X132.696 Y105.166 E9.07272
G1 X132.87 Y105.894 E9.09513
G1 X132.965 Y106.636 E9.11752
G1 X132.984 Y107.152 E9.13298
G1 X132.985 Y113.152 E9.31258
G1 X132.945 Y113.899 E9.33498
G1 X132.826 Y114.637 E9.35735
G1 X132.628 Y115.359 E9.37976
G1 X132.355 Y116.055 E9.40214
G1 X132.009 Y116.718 E9.42453
G1 X131.594 Y117.341 E9.44694
G1 X131.115 Y117.916 E9.46934
G1 X130.578 Y118.436 E9.49171
G1 X129.988 Y118.896 E9.51411
G1 X129.352 Y119.29 E9.5365
G1 X128.678 Y119.614 E9.55889
G1 X127.973 Y119.865 E9.58129
G1 X127.245 Y120.039 E9.6037
G1 X126.503 Y120.134 E9.62609
G1 X125.985 Y120.153 E9.64161
G1 X122.876 Y120.153 E9.73467
G1 X122.129 Y120.113 E9.75706
G1 X121.391 Y119.994 E9.77944
G1 X120.932 Y119.881 E9.79359
G1 X118.452 Y119.542 E9.86852
G1 X115.957 Y119.347 E9.94343
G1 X115.533 Y119.335 E9.95613
G1 X113.62 Y119.296 E10.0134
G1 X113.453 Y119.297 E10.0184
G1 X111.152 Y119.377 E10.08732
G1 X110.981 Y119.388 E10.09245
G1 X110.659 Y119.415 E10.10212
G1 X108.756 Y119.589 E10.15933
G1 X108.457 Y119.625 E10.16834
G1 X106.414 Y119.927 E10.23016
G1 X106.357 Y119.944 E10.23194
G1 X105.623 Y120.087 E10.25433
G1 X104.661 Y120.153 E10.28319
G1 X101.534 Y120.153 E10.3768
G1 X97.096 Y120.138 E10.50964
G1 X96.793 Y120.132 E10.51872
G1 X96.478 Y120.118 E10.52815
G1 X96.155 Y120.097 E10.53784
G1 X95.825 Y120.068 E10.54776
G1 X95.461 Y120.027 E10.55872
G1 X95.12 Y119.98 E10.56903
G1 X94.813 Y119.93 E10.57834
G1 X94.545 Y119.881 E10.58649
G1 X94.289 Y119.829 E10.59431
G1 X93.995 Y119.763 E10.60333
G1 X93.693 Y119.688 E10.61265
G1 X93.4 Y119.608 E10.62174
G1 X93.105 Y119.521 E10.63095
G1 X92.803 Y119.425 E10.64043
G1 X92.513 Y119.325 E10.64962
G1 X92.228 Y119.219 E10.65872
G1 X91.954 Y119.111 E10.66753
G1 X91.633 Y118.975 E10.67797
G1 X91.346 Y118.845 E10.6874
G1 X91.057 Y118.706 E10.697
G1 X90.79 Y118.57 E10.70597
G1 X90.486 Y118.406 E10.71631
G1 X90.226 Y118.257 E10.72528
G1 X89.929 Y118.077 E10.73568
G1 X89.681 Y117.918 E10.74449
G1 X89.397 Y117.726 E10.75476
G1 X89.157 Y117.555 E10.76358
G1 X88.88 Y117.347 E10.77395
G1 X88.661 Y117.174 E10.7823
G1 X88.401 Y116.958 E10.79242
G1 X88.183 Y116.768 E10.80107
G1 X87.882 Y116.49 E10.81334
G1 X87.68 Y116.292 E10.82181
G1 X87.436 Y116.041 E10.83229
G1 X87.244 Y115.833 E10.84076
G1 X87.01 Y115.566 E10.85139
G1 X86.83 Y115.35 E10.8598
G1 X86.559 Y115.002 E10.87301
G1 X86.39 Y114.771 E10.88157
G1 X86.186 Y114.478 E10.89226
G1 X86.041 Y114.257 E10.90017
G1 X85.835 Y113.923 E10.91192
G1 X85.699 Y113.688 E10.92005
G1 X85.459 Y113.235 E10.93539
G1 X85.316 Y112.94 E10.94521
G1 X85.176 Y112.633 E10.95531
G1 X85.089 Y112.429 E10.96195
G1 X84.942 Y112.054 E10.974
G1 X84.852 Y111.804 E10.98196
G1 X84.687 Y111.284 E10.99829
G1 X84.605 Y110.985 E11.00757
G1 X84.522 Y110.649 E11.01793
G1 X84.477 Y110.446 E11.02415
G1 X84.399 Y110.036 E11.03664
G1 X84.356 Y109.767 E11.0448
G1 X84.3 Y109.327 E11.05808
G1 X84.275 Y109.065 E11.06596
G1 X84.247 Y108.622 E11.07924
G1 X84.239 Y108.37 E11.08679
G1 X84.246 Y107.758 E11.10511
G1 X84.258 Y107.543 E11.11156
G1 X84.339 Y106.799 E11.13396
G1 X84.5 Y106.067 E11.15639
G1 X84.573 Y105.803 E11.16459
G1 X84.811 Y105.094 E11.18698
G1 X85.045 Y104.566 E11.20427
G1 X85.135 Y104.384 E11.21035
G1 X85.502 Y103.732 E11.23274
G1 X85.755 Y103.362 E11.24616
G1 X85.906 Y103.155 E11.25383
G1 X86.378 Y102.575 E11.27621
G1 X86.714 Y102.23 E11.29063
G1 X86.863 Y102.087 E11.29681
G1 X87.43 Y101.598 E11.31922
G0 F9000 X87.967 Y101.701
G1 F1200 X88.134 Y101.586 E11.32529
G1 X89.028 Y101.068 E11.35622
G1 X89.214 Y100.979 E11.3624
G1 X89.886 Y100.702 E11.38415
G1 X90.359 Y100.557 E11.39896
G1 X90.621 Y100.487 E11.40708
G1 X91.332 Y100.338 E11.42883
G1 X91.958 Y100.273 E11.44767
G1 X92.227 Y100.258 E11.45573
G1 X92.953 Y100.258 E11.47746
G1 X93.632 Y100.33 E11.4979
G1 X93.902 Y100.373 E11.50609
G1 X94.612 Y100.527 E11.52783
G1 X95.078 Y100.673 E11.54245
G1 X95.283 Y100.746 E11.54896
G1 X95.953 Y101.027 E11.57071
G1 X96.415 Y101.275 E11.58641
G1 X96.636 Y101.405 E11.59408
G1 X97.241 Y101.807 E11.61583
G1 X97.465 Y101.985 E11.62439
G1 X97.958 Y101.624 E11.64268
G1 X98.587 Y101.261 E11.66442
G1 X99.253 Y100.97 E11.68618
G1 X99.946 Y100.754 E11.70791
G1 X100.659 Y100.615 E11.72965
G1 X101.562 Y100.553 E11.75675
G1 X125.984 Y100.553 E12.4878
G1 X126.709 Y100.593 E12.50953
G1 X127.426 Y100.712 E12.53129
G1 X128.125 Y100.91 E12.55304
G1 X128.798 Y101.183 E12.57478
G1 X129.437 Y101.528 E12.59651
G1 X130.034 Y101.942 E12.61826
G1 X130.582 Y102.418 E12.63999
G1 X131.075 Y102.952 E12.66174
