;FLAVOR:Marlin
;TIME:3514
;Filament used: 1.873m
;Layer height: 0.2
;MINX:79.543
;MINY:93.276
;MINZ:0.2
;MAXX:134.217
;MAXY:126.724
;MAXZ:27.6
;Generated with Cura_SteamEngine 4.10.0
M140 S70
M105
M190 S70
M104 S215
M105
M109 S215
M82 ;absolute extrusion mode
; Ender 3 Custom Start G-code
G92 E0 ; Reset Extruder
G28 ; Home all axes
G1 Z2.0 F3000 ; Move Z Axis up little to prevent scratching of Heat Bed
G1 X0.1 Y20 Z0.3 F5000.0 ; Move to start position
G1 X0.1 Y200.0 Z0.3 F1500.0 E15 ; Draw the first line
G1 X0.4 Y200.0 Z0.3 F5000.0 ; Move to side a little
G1 X0.4 Y20 Z0.3 F1500.0 E30 ; Draw the second line
G92 E0 ; Reset Extruder
G1 Z2.0 F3000 ; Move Z Axis up little to prevent scratching of Heat Bed
G1 X5 Y20 Z0.3 F5000.0 ; Move over to prevent blob squish
G92 E0
G92 E0
G1 F1500 E-6.5
;LAYER_COUNT:139
;LAYER:0
M107
G1 F300 Z0.4
G0 F9000 X82.782 Y95.471 Z0.4
;TYPE:SKIRT
G1 F300 Z0.2
G1 F1500 E0
G1 F1200 X83.479 Y94.939 E0.02632
G1 X83.724 Y94.773 E0.0352
G1 X84.399 Y94.363 E0.05891
G1 X85.169 Y94.001 E0.08445
G1 X85.433 Y93.894 E0.093
G1 X86.179 Y93.635 E0.1167
G1 X86.883 Y93.465 E0.13844
G1 X87.09 Y93.425 E0.14477
G1 X87.872 Y93.314 E0.16848
G1 X88.474 Y93.284 E0.18657
G1 X88.718 Y93.281 E0.1939
G1 X89.507 Y93.311 E0.2176
G1 X90.18 Y93.401 E0.23798
G1 X90.433 Y93.446 E0.2457
G1 X91.202 Y93.623 E0.26938
G1 X91.928 Y93.869 E0.29239
G1 X92.174 Y93.966 E0.30033
G1 X92.893 Y94.292 E0.32403
G1 X93.409 Y94.584 E0.34182
G1 X93.584 Y94.692 E0.348
G1 X94.235 Y95.14 E0.37172
G1 X94.884 Y95.698 E0.39741
G1 X95.099 Y95.904 E0.40635
G1 X95.641 Y96.478 E0.43004
G1 X96.096 Y97.068 E0.45241
G1 X98.078 Y97.069 E0.5119
G1 X98.357 Y96.622 E0.52772
G1 X98.84 Y95.997 E0.55143
G1 X99.384 Y95.425 E0.57513
G1 X99.983 Y94.91 E0.59884
G1 X100.631 Y94.459 E0.62254
G1 X101.321 Y94.075 E0.64624
G1 X102.047 Y93.763 E0.66996
G1 X102.8 Y93.526 E0.69366
G1 X103.573 Y93.367 E0.71734
G1 X104.359 Y93.286 E0.74106
G1 X104.76 Y93.276 E0.7531
G1 X108.291 Y93.276 E0.85909
G1 X109.08 Y93.316 E0.88281
G1 X109.86 Y93.435 E0.90649
G1 X110.625 Y93.633 E0.93021
G1 X111.365 Y93.907 E0.9539
G1 X112.074 Y94.255 E0.97761
G1 X112.745 Y94.673 E1.00134
G1 X113.369 Y95.156 E1.02502
G1 X113.698 Y95.468 E1.03863
G1 X113.841 Y95.473 E1.04293
G1 X116.679 Y95.497 E1.12812
G1 X117.478 Y95.459 E1.15213
G1 X117.514 Y95.422 E1.15368
G1 X118.113 Y94.908 E1.17737
G1 X118.761 Y94.457 E1.20107
G1 X119.451 Y94.073 E1.22478
G1 X120.177 Y93.762 E1.24848
G1 X120.93 Y93.525 E1.27218
G1 X121.704 Y93.366 E1.2959
G1 X122.49 Y93.286 E1.31961
G1 X122.887 Y93.276 E1.33154
G1 X126.415 Y93.276 E1.43744
G1 X127.204 Y93.316 E1.46115
G1 X127.984 Y93.435 E1.48483
G1 X128.749 Y93.633 E1.50855
G1 X129.489 Y93.907 E1.53224
G1 X130.198 Y94.255 E1.55595
G1 X130.869 Y94.673 E1.57968
G1 X131.493 Y95.156 E1.60336
G1 X132.066 Y95.699 E1.62706
G1 X132.581 Y96.298 E1.65077
G1 X133.032 Y96.946 E1.67447
G1 X133.416 Y97.637 E1.6982
G1 X133.728 Y98.362 E1.72189
G1 X133.965 Y99.115 E1.74559
G1 X134.124 Y99.889 E1.76931
G1 X134.205 Y100.674 E1.793
G1 X134.215 Y101.075 E1.80504
G1 X134.217 Y115.675 E2.24329
G1 X134.177 Y116.464 E2.267
G1 X134.058 Y117.244 E2.29069
G1 X133.86 Y118.009 E2.31441
G1 X133.526 Y118.885 E2.34255
G1 X133.346 Y119.281 E2.35561
G1 X132.994 Y120.03 E2.38045
G1 X132.743 Y120.583 E2.39868
G1 X132.626 Y120.831 E2.40691
G1 X131.848 Y122.396 E2.45937
G1 X131.461 Y123.085 E2.48309
G1 X131.006 Y123.73 E2.50679
G1 X130.489 Y124.327 E2.53049
G1 X129.914 Y124.868 E2.55419
G1 X129.287 Y125.348 E2.57789
G1 X128.614 Y125.763 E2.60163
G1 X127.904 Y126.107 E2.62531
G1 X127.162 Y126.378 E2.64902
G1 X126.396 Y126.572 E2.67274
G1 X125.615 Y126.688 E2.69644
G1 X124.863 Y126.724 E2.71904
G1 X124.277 Y126.724 E2.73663
G1 X123.945 Y126.707 E2.74661
G1 X123.879 Y126.714 E2.7486
G1 X123.477 Y126.724 E2.76067
G1 X120.587 Y126.724 E2.84742
G1 X119.798 Y126.684 E2.87114
G1 X119.018 Y126.565 E2.89482
G1 X118.253 Y126.367 E2.91854
G1 X117.513 Y126.093 E2.94223
G1 X116.804 Y125.745 E2.96593
G1 X116.133 Y125.327 E2.98966
G1 X115.584 Y124.902 E3.0105
G1 X115.366 Y125.09 E3.01915
G1 X114.718 Y125.541 E3.04284
G1 X114.027 Y125.925 E3.06657
G1 X113.302 Y126.237 E3.09027
G1 X112.549 Y126.474 E3.11396
G1 X111.775 Y126.633 E3.13768
G1 X110.99 Y126.714 E3.16137
G1 X110.588 Y126.724 E3.17344
G1 X107.689 Y126.724 E3.26046
G1 X107.361 Y126.707 E3.27032
G1 X107.308 Y126.713 E3.27192
G1 X106.889 Y126.724 E3.2845
G1 X106.315 Y126.724 E3.30173
G1 X105.526 Y126.684 E3.32544
G1 X104.746 Y126.565 E3.34913
G1 X103.981 Y126.367 E3.37285
G1 X103.241 Y126.093 E3.39654
G1 X102.532 Y125.745 E3.42024
G1 X101.861 Y125.327 E3.44397
G1 X101.237 Y124.844 E3.46766
G1 X100.664 Y124.301 E3.49136
G1 X100.149 Y123.702 E3.51507
G1 X99.698 Y123.054 E3.53877
G1 X99.338 Y122.412 E3.56086
G1 X98.936 Y121.608 E3.58784
G1 X98.519 Y120.763 E3.61613
G1 X98.401 Y120.514 E3.6244
G1 X97.782 Y119.158 E3.66914
G1 X97.671 Y118.915 E3.67716
G1 X97.446 Y118.39 E3.69431
G1 X97.209 Y117.637 E3.718
G1 X97.05 Y116.863 E3.74172
G1 X96.969 Y116.078 E3.76541
G1 X96.959 Y115.675 E3.77751
G1 X96.959 Y115.183 E3.79228
G1 X92.256 Y115.184 E3.93345
G1 X91.467 Y115.144 E3.95717
G1 X90.686 Y115.025 E3.98088
G1 X89.787 Y114.784 E4.00882
G1 X89.505 Y114.69 E4.01774
G1 X88.896 Y114.458 E4.0373
G1 X87.958 Y114.162 E4.06683
G1 X87.217 Y113.887 E4.09055
G1 X86.509 Y113.539 E4.11423
G1 X85.765 Y113.051 E4.14094
G1 X85.758 Y113.061 E4.14131
G1 X84.609 Y112.249 E4.18354
G1 X83.988 Y111.761 E4.20725
G1 X83.356 Y111.147 E4.2337
G1 X83.005 Y110.787 E4.24879
G1 X82.782 Y110.543 E4.25871
G1 X82.552 Y110.286 E4.26907
G1 X82.098 Y109.803 E4.28896
G1 X81.587 Y109.201 E4.31267
G1 X81.14 Y108.55 E4.33637
G1 X80.76 Y107.857 E4.3601
G1 X80.453 Y107.13 E4.38378
G1 X80.164 Y106.135 E4.41489
G1 X79.724 Y104.133 E4.47641
G1 X79.594 Y103.354 E4.50012
G1 X79.543 Y102.566 E4.52382
G1 X79.572 Y101.777 E4.54752
G1 X79.681 Y100.995 E4.57122
G1 X79.815 Y100.414 E4.58912
G1 X79.95 Y99.917 E4.60458
G1 X80.195 Y99.167 E4.62826
G1 X80.357 Y98.778 E4.64091
G1 X80.446 Y98.579 E4.64746
G1 X80.804 Y97.875 E4.67116
G1 X81.081 Y97.429 E4.68692
G1 X81.226 Y97.212 E4.69476
G1 X81.697 Y96.579 E4.71844
G1 X82.065 Y96.164 E4.73509
G1 X82.208 Y96.014 E4.74131
G1 X82.782 Y95.471 E4.76503
G0 F9000 X83.057 Y95.762
G1 F1200 X83.703 Y95.27 E4.78941
G1 X83.948 Y95.104 E4.79829
G1 X84.606 Y94.706 E4.82137
G1 X85.319 Y94.372 E4.84501
G1 X85.583 Y94.265 E4.85356
G1 X86.31 Y94.013 E4.87665
G1 X86.959 Y93.857 E4.89669
G1 X87.166 Y93.817 E4.90302
G1 X87.928 Y93.711 E4.92611
G1 X88.479 Y93.684 E4.94267
G1 X88.723 Y93.681 E4.95
G1 X89.492 Y93.711 E4.9731
G1 X90.11 Y93.794 E4.99181
G1 X90.363 Y93.839 E4.99953
G1 X91.112 Y94.013 E5.02261
G1 X91.781 Y94.241 E5.04382
G1 X92.027 Y94.338 E5.05176
G1 X92.727 Y94.657 E5.07485
G1 X93.199 Y94.925 E5.09115
G1 X93.374 Y95.033 E5.09732
G1 X94.007 Y95.47 E5.12041
G1 X94.608 Y95.987 E5.1442
G1 X94.823 Y96.193 E5.15314
G1 X95.35 Y96.753 E5.17623
G1 X95.78 Y97.313 E5.19742
G1 X95.888 Y97.468 E5.20309
G1 X98.303 Y97.469 E5.27558
G1 X98.338 Y97.399 E5.27793
G1 X98.754 Y96.752 E5.30102
G1 X99.236 Y96.152 E5.32412
G1 X99.777 Y95.606 E5.34719
G1 X100.371 Y95.118 E5.37027
G1 X101.014 Y94.694 E5.39339
G1 X101.696 Y94.34 E5.41645
G1 X102.412 Y94.058 E5.43955
G1 X103.153 Y93.853 E5.46263
G1 X103.912 Y93.725 E5.48574
G1 X104.76 Y93.676 E5.51123
G1 X108.291 Y93.676 E5.61723
G1 X109.059 Y93.716 E5.64031
G1 X109.819 Y93.835 E5.6634
G1 X110.562 Y94.033 E5.68648
G1 X111.281 Y94.307 E5.70958
G1 X111.967 Y94.654 E5.73265
G1 X112.614 Y95.07 E5.75574
G1 X113.214 Y95.551 E5.77883
G1 X113.526 Y95.859 E5.79199
G1 X113.823 Y95.872 E5.80091
G1 X114.219 Y95.877 E5.8128
G1 X116.703 Y95.896 E5.88736
G1 X117.661 Y95.851 E5.91615
G1 X117.906 Y95.603 E5.92662
G1 X118.501 Y95.116 E5.9497
G1 X119.144 Y94.693 E5.9728
G1 X119.826 Y94.339 E5.99586
G1 X120.542 Y94.057 E6.01896
G1 X121.284 Y93.852 E6.04207
G1 X122.042 Y93.724 E6.06515
G1 X122.887 Y93.676 E6.09055
G1 X126.415 Y93.676 E6.19645
G1 X127.183 Y93.716 E6.21954
G1 X127.943 Y93.835 E6.24263
G1 X128.686 Y94.033 E6.26571
G1 X129.405 Y94.307 E6.28881
G1 X130.091 Y94.654 E6.31188
G1 X130.738 Y95.07 E6.33497
G1 X131.338 Y95.551 E6.35806
G1 X131.885 Y96.092 E6.38115
G1 X132.373 Y96.687 E6.40425
G1 X132.796 Y97.329 E6.42733
G1 X133.151 Y98.012 E6.45043
G1 X133.432 Y98.727 E6.47349
G1 X133.638 Y99.469 E6.49661
G1 X133.766 Y100.227 E6.51968
G1 X133.815 Y101.075 E6.54518
G1 X133.817 Y115.675 E6.98343
G1 X133.777 Y116.443 E7.00652
G1 X133.658 Y117.203 E7.02961
G1 X133.46 Y117.946 E7.05269
G1 X133.162 Y118.72 E7.07758
G1 X132.984 Y119.111 E7.09048
G1 X132.65 Y119.821 E7.11403
G1 X132.379 Y120.418 E7.13371
G1 X132.267 Y120.653 E7.14153
G1 X131.489 Y122.218 E7.19399
G1 X131.112 Y122.888 E7.21707
G1 X130.666 Y123.515 E7.24016
G1 X130.158 Y124.093 E7.26326
G1 X129.593 Y124.615 E7.28635
G1 X128.977 Y125.075 E7.30943
G1 X128.316 Y125.469 E7.33253
G1 X127.618 Y125.792 E7.35561
G1 X126.891 Y126.041 E7.37868
G1 X126.141 Y126.213 E7.40178
G1 X125.378 Y126.306 E7.42485
G1 X124.863 Y126.324 E7.44032
G1 X124.277 Y126.324 E7.45791
G1 X123.856 Y126.302 E7.47056
G1 X123.477 Y126.324 E7.48196
G1 X120.587 Y126.324 E7.56871
G1 X119.819 Y126.284 E7.59179
G1 X119.059 Y126.165 E7.61488
G1 X118.316 Y125.967 E7.63797
G1 X117.597 Y125.693 E7.66106
G1 X116.911 Y125.346 E7.68414
G1 X116.264 Y124.93 E7.70723
G1 X115.664 Y124.449 E7.73031
G1 X115.572 Y124.394 E7.73353
G1 X114.977 Y124.882 E7.75663
G1 X114.335 Y125.305 E7.77971
G1 X113.652 Y125.66 E7.80281
G1 X112.937 Y125.941 E7.82587
G1 X112.195 Y126.147 E7.84899
G1 X111.437 Y126.275 E7.87206
G1 X110.588 Y126.324 E7.89759
G1 X107.689 Y126.324 E7.98461
G1 X107.264 Y126.302 E7.99738
G1 X106.889 Y126.324 E8.00866
G1 X106.315 Y126.324 E8.02589
G1 X105.547 Y126.284 E8.04897
G1 X104.787 Y126.165 E8.07207
G1 X104.044 Y125.967 E8.09515
G1 X103.325 Y125.693 E8.11824
G1 X102.639 Y125.346 E8.14132
G1 X101.992 Y124.93 E8.16441
G1 X101.392 Y124.449 E8.18749
G1 X100.845 Y123.908 E8.21059
G1 X100.357 Y123.313 E8.23368
G1 X99.934 Y122.671 E8.25676
G1 X99.696 Y122.233 E8.27173
G1 X99.295 Y121.43 E8.29867
G1 X98.88 Y120.59 E8.32679
G1 X98.765 Y120.348 E8.33483
G1 X98.088 Y118.865 E8.38377
G1 X98.023 Y118.74 E8.388
G1 X97.742 Y118.025 E8.41106
G1 X97.536 Y117.283 E8.43417
G1 X97.408 Y116.525 E8.45725
G1 X97.359 Y115.675 E8.48281
G1 X97.359 Y114.783 E8.50958
G1 X92.256 Y114.784 E8.66276
G1 X91.487 Y114.744 E8.68587
G1 X90.728 Y114.625 E8.70894
G1 X89.914 Y114.404 E8.73425
G1 X89.632 Y114.31 E8.74318
G1 X89.075 Y114.099 E8.76106
G1 X89.041 Y114.084 E8.76217
G1 X88.078 Y113.781 E8.79248
G1 X87.357 Y113.512 E8.81558
G1 X86.668 Y113.169 E8.83868
G1 X85.995 Y112.726 E8.86286
G1 X85.989 Y112.734 E8.86316
G1 X84.84 Y111.922 E8.9054
G1 X84.236 Y111.446 E8.92848
G1 X83.633 Y110.859 E8.95374
G1 X83.301 Y110.517 E8.96805
G1 X83.078 Y110.273 E8.97797
G1 X82.813 Y109.979 E8.98985
G1 X82.39 Y109.529 E9.00839
G1 X81.893 Y108.942 E9.03148
G1 X81.459 Y108.306 E9.05459
G1 X81.094 Y107.629 E9.07768
G1 X80.802 Y106.918 E9.10075
G1 X80.554 Y106.049 E9.12788
G1 X80.114 Y104.047 E9.1894
G1 X79.989 Y103.289 E9.21247
G1 X79.942 Y102.521 E9.23556
G1 X79.976 Y101.752 E9.25867
G1 X80.089 Y100.992 E9.28173
G1 X80.201 Y100.519 E9.29632
G1 X80.336 Y100.022 E9.31178
G1 X80.722 Y98.941 E9.34624
G1 X80.811 Y98.742 E9.35278
G1 X81.161 Y98.057 E9.37587
G1 X81.413 Y97.652 E9.39019
G1 X81.558 Y97.435 E9.39802
G1 X82.018 Y96.818 E9.42112
G1 X82.355 Y96.44 E9.43633
G1 X82.498 Y96.29 E9.44255
G1 X83.057 Y95.762 E9.46563
G0 F9000 X83.332 Y96.053
G1 F1200 X83.928 Y95.601 E9.48808
G1 X84.173 Y95.435 E9.49696
G1 X84.813 Y95.049 E9.5194
G1 X85.47 Y94.743 E9.54115
G1 X85.734 Y94.636 E9.54971
G1 X86.441 Y94.392 E9.57216
G1 X87.035 Y94.25 E9.59049
G1 X87.242 Y94.21 E9.59682
G1 X87.983 Y94.108 E9.61927
G1 X88.484 Y94.084 E9.63433
G1 X88.728 Y94.081 E9.64165
G1 X89.475 Y94.111 E9.66409
G1 X90.04 Y94.188 E9.68121
G1 X90.293 Y94.233 E9.68892
G1 X91.021 Y94.403 E9.71136
G1 X91.635 Y94.613 E9.73084
G1 X91.881 Y94.71 E9.73878
G1 X92.561 Y95.021 E9.76122
G1 X92.989 Y95.265 E9.77601
G1 X93.164 Y95.373 E9.78218
G1 X93.779 Y95.799 E9.80464
G1 X94.331 Y96.276 E9.82654
G1 X94.546 Y96.482 E9.83548
G1 X95.058 Y97.027 E9.85792
G1 X95.452 Y97.542 E9.87739
G1 X95.6 Y97.755 E9.88517
G1 X95.67 Y97.868 E9.88916
G1 X98.549 Y97.869 E9.97558
G1 X98.737 Y97.509 E9.98778
G1 X99.152 Y96.887 E10.01022
G1 X99.631 Y96.312 E10.03268
G1 X100.169 Y95.792 E10.05514
G1 X100.759 Y95.332 E10.0776
G1 X101.394 Y94.938 E10.10003
G1 X102.069 Y94.614 E10.12251
G1 X102.774 Y94.364 E10.14496
G1 X103.501 Y94.19 E10.1674
G1 X104.243 Y94.095 E10.18985
G1 X104.76 Y94.076 E10.20538
G1 X108.291 Y94.076 E10.31137
G1 X109.038 Y94.116 E10.33383
G1 X109.776 Y94.235 E10.35627
G1 X110.498 Y94.433 E10.37874
G1 X111.194 Y94.706 E10.40118
G1 X111.857 Y95.053 E10.42365
G1 X112.48 Y95.468 E10.44612
G1 X113.054 Y95.947 E10.46856
G1 X113.347 Y96.249 E10.48119
G1 X113.626 Y96.266 E10.48958
G1 X113.803 Y96.272 E10.49489
G1 X114.216 Y96.277 E10.50729
G1 X116.667 Y96.297 E10.58087
G1 X117.829 Y96.244 E10.61578
G1 X118.298 Y95.79 E10.63538
G1 X118.888 Y95.33 E10.65783
G1 X119.524 Y94.937 E10.68028
G1 X120.199 Y94.613 E10.70275
G1 X120.904 Y94.363 E10.7252
G1 X121.632 Y94.19 E10.74766
G1 X122.374 Y94.095 E10.77012
G1 X122.887 Y94.076 E10.78553
G1 X126.415 Y94.076 E10.89143
G1 X127.162 Y94.116 E10.91388
G1 X127.9 Y94.235 E10.93632
G1 X128.622 Y94.433 E10.9588
G1 X129.318 Y94.706 E10.98124
G1 X129.981 Y95.053 E11.0037
G1 X130.604 Y95.468 E11.02617
G1 X131.178 Y95.947 E11.04861
G1 X131.699 Y96.484 E11.07107
G1 X132.158 Y97.074 E11.09351
G1 X132.553 Y97.71 E11.11598
G1 X132.877 Y98.384 E11.13843
G1 X133.127 Y99.089 E11.16088
G1 X133.301 Y99.817 E11.18335
G1 X133.396 Y100.559 E11.20581
G1 X133.415 Y101.075 E11.22131
G1 X133.417 Y115.675 E11.65956
G1 X133.377 Y116.422 E11.68201
G1 X133.258 Y117.161 E11.70448
G1 X133.06 Y117.882 E11.72692
G1 X132.797 Y118.556 E11.74864
G1 X132.622 Y118.941 E11.76134
G1 X132.286 Y119.655 E11.78502
G1 X132.015 Y120.252 E11.8047
G1 X131.909 Y120.475 E11.81212
G1 X131.131 Y122.04 E11.86458
G1 X130.763 Y122.691 E11.88702
G1 X130.327 Y123.299 E11.90948
G1 X129.829 Y123.857 E11.93193
G1 X129.274 Y124.359 E11.9544
G1 X128.669 Y124.799 E11.97685
G1 X128.02 Y125.171 E11.99931
G1 X127.336 Y125.473 E12.02175
G1 X126.623 Y125.699 E12.0442
G1 X125.89 Y125.848 E12.06665
G1 X124.863 Y125.924 E12.09757
G1 X124.277 Y125.924 E12.11516
G1 X123.951 Y125.907 E12.12496
G1 X123.477 Y125.924 E12.13919
G1 X120.587 Y125.924 E12.22594
G1 X119.84 Y125.884 E12.2484
G1 X119.102 Y125.765 E12.27084
G1 X118.38 Y125.567 E12.29331
G1 X117.684 Y125.294 E12.31575
G1 X117.021 Y124.947 E12.33821
G1 X116.398 Y124.532 E12.36068
G1 X115.824 Y124.053 E12.38312
G1 X115.589 Y123.811 E12.39325
G1 X115.18 Y124.208 E12.41036
G1 X114.59 Y124.667 E12.4328
G1 X113.954 Y125.062 E12.45527
G1 X113.28 Y125.386 E12.47772
G1 X112.575 Y125.636 E12.50017
G1 X111.847 Y125.81 E12.52264
G1 X111.105 Y125.905 E12.5451
G1 X110.588 Y125.924 E12.56062
G1 X107.689 Y125.924 E12.64764
G1 X107.359 Y125.906 E12.65757
G1 X106.889 Y125.924 E12.67168
G1 X106.315 Y125.924 E12.68891
G1 X105.568 Y125.884 E12.71137
G1 X104.83 Y125.765 E12.73381
G1 X104.108 Y125.567 E12.75628
G1 X103.412 Y125.294 E12.77872
G1 X102.749 Y124.947 E12.80118
G1 X102.126 Y124.532 E12.82365
G1 X101.552 Y124.053 E12.8461
G1 X101.031 Y123.516 E12.86855
G1 X100.572 Y122.926 E12.89099
G1 X100.054 Y122.054 E12.92144
G1 X99.653 Y121.253 E12.94833
G1 X99.241 Y120.418 E12.97628
G1 X99.129 Y120.182 E12.98412
G1 X98.4 Y118.582 E13.0369
