;FLAVOR:Marlin
;TIME:1155
;Filament used: 0.830374m
;Layer height: 0.2
;MINX:85.203
;MINY:88.856
;MINZ:0.2
;MAXX:134.797
;MAXY:131.143
;MAXZ:10.8
;Generated with Cura_SteamEngine 4.10.0
M140 S70
M105
M190 S70
M104 S210
M105
M109 S210
M82 ;absolute extrusion mode
; Ender 3 Custom Start G-code
G92 E0 ; Reset Extruder
G28 ; Home all axes
G1 Z2.0 F3000 ; Move Z Axis up little to prevent scratching of Heat Bed
G1 X0.1 Y20 Z0.3 F5000.0 ; Move to start position
G1 X0.1 Y200.0 Z0.3 F1500.0 E15 ; Draw the first line
G1 X0.4 Y200.0 Z0.3 F5000.0 ; Move to side a little
G1 X0.4 Y20 Z0.3 F1500.0 E30 ; Draw the second line
G92 E0 ; Reset Extruder
G1 Z2.0 F3000 ; Move Z Axis up little to prevent scratching of Heat Bed
G1 X5 Y20 Z0.3 F5000.0 ; Move over to prevent blob squish
G92 E0
G92 E0
G1 F1500 E-6.5
;LAYER_COUNT:53
;LAYER:0
M107
G1 F300 Z0.4
G0 F9000 X92.324 Y92.609 Z0.4
;TYPE:SKIRT
G1 F300 Z0.2
G1 F1500 E0
G1 F1200 X92.625 Y92.308 E0.01274
G1 X93.272 Y91.696 E0.0394
G1 X93.561 Y91.436 E0.05104
G1 X94.219 Y90.873 E0.07696
G1 X94.844 Y90.391 E0.10059
G1 X95.515 Y89.974 E0.12424
G1 X96.225 Y89.628 E0.14788
G1 X96.965 Y89.354 E0.1715
G1 X97.73 Y89.158 E0.19514
G1 X98.511 Y89.039 E0.21879
G1 X99.29 Y89 E0.24213
G1 X103.508 Y89 E0.3684
G1 X103.776 Y88.956 E0.37653
G1 X104.011 Y88.925 E0.38362
G1 X105.029 Y88.858 E0.41416
G1 X114.89 Y88.856 E0.70934
G1 X115.276 Y88.865 E0.7209
G1 X115.499 Y88.876 E0.72758
G1 X116.285 Y88.955 E0.75123
G1 X116.505 Y89 E0.75795
G1 X120.71 Y89 E0.88382
G1 X121.499 Y89.04 E0.90747
G1 X122.279 Y89.159 E0.93109
G1 X123.044 Y89.357 E0.95474
G1 X123.784 Y89.631 E0.97837
G1 X124.493 Y89.979 E1.00201
G1 X125.164 Y90.397 E1.02567
G1 X125.785 Y90.877 E1.04917
G1 X126.455 Y91.451 E1.07558
G1 X126.744 Y91.712 E1.08723
G1 X127.39 Y92.324 E1.11387
G1 X127.69 Y92.623 E1.12655
G1 X128.297 Y93.264 E1.15298
G1 X128.557 Y93.553 E1.16461
G1 X129.142 Y94.236 E1.19153
G1 X129.412 Y94.569 E1.20436
G1 X129.947 Y95.268 E1.23071
G1 X130.181 Y95.59 E1.24263
G1 X130.689 Y96.329 E1.26947
G1 X130.918 Y96.684 E1.28212
G1 X131.382 Y97.444 E1.30877
G1 X131.58 Y97.787 E1.32063
G1 X132.005 Y98.57 E1.3473
G1 X132.193 Y98.94 E1.35972
G1 X132.576 Y99.745 E1.38641
G1 X132.736 Y100.104 E1.39817
G1 X133.077 Y100.925 E1.42478
G1 X133.23 Y101.322 E1.43752
G1 X133.526 Y102.161 E1.46415
G1 X133.648 Y102.538 E1.47601
G1 X133.901 Y103.391 E1.50264
G1 X134.009 Y103.796 E1.51519
G1 X134.216 Y104.662 E1.54184
G1 X134.3 Y105.055 E1.55387
G1 X134.462 Y105.93 E1.58051
G1 X134.527 Y106.342 E1.593
G1 X134.642 Y107.224 E1.61962
G1 X134.682 Y107.613 E1.63133
G1 X134.752 Y108.492 E1.65772
G1 X134.774 Y108.911 E1.67028
G1 X134.797 Y109.808 E1.69714
G1 X134.797 Y110.21 E1.70918
G1 X134.774 Y111.1 E1.73583
G1 X134.752 Y111.52 E1.74842
G1 X134.681 Y112.407 E1.77505
G1 X134.639 Y112.803 E1.78697
G1 X134.524 Y113.677 E1.81336
G1 X134.462 Y114.072 E1.82533
G1 X134.299 Y114.957 E1.85227
G1 X134.209 Y115.377 E1.86513
G1 X134.002 Y116.233 E1.89149
G1 X133.898 Y116.623 E1.90357
G1 X133.642 Y117.484 E1.93046
G1 X133.522 Y117.852 E1.94204
G1 X133.229 Y118.684 E1.96845
G1 X133.073 Y119.09 E1.98147
G1 X132.728 Y119.919 E2.00835
G1 X132.566 Y120.282 E2.02025
G1 X132.186 Y121.078 E2.04665
G1 X132.002 Y121.44 E2.05881
G1 X131.573 Y122.23 E2.08572
G1 X131.372 Y122.578 E2.09774
G1 X130.912 Y123.33 E2.12413
G1 X130.68 Y123.686 E2.13685
G1 X130.17 Y124.426 E2.16376
G1 X129.94 Y124.743 E2.17548
G1 X129.4 Y125.448 E2.20206
G1 X129.127 Y125.785 E2.21504
G1 X128.552 Y126.455 E2.24147
G1 X128.294 Y126.741 E2.253
G1 X127.676 Y127.393 E2.27989
G1 X127.375 Y127.694 E2.29264
G1 X126.728 Y128.306 E2.3193
G1 X126.442 Y128.563 E2.33081
G1 X125.787 Y129.124 E2.35662
G1 X125.162 Y129.607 E2.38027
G1 X124.491 Y130.024 E2.40391
G1 X123.782 Y130.371 E2.42754
G1 X123.041 Y130.644 E2.45118
G1 X122.277 Y130.842 E2.47481
G1 X121.496 Y130.961 E2.49845
G1 X120.713 Y131 E2.52192
G1 X116.495 Y131 E2.64818
G1 X116.25 Y131.043 E2.65563
G1 X115.466 Y131.129 E2.67924
G1 X115.005 Y131.143 E2.69305
G1 X104.956 Y131.142 E2.99385
G1 X104.168 Y131.102 E3.01747
G1 X103.559 Y131 E3.03596
G1 X99.287 Y131 E3.16383
G1 X98.498 Y130.96 E3.18748
G1 X97.718 Y130.841 E3.2111
G1 X96.953 Y130.643 E3.23476
G1 X96.213 Y130.369 E3.25838
G1 X95.504 Y130.021 E3.28202
G1 X94.833 Y129.603 E3.30568
G1 X94.209 Y129.121 E3.32929
G1 X93.542 Y128.549 E3.35559
G1 X93.255 Y128.29 E3.36716
G1 X92.608 Y127.677 E3.39384
G1 X92.306 Y127.375 E3.40662
G1 X91.695 Y126.729 E3.43324
G1 X91.438 Y126.443 E3.44475
G1 X90.859 Y125.767 E3.47139
G1 X90.589 Y125.433 E3.48425
G1 X90.048 Y124.726 E3.5109
G1 X89.815 Y124.405 E3.52277
G1 X89.311 Y123.672 E3.5494
G1 X89.079 Y123.315 E3.56215
G1 X88.616 Y122.556 E3.58876
G1 X88.42 Y122.215 E3.60053
G1 X87.995 Y121.432 E3.6272
G1 X87.808 Y121.066 E3.6395
G1 X87.425 Y120.262 E3.66616
G1 X87.262 Y119.896 E3.67816
G1 X86.921 Y119.074 E3.70479
G1 X86.772 Y118.684 E3.71729
G1 X86.478 Y117.852 E3.74371
G1 X86.353 Y117.468 E3.75579
G1 X86.098 Y116.607 E3.78267
G1 X85.99 Y116.201 E3.79525
G1 X85.784 Y115.337 E3.82184
G1 X85.703 Y114.956 E3.8335
G1 X85.54 Y114.081 E3.86014
G1 X85.474 Y113.668 E3.87266
G1 X85.359 Y112.792 E3.89911
G1 X85.317 Y112.385 E3.91136
G1 X85.247 Y111.49 E3.93823
G1 X85.226 Y111.084 E3.9504
G1 X85.203 Y110.196 E3.97699
G1 X85.203 Y109.792 E3.98908
G1 X85.226 Y108.902 E4.01573
G1 X85.248 Y108.485 E4.02823
G1 X85.318 Y107.606 E4.05463
G1 X85.36 Y107.208 E4.06661
G1 X85.477 Y106.318 E4.09348
G1 X85.541 Y105.912 E4.10578
G1 X85.702 Y105.044 E4.13221
G1 X85.787 Y104.643 E4.14448
G1 X85.997 Y103.77 E4.17136
G1 X86.105 Y103.368 E4.18382
G1 X86.359 Y102.515 E4.21046
G1 X86.478 Y102.149 E4.22198
G1 X86.774 Y101.309 E4.24864
G1 X86.932 Y100.899 E4.26179
G1 X87.271 Y100.086 E4.28816
G1 X87.43 Y99.729 E4.29986
G1 X87.817 Y98.918 E4.32676
G1 X88.002 Y98.556 E4.33893
G1 X88.427 Y97.773 E4.36559
G1 X88.628 Y97.424 E4.37765
G1 X89.088 Y96.672 E4.40404
G1 X89.322 Y96.312 E4.41689
G1 X89.832 Y95.573 E4.44377
G1 X90.061 Y95.259 E4.4554
G1 X90.602 Y94.553 E4.48203
G1 X90.87 Y94.222 E4.49477
G1 X91.444 Y93.552 E4.52118
G1 X91.706 Y93.261 E4.53291
G1 X92.324 Y92.609 E4.5598
G0 F9000 X92.614 Y92.884
G1 F1200 X92.9 Y92.599 E4.57188
G1 X93.547 Y91.987 E4.59854
G1 X93.821 Y91.74 E4.60958
G1 X94.479 Y91.177 E4.63551
G1 X95.089 Y90.708 E4.65854
G1 X95.744 Y90.305 E4.68156
G1 X96.437 Y89.972 E4.70458
G1 X97.161 Y89.713 E4.72759
G1 X97.908 Y89.53 E4.75062
G1 X98.67 Y89.426 E4.77364
G1 X99.29 Y89.4 E4.79221
G1 X103.532 Y89.4 E4.91919
G1 X103.828 Y89.353 E4.92816
G1 X104.063 Y89.322 E4.93526
G1 X105.029 Y89.258 E4.96424
G1 X114.89 Y89.256 E5.25942
G1 X115.257 Y89.265 E5.27041
G1 X115.48 Y89.276 E5.27709
G1 X116.245 Y89.354 E5.30011
G1 X116.466 Y89.4 E5.30687
G1 X120.71 Y89.4 E5.43391
G1 X121.478 Y89.44 E5.45693
G1 X122.238 Y89.559 E5.47996
G1 X122.981 Y89.757 E5.50297
G1 X123.7 Y90.031 E5.52601
G1 X124.386 Y90.378 E5.54902
G1 X125.033 Y90.794 E5.57204
G1 X125.524 Y91.18 E5.59074
G1 X126.194 Y91.754 E5.61715
G1 X126.469 Y92.002 E5.62823
G1 X127.115 Y92.614 E5.65487
G1 X127.399 Y92.898 E5.66689
G1 X128.006 Y93.539 E5.69332
G1 X128.253 Y93.813 E5.70436
G1 X128.838 Y94.496 E5.73128
G1 X129.094 Y94.812 E5.74345
G1 X129.629 Y95.511 E5.7698
G1 X129.851 Y95.817 E5.78112
G1 X130.359 Y96.556 E5.80796
G1 X130.577 Y96.892 E5.81995
G1 X131.041 Y97.652 E5.84661
G1 X131.229 Y97.978 E5.85787
G1 X131.654 Y98.761 E5.88454
G1 X131.832 Y99.112 E5.89632
G1 X132.215 Y99.917 E5.92301
G1 X132.367 Y100.258 E5.93418
G1 X132.708 Y101.079 E5.9608
G1 X132.852 Y101.455 E5.97285
G1 X133.148 Y102.294 E5.99948
G1 X133.265 Y102.652 E6.01075
G1 X133.518 Y103.505 E6.03739
G1 X133.62 Y103.889 E6.04928
G1 X133.827 Y104.755 E6.07593
G1 X133.906 Y105.128 E6.08735
G1 X134.068 Y106.003 E6.11398
G1 X134.13 Y106.393 E6.1258
G1 X134.245 Y107.275 E6.15243
G1 X134.284 Y107.645 E6.16357
G1 X134.354 Y108.524 E6.18996
G1 X134.375 Y108.921 E6.20186
G1 X134.398 Y109.818 E6.22872
G1 X134.398 Y110.199 E6.24013
G1 X134.375 Y111.089 E6.26678
G1 X134.353 Y111.488 E6.27874
G1 X134.282 Y112.375 E6.30538
G1 X134.243 Y112.75 E6.31666
G1 X134.128 Y113.624 E6.34305
G1 X134.069 Y113.999 E6.35441
G1 X133.906 Y114.884 E6.38135
G1 X133.821 Y115.283 E6.39356
G1 X133.614 Y116.139 E6.41992
G1 X133.514 Y116.509 E6.4314
G1 X133.258 Y117.37 E6.45829
G1 X133.145 Y117.719 E6.46927
G1 X132.852 Y118.551 E6.49567
G1 X132.704 Y118.936 E6.50802
G1 X132.359 Y119.765 E6.5349
G1 X132.205 Y120.11 E6.54621
G1 X131.825 Y120.906 E6.57261
G1 X131.65 Y121.249 E6.58414
G1 X131.221 Y122.039 E6.61105
G1 X131.031 Y122.369 E6.62244
G1 X130.571 Y123.121 E6.64883
G1 X130.351 Y123.459 E6.6609
G1 X129.841 Y124.199 E6.68781
G1 X129.623 Y124.5 E6.69893
G1 X129.083 Y125.205 E6.72552
G1 X128.824 Y125.524 E6.73782
G1 X128.249 Y126.194 E6.76424
G1 X128.004 Y126.466 E6.7752
G1 X127.386 Y127.118 E6.80209
G1 X127.1 Y127.403 E6.81418
G1 X126.453 Y128.015 E6.84084
G1 X126.182 Y128.259 E6.85175
G1 X125.527 Y128.82 E6.87757
G1 X124.917 Y129.29 E6.90062
G1 X124.263 Y129.693 E6.92362
G1 X123.569 Y130.026 E6.94666
G1 X122.845 Y130.286 E6.96969
G1 X122.098 Y130.469 E6.99271
G1 X121.336 Y130.574 E7.01573
G1 X120.713 Y130.6 E7.0344
G1 X116.455 Y130.6 E7.16186
G1 X116.187 Y130.648 E7.17001
G1 X115.422 Y130.731 E7.19304
G1 X115.005 Y130.743 E7.20553
G1 X104.956 Y130.742 E7.50634
G1 X104.188 Y130.702 E7.52936
G1 X103.583 Y130.6 E7.54772
G1 X99.287 Y130.6 E7.67632
G1 X98.519 Y130.56 E7.69934
G1 X97.759 Y130.441 E7.72237
G1 X97.016 Y130.243 E7.74539
G1 X96.297 Y129.969 E7.76842
G1 X95.611 Y129.622 E7.79143
G1 X94.964 Y129.206 E7.81446
G1 X94.47 Y128.817 E7.83328
G1 X93.803 Y128.245 E7.85958
G1 X93.53 Y128 E7.87056
G1 X92.883 Y127.387 E7.89724
G1 X92.597 Y127.1 E7.90937
G1 X91.986 Y126.454 E7.93599
G1 X91.742 Y126.183 E7.9469
G1 X91.163 Y125.507 E7.97354
G1 X90.906 Y125.19 E7.98576
G1 X90.365 Y124.483 E8.01241
G1 X90.144 Y124.179 E8.02366
G1 X89.64 Y123.446 E8.05029
G1 X89.421 Y123.107 E8.06237
G1 X88.958 Y122.348 E8.08898
G1 X88.771 Y122.024 E8.10018
G1 X88.346 Y121.241 E8.12685
G1 X88.169 Y120.893 E8.13854
G1 X87.786 Y120.089 E8.16519
G1 X87.632 Y119.743 E8.17653
G1 X87.291 Y118.921 E8.20317
G1 X87.149 Y118.551 E8.21503
G1 X86.855 Y117.719 E8.24145
G1 X86.737 Y117.354 E8.25293
G1 X86.482 Y116.493 E8.27981
G1 X86.379 Y116.108 E8.29174
G1 X86.173 Y115.244 E8.31833
G1 X86.096 Y114.883 E8.32938
G1 X85.933 Y114.008 E8.35602
G1 X85.871 Y113.616 E8.3679
G1 X85.756 Y112.74 E8.39435
G1 X85.716 Y112.354 E8.40596
G1 X85.646 Y111.459 E8.43284
G1 X85.625 Y111.074 E8.44438
G1 X85.602 Y110.186 E8.47097
G1 X85.602 Y109.803 E8.48243
G1 X85.625 Y108.913 E8.50908
G1 X85.646 Y108.517 E8.52095
G1 X85.716 Y107.638 E8.54735
G1 X85.756 Y107.26 E8.55873
G1 X85.873 Y106.37 E8.5856
G1 X85.934 Y105.985 E8.59727
G1 X86.095 Y105.117 E8.62369
G1 X86.176 Y104.736 E8.63535
G1 X86.386 Y103.863 E8.66223
G1 X86.489 Y103.482 E8.67405
G1 X86.743 Y102.629 E8.70069
G1 X86.856 Y102.282 E8.71161
G1 X87.152 Y101.442 E8.73827
G1 X87.301 Y101.053 E8.75074
G1 X87.64 Y100.24 E8.77711
G1 X87.791 Y99.901 E8.78822
G1 X88.178 Y99.09 E8.81512
G1 X88.353 Y98.747 E8.82664
G1 X88.778 Y97.964 E8.85331
G1 X88.969 Y97.633 E8.86475
G1 X89.429 Y96.881 E8.89114
G1 X89.652 Y96.539 E8.90336
G1 X90.162 Y95.8 E8.93024
G1 X90.378 Y95.502 E8.94125
G1 X90.919 Y94.796 E8.96788
G1 X91.173 Y94.483 E8.97995
G1 X91.747 Y93.813 E9.00636
G1 X91.996 Y93.536 E9.0175
G1 X92.614 Y92.884 E9.0444
G0 F9000 X92.905 Y93.159
G1 F1200 X93.175 Y92.89 E9.0558
G1 X93.822 Y92.278 E9.08246
G1 X94.081 Y92.044 E9.09291
G1 X94.739 Y91.481 E9.11884
G1 X95.333 Y91.026 E9.14123
G1 X95.971 Y90.637 E9.1636
G1 X96.648 Y90.318 E9.186
G1 X97.355 Y90.073 E9.2084
G1 X98.084 Y89.905 E9.2308
G1 X98.827 Y89.815 E9.2532
G1 X99.29 Y89.8 E9.26707
G1 X103.639 Y89.8 E9.39725
G1 X104.116 Y89.718 E9.41174
G1 X105.03 Y89.658 E9.43916
G1 X114.891 Y89.656 E9.73434
G1 X115.237 Y89.665 E9.7447
G1 X115.46 Y89.676 E9.75138
G1 X116.204 Y89.752 E9.77377
G1 X116.429 Y89.8 E9.78065
G1 X120.71 Y89.8 E9.9088
G1 X121.457 Y89.84 E9.93119
G1 X122.195 Y89.959 E9.95357
G1 X122.917 Y90.157 E9.97598
G1 X123.613 Y90.43 E9.99836
G1 X124.276 Y90.777 E10.02076
G1 X124.899 Y91.192 E10.04317
G1 X125.264 Y91.484 E10.05716
G1 X125.934 Y92.058 E10.08357
G1 X126.194 Y92.292 E10.09404
G1 X126.84 Y92.904 E10.12068
G1 X127.109 Y93.173 E10.13207
G1 X127.716 Y93.814 E10.15849
G1 X127.949 Y94.073 E10.16892
G1 X128.534 Y94.756 E10.19584
G1 X128.777 Y95.055 E10.20737
G1 X129.312 Y95.754 E10.23372
G1 X129.522 Y96.044 E10.24444
G1 X130.03 Y96.783 E10.27128
G1 X130.236 Y97.1 E10.2826
G1 X130.7 Y97.86 E10.30926
G1 X130.877 Y98.169 E10.31992
G1 X131.302 Y98.952 E10.34658
G1 X131.471 Y99.284 E10.35774
G1 X131.854 Y100.089 E10.38442
G1 X131.998 Y100.411 E10.39498
G1 X132.339 Y101.232 E10.42159
G1 X132.475 Y101.588 E10.433
G1 X132.771 Y102.427 E10.45963
G1 X132.881 Y102.766 E10.4703
G1 X133.134 Y103.619 E10.49693
G1 X133.231 Y103.982 E10.50818
G1 X133.438 Y104.848 E10.53483
G1 X133.513 Y105.201 E10.54564
G1 X133.675 Y106.076 E10.57227
G1 X133.733 Y106.445 E10.58345
G1 X133.848 Y107.327 E10.61008
G1 X133.885 Y107.676 E10.62059
G1 X133.955 Y108.555 E10.64698
G1 X133.975 Y108.932 E10.65828
G1 X133.998 Y109.829 E10.68514
G1 X133.998 Y110.189 E10.69592
G1 X133.975 Y111.079 E10.72257
G1 X133.955 Y111.457 E10.7339
G1 X133.884 Y112.344 E10.76054
G1 X133.846 Y112.698 E10.77119
G1 X133.731 Y113.572 E10.79758
G1 X133.675 Y113.927 E10.80834
G1 X133.512 Y114.812 E10.83528
G1 X133.432 Y115.189 E10.84681
G1 X133.225 Y116.045 E10.87318
G1 X133.131 Y116.395 E10.88402
G1 X132.875 Y117.256 E10.91091
G1 X132.768 Y117.586 E10.9213
G1 X132.475 Y118.418 E10.9477
G1 X132.335 Y118.783 E10.9594
G1 X131.99 Y119.612 E10.98628
G1 X131.844 Y119.938 E10.99697
G1 X131.464 Y120.734 E11.02338
G1 X131.299 Y121.059 E11.03429
G1 X130.87 Y121.849 E11.0612
G1 X130.689 Y122.161 E11.072
G1 X130.229 Y122.913 E11.09838
G1 X130.022 Y123.232 E11.10977
G1 X129.512 Y123.972 E11.13667
G1 X129.305 Y124.257 E11.14721
G1 X128.765 Y124.962 E11.1738
G1 X128.52 Y125.264 E11.18544
G1 X127.945 Y125.934 E11.21187
G1 X127.713 Y126.191 E11.22223
G1 X127.095 Y126.843 E11.24912
G1 X126.825 Y127.112 E11.26053
G1 X126.178 Y127.724 E11.28719
G1 X125.922 Y127.956 E11.29753
G1 X125.267 Y128.517 E11.32335
G1 X124.673 Y128.972 E11.34574
G1 X124.035 Y129.362 E11.36813
G1 X123.358 Y129.681 E11.39053
G1 X122.651 Y129.926 E11.41293
G1 X121.923 Y130.095 E11.4353
G1 X121.18 Y130.184 E11.4577
G1 X120.713 Y130.2 E11.47169
G1 X116.414 Y130.2 E11.60037
G1 X116.123 Y130.253 E11.60923
G1 X115.005 Y130.343 E11.6428
G1 X104.956 Y130.342 E11.94361
G1 X104.209 Y130.302 E11.966
G1 X103.611 Y130.2 E11.98416
G1 X99.287 Y130.2 E12.1136
G1 X98.54 Y130.16 E12.13599
G1 X97.802 Y130.041 E12.15837
G1 X97.08 Y129.843 E12.18078
G1 X96.384 Y129.57 E12.20316
G1 X95.721 Y129.223 E12.22556
G1 X95.098 Y128.808 E12.24796
G1 X94.73 Y128.514 E12.26206
G1 X94.063 Y127.942 E12.28837
G1 X93.806 Y127.709 E12.29875
G1 X93.159 Y127.096 E12.32543
G1 X92.887 Y126.825 E12.33692
G1 X92.276 Y126.179 E12.36354
G1 X92.046 Y125.923 E12.37384
G1 X91.467 Y125.247 E12.40049
G1 X91.224 Y124.947 E12.41204
G1 X90.683 Y124.24 E12.43869
G1 X90.474 Y123.952 E12.44934
G1 X89.97 Y123.219 E12.47597
G1 X89.762 Y122.898 E12.48742
G1 X89.299 Y122.139 E12.51403
G1 X89.123 Y121.833 E12.5246
G1 X88.698 Y121.05 E12.55127
G1 X88.53 Y120.721 E12.56233
G1 X88.147 Y119.917 E12.58899
G1 X88.001 Y119.589 E12.59973
G1 X87.66 Y118.767 E12.62637
G1 X87.526 Y118.417 E12.63759
G1 X87.232 Y117.585 E12.66401
G1 X87.12 Y117.241 E12.67483
G1 X86.865 Y116.38 E12.70171
G1 X86.768 Y116.015 E12.71302
