;FLAVOR:Marlin
;TIME:5829
;Filament used: 3.21219m
;Layer height: 0.2
;MINX:37.018
;MINY:92.433
;MINZ:0.2
;MAXX:184.817
;MAXY:127.567
;MAXZ:21
;Generated with Cura_SteamEngine 4.10.0
M140 S70
M105
M190 S70
M104 S210
M105
M109 S210
M82 ;absolute extrusion mode
; Ender 3 Custom Start G-code
G92 E0 ; Reset Extruder
G28 ; Home all axes
G1 Z2.0 F3000 ; Move Z Axis up little to prevent scratching of Heat Bed
G1 X0.1 Y20 Z0.3 F5000.0 ; Move to start position
G1 X0.1 Y200.0 Z0.3 F1500.0 E15 ; Draw the first line
G1 X0.4 Y200.0 Z0.3 F5000.0 ; Move to side a little
G1 X0.4 Y20 Z0.3 F1500.0 E30 ; Draw the second line
G92 E0 ; Reset Extruder
G1 Z2.0 F3000 ; Move Z Axis up little to prevent scratching of Heat Bed
G1 X5 Y20 Z0.3 F5000.0 ; Move over to prevent blob squish
G92 E0
G92 E0
G1 F1500 E-6.5
;LAYER_COUNT:105
;LAYER:0
M107
G1 F300 Z0.4
G0 F9000 X48.555 Y99.766 Z0.4
;TYPE:SKIRT
G1 F300 Z0.2
G1 F1500 E0
G1 F1200 X49.28 Y99.454 E0.02363
G1 X50.033 Y99.217 E0.04726
G1 X50.807 Y99.058 E0.07091
G1 X51.592 Y98.977 E0.09453
G1 X51.994 Y98.967 E0.10657
G1 X124.995 Y98.966 E2.29179
G1 X125.784 Y99.006 E2.31544
G1 X126.564 Y99.125 E2.33906
G1 X127.329 Y99.323 E2.36271
G1 X128.069 Y99.597 E2.38633
G1 X128.437 Y99.778 E2.39861
G1 X128.684 Y99.641 E2.40706
G1 X129.409 Y99.329 E2.43069
G1 X130.162 Y99.092 E2.45432
G1 X130.936 Y98.933 E2.47797
G1 X131.735 Y98.852 E2.50201
G1 X133.124 Y98.783 E2.54364
G1 X133.593 Y98.715 E2.55783
G1 X134.167 Y98.653 E2.57511
G1 X135.494 Y98.56 E2.61493
G1 X136.283 Y98.545 E2.63855
G1 X136.352 Y98.549 E2.64062
G1 X137.511 Y98.408 E2.67557
G1 X138.299 Y98.353 E2.69922
G1 X138.509 Y98.358 E2.70551
G1 X139.71 Y98.207 E2.74174
G1 X142.452 Y97.906 E2.82431
G1 X143.254 Y97.827 E2.84844
G1 X143.849 Y97.704 E2.86662
G1 X145.728 Y97.454 E2.92336
G1 X147.303 Y97.257 E2.97088
G1 X147.632 Y97.174 E2.98104
G1 X148.038 Y97.104 E2.99337
G1 X149.456 Y96.9 E3.03625
G1 X149.949 Y96.848 E3.05109
G1 X151.933 Y96.461 E3.1116
G1 X152.714 Y96.35 E3.13521
G1 X153.503 Y96.317 E3.15885
G1 X154.292 Y96.365 E3.18251
G1 X155.071 Y96.492 E3.20614
G1 X155.833 Y96.698 E3.22977
G1 X156.571 Y96.979 E3.25341
G1 X156.951 Y97.17 E3.26614
G1 X157.113 Y96.961 E3.27405
G1 X157.657 Y96.388 E3.2977
G1 X158.255 Y95.873 E3.32133
G1 X158.903 Y95.422 E3.34496
G1 X159.593 Y95.038 E3.3686
G1 X160.319 Y94.726 E3.39225
G1 X161.115 Y94.478 E3.41721
G1 X161.921 Y94.273 E3.44211
G1 X162.917 Y94.014 E3.47291
G1 X163.058 Y93.97 E3.47733
G1 X164.104 Y93.66 E3.50999
G1 X164.327 Y93.587 E3.51701
G1 X164.867 Y93.431 E3.53384
G1 X165.126 Y93.366 E3.54183
G1 X165.473 Y93.286 E3.55249
G1 X167.586 Y92.757 E3.6177
G1 X167.869 Y92.691 E3.62639
G1 X168.177 Y92.626 E3.63582
G1 X168.957 Y92.502 E3.65946
G1 X169.206 Y92.488 E3.66692
G1 X169.504 Y92.452 E3.67591
G1 X170.046 Y92.433 E3.69214
G1 X174.598 Y92.433 E3.8284
G1 X175.221 Y92.465 E3.84708
G1 X175.43 Y92.478 E3.85335
G1 X175.896 Y92.527 E3.86737
G1 X176.1 Y92.555 E3.87354
G1 X176.457 Y92.613 E3.88436
G1 X176.668 Y92.652 E3.89078
G1 X177.079 Y92.739 E3.90336
G1 X177.278 Y92.787 E3.90949
G1 X177.66 Y92.89 E3.92133
G1 X177.863 Y92.95 E3.92767
G1 X178.22 Y93.065 E3.9389
G1 X178.415 Y93.133 E3.94508
G1 X178.857 Y93.302 E3.95924
G1 X179.053 Y93.384 E3.9656
G1 X179.41 Y93.544 E3.97731
G1 X179.596 Y93.633 E3.98348
G1 X179.977 Y93.828 E3.9963
G1 X180.165 Y93.931 E4.00271
G1 X180.452 Y94.097 E4.01264
G1 X180.629 Y94.204 E4.01883
G1 X181.022 Y94.458 E4.03284
G1 X181.196 Y94.578 E4.03916
G1 X181.507 Y94.804 E4.05067
G1 X181.673 Y94.931 E4.05693
G1 X182.045 Y95.234 E4.07129
G1 X182.128 Y95.306 E4.07458
G1 X182.698 Y95.853 E4.09823
G1 X183.209 Y96.455 E4.12186
G1 X183.657 Y97.105 E4.1455
G1 X184.037 Y97.797 E4.16913
G1 X184.345 Y98.525 E4.19279
G1 X184.577 Y99.279 E4.2164
G1 X184.733 Y100.054 E4.24007
G1 X184.817 Y101.198 E4.27441
G1 X184.817 Y102.233 E4.30539
G1 X184.777 Y103.022 E4.32904
G1 X184.658 Y103.802 E4.35265
G1 X184.55 Y104.219 E4.36555
G1 X184.567 Y104.272 E4.36721
G1 X184.726 Y105.046 E4.39087
G1 X184.807 Y105.831 E4.41449
G1 X184.817 Y106.241 E4.42677
G1 X184.816 Y107.278 E4.45781
G1 X184.775 Y108.066 E4.48143
G1 X184.655 Y108.847 E4.50508
G1 X184.456 Y109.611 E4.52871
G1 X184.182 Y110.351 E4.55234
G1 X183.833 Y111.06 E4.57599
G1 X183.415 Y111.73 E4.59963
G1 X182.931 Y112.354 E4.62327
G1 X182.387 Y112.926 E4.6469
G1 X182.036 Y113.24 E4.661
G1 X181.948 Y113.314 E4.66444
G1 X181.662 Y113.543 E4.67541
G1 X181.497 Y113.669 E4.68162
G1 X181.166 Y113.908 E4.69384
G1 X180.992 Y114.027 E4.70015
G1 X180.706 Y114.214 E4.71038
G1 X180.529 Y114.324 E4.71662
G1 X180.092 Y114.576 E4.73172
G1 X179.907 Y114.675 E4.738
G1 X179.595 Y114.833 E4.74847
G1 X179.407 Y114.923 E4.75471
G1 X179 Y115.104 E4.76804
G1 X178.805 Y115.184 E4.77435
G1 X178.513 Y115.297 E4.78372
G1 X178.318 Y115.368 E4.78993
G1 X177.806 Y115.535 E4.80606
G1 X177.601 Y115.594 E4.81244
G1 X177.239 Y115.689 E4.82364
G1 X177.036 Y115.737 E4.82989
G1 X176.663 Y115.815 E4.8413
G1 X176.458 Y115.853 E4.84754
G1 X176.059 Y115.917 E4.85963
G1 X175.855 Y115.944 E4.86579
G1 X175.43 Y115.988 E4.87858
G1 X175.196 Y116.006 E4.88561
G1 X174.601 Y116.029 E4.90343
G1 X165.797 Y116.033 E5.16697
G1 X164.936 Y116.249 E5.19354
G1 X164.161 Y116.402 E5.21719
G1 X163.375 Y116.477 E5.24083
G1 X162.585 Y116.471 E5.26447
G1 X161.8 Y116.386 E5.28811
G1 X161.028 Y116.221 E5.31174
G1 X160.276 Y115.98 E5.33538
G1 X159.552 Y115.663 E5.35904
G1 X159.512 Y115.641 E5.3604
G1 X159.348 Y115.853 E5.36843
G1 X158.804 Y116.426 E5.39208
G1 X158.206 Y116.941 E5.4157
G1 X157.558 Y117.392 E5.43934
G1 X156.868 Y117.776 E5.46297
G1 X156.142 Y118.088 E5.48663
G1 X155.389 Y118.325 E5.51026
G1 X154.811 Y118.452 E5.52797
G1 X152.847 Y118.806 E5.58771
G1 X152.63 Y118.842 E5.59429
G1 X148.218 Y119.509 E5.72786
G1 X145.243 Y119.914 E5.81774
G1 X144.555 Y119.994 E5.83847
G1 X143.101 Y120.15 E5.88225
G1 X138.863 Y120.546 E6.00966
G1 X138.637 Y120.564 E6.01645
G1 X135.832 Y120.744 E6.10059
G1 X133.03 Y120.917 E6.18462
G1 X132.511 Y120.943 E6.20018
G1 X132.256 Y120.943 E6.20781
G1 X132.177 Y121.184 E6.2154
G1 X132.102 Y121.379 E6.22165
G1 X131.791 Y122.082 E6.24467
G1 X131.697 Y122.269 E6.25093
G1 X131.235 Y123.067 E6.27853
G1 X131.12 Y123.241 E6.28478
G1 X130.707 Y123.808 E6.30577
G1 X130.576 Y123.972 E6.31206
G1 X129.979 Y124.638 E6.33883
G1 X129.83 Y124.786 E6.34512
G1 X129.264 Y125.295 E6.3679
G1 X129.101 Y125.428 E6.3742
G1 X128.401 Y125.938 E6.40013
G1 X128.226 Y126.051 E6.40636
G1 X127.528 Y126.452 E6.43046
G1 X127.341 Y126.547 E6.43674
G1 X126.608 Y126.873 E6.46075
G1 X126.413 Y126.948 E6.467
G1 X125.627 Y127.203 E6.49174
G1 X125.425 Y127.257 E6.498
G1 X124.633 Y127.426 E6.52224
G1 X124.425 Y127.459 E6.52854
G1 X123.613 Y127.544 E6.55298
G1 X123.404 Y127.555 E6.55925
G1 X122.994 Y127.566 E6.57153
G1 X51.994 Y127.567 E8.69685
G1 X51.205 Y127.527 E8.7205
G1 X50.425 Y127.408 E8.74412
G1 X49.66 Y127.21 E8.76777
G1 X48.92 Y126.936 E8.79139
G1 X48.211 Y126.588 E8.81503
G1 X47.54 Y126.171 E8.83868
G1 X46.916 Y125.687 E8.86232
G1 X46.343 Y125.144 E8.88595
G1 X45.828 Y124.545 E8.9096
G1 X45.377 Y123.897 E8.93323
G1 X45.009 Y123.235 E8.9559
G1 X44.819 Y123.235 E8.96159
G1 X44.03 Y123.195 E8.98524
G1 X43.25 Y123.076 E9.00886
G1 X42.485 Y122.878 E9.03251
G1 X41.745 Y122.604 E9.05613
G1 X41.036 Y122.256 E9.07977
G1 X40.365 Y121.838 E9.10344
G1 X39.741 Y121.355 E9.12706
G1 X39.168 Y120.812 E9.15069
G1 X38.653 Y120.213 E9.17434
G1 X38.202 Y119.565 E9.19797
G1 X37.818 Y118.874 E9.22163
G1 X37.506 Y118.149 E9.24526
G1 X37.269 Y117.396 E9.26889
G1 X37.11 Y116.622 E9.29254
G1 X37.029 Y115.837 E9.31617
G1 X37.019 Y115.437 E9.32814
G1 X37.018 Y111.437 E9.44788
G1 X37.058 Y110.648 E9.47153
G1 X37.177 Y109.868 E9.49515
G1 X37.375 Y109.103 E9.5188
G1 X37.649 Y108.362 E9.54245
G1 X37.996 Y107.653 E9.56608
G1 X38.413 Y106.983 E9.5897
G1 X38.896 Y106.358 E9.61335
G1 X39.44 Y105.785 E9.637
G1 X40.039 Y105.271 E9.66063
G1 X40.687 Y104.819 E9.68428
G1 X41.377 Y104.435 E9.70791
G1 X42.102 Y104.123 E9.73154
G1 X42.855 Y103.886 E9.75517
G1 X43.629 Y103.726 E9.77883
G1 X44.414 Y103.645 E9.80245
G1 X44.461 Y103.644 E9.80386
G1 X44.901 Y103.266 E9.82122
G1 X45.104 Y103.125 E9.82862
G1 X45.173 Y102.984 E9.83332
G1 X45.591 Y102.313 E9.85699
G1 X46.074 Y101.689 E9.88061
G1 X46.617 Y101.116 E9.90424
G1 X47.216 Y100.601 E9.92788
G1 X47.864 Y100.15 E9.95152
G1 X48.555 Y99.766 E9.97518
G0 F9000 X48.93 Y100.031
G1 F1200 X49.645 Y99.75 E9.99818
G1 X50.387 Y99.544 E10.02123
G1 X51.145 Y99.416 E10.04424
G1 X51.994 Y99.367 E10.06969
G1 X124.995 Y99.366 E12.25492
G1 X125.763 Y99.406 E12.27794
G1 X126.523 Y99.525 E12.30096
G1 X127.266 Y99.723 E12.32398
G1 X127.985 Y99.997 E12.34701
G1 X128.44 Y100.227 E12.36227
G1 X129.059 Y99.906 E12.38315
G1 X129.775 Y99.624 E12.40618
G1 X130.516 Y99.418 E12.4292
G1 X131.274 Y99.291 E12.45221
G1 X131.755 Y99.251 E12.46666
G1 X133.173 Y99.18 E12.50916
G1 X133.65 Y99.111 E12.52359
G1 X134.195 Y99.052 E12.54
G1 X135.522 Y98.959 E12.57982
G1 X136.291 Y98.945 E12.60284
G1 X136.37 Y98.95 E12.60521
G1 X137.56 Y98.805 E12.64109
G1 X138.327 Y98.752 E12.66411
G1 X138.539 Y98.758 E12.67046
G1 X139.754 Y98.604 E12.70712
G1 X142.491 Y98.304 E12.78954
G1 X143.308 Y98.223 E12.81411
G1 X143.902 Y98.101 E12.83227
G1 X145.778 Y97.851 E12.88892
G1 X147.478 Y97.638 E12.9402
G1 X148.095 Y97.5 E12.95913
G1 X149.513 Y97.296 E13.00201
G1 X150.015 Y97.243 E13.01712
G1 X152.009 Y96.854 E13.07794
G1 X152.771 Y96.746 E13.10098
G1 X153.539 Y96.718 E13.12398
G1 X154.307 Y96.77 E13.14702
G1 X155.065 Y96.901 E13.17005
G1 X155.805 Y97.11 E13.19307
G1 X156.519 Y97.395 E13.21608
G1 X157.059 Y97.678 E13.23433
G1 X157.509 Y97.116 E13.25588
G1 X158.049 Y96.569 E13.27889
G1 X158.644 Y96.081 E13.30192
G1 X159.286 Y95.657 E13.32495
G1 X159.969 Y95.303 E13.34798
G1 X160.684 Y95.021 E13.37099
G1 X161.213 Y94.866 E13.38749
G1 X162.008 Y94.664 E13.41204
G1 X163.021 Y94.401 E13.44337
G1 X163.172 Y94.353 E13.44812
G1 X164.237 Y94.038 E13.48136
G1 X164.452 Y93.967 E13.48814
G1 X164.965 Y93.819 E13.50412
G1 X165.224 Y93.754 E13.51211
G1 X165.57 Y93.674 E13.52275
G1 X167.683 Y93.145 E13.58795
G1 X167.952 Y93.082 E13.59622
G1 X168.26 Y93.017 E13.60564
G1 X169.02 Y92.898 E13.62867
G1 X169.24 Y92.887 E13.63526
G1 X169.571 Y92.848 E13.64524
G1 X170.046 Y92.833 E13.65946
G1 X174.598 Y92.833 E13.79572
G1 X175.191 Y92.864 E13.8135
G1 X175.4 Y92.877 E13.81977
G1 X175.841 Y92.924 E13.83304
G1 X176.045 Y92.952 E13.83921
G1 X176.384 Y93.006 E13.84948
G1 X176.595 Y93.045 E13.85591
G1 X176.985 Y93.128 E13.86784
G1 X177.184 Y93.176 E13.87397
G1 X177.546 Y93.273 E13.88519
G1 X177.749 Y93.333 E13.89152
G1 X178.089 Y93.443 E13.90222
G1 X178.284 Y93.511 E13.9084
G1 X178.703 Y93.671 E13.92183
G1 X178.899 Y93.753 E13.92819
G1 X179.237 Y93.905 E13.93928
G1 X179.423 Y93.994 E13.94546
G1 X179.785 Y94.179 E13.95762
G1 X179.973 Y94.282 E13.96404
G1 X180.245 Y94.439 E13.97344
G1 X180.422 Y94.546 E13.97963
G1 X180.795 Y94.787 E13.99293
G1 X180.969 Y94.907 E13.99925
G1 X181.264 Y95.122 E14.01018
G1 X181.43 Y95.249 E14.01644
G1 X181.783 Y95.536 E14.03006
G1 X181.866 Y95.608 E14.03334
G1 X182.42 Y96.142 E14.05638
G1 X182.916 Y96.73 E14.07941
G1 X183.348 Y97.366 E14.10242
G1 X183.711 Y98.044 E14.12544
G1 X184.002 Y98.756 E14.14847
G1 X184.218 Y99.494 E14.17148
G1 X184.356 Y100.251 E14.19452
G1 X184.417 Y101.198 E14.22292
G1 X184.417 Y102.233 E14.25391
G1 X184.377 Y103.001 E14.27693
G1 X184.258 Y103.761 E14.29995
G1 X184.132 Y104.235 E14.31463
G1 X184.24 Y104.626 E14.32678
G1 X184.368 Y105.384 E14.34979
G1 X184.417 Y106.24 E14.37545
G1 X184.416 Y107.277 E14.4065
G1 X184.375 Y108.045 E14.42952
G1 X184.255 Y108.805 E14.45255
G1 X184.057 Y109.548 E14.47557
G1 X183.782 Y110.267 E14.49861
G1 X183.435 Y110.953 E14.52162
G1 X183.018 Y111.599 E14.54464
G1 X182.536 Y112.199 E14.56768
G1 X181.779 Y112.934 E14.59926
G1 X181.691 Y113.008 E14.6027
G1 X181.419 Y113.225 E14.61312
G1 X181.254 Y113.351 E14.61933
G1 X180.94 Y113.578 E14.63093
G1 X180.766 Y113.697 E14.63724
G1 X180.495 Y113.874 E14.64693
G1 X180.318 Y113.984 E14.65317
G1 X179.904 Y114.224 E14.66749
G1 X179.719 Y114.323 E14.67377
G1 X179.422 Y114.473 E14.68373
G1 X179.234 Y114.563 E14.68997
G1 X178.848 Y114.734 E14.70261
G1 X178.653 Y114.814 E14.70892
G1 X178.376 Y114.921 E14.71781
G1 X178.181 Y114.992 E14.72402
G1 X177.696 Y115.15 E14.73929
G1 X177.491 Y115.209 E14.74568
G1 X177.147 Y115.299 E14.75632
G1 X176.944 Y115.347 E14.76256
G1 X176.59 Y115.422 E14.7734
G1 X176.385 Y115.46 E14.77964
G1 X176.007 Y115.52 E14.79109
G1 X175.803 Y115.547 E14.79725
G1 X175.4 Y115.589 E14.80938
G1 X175.166 Y115.607 E14.81641
G1 X174.601 Y115.629 E14.83333
G1 X165.747 Y115.633 E15.09837
G1 X164.838 Y115.861 E15.12642
G1 X164.084 Y116.009 E15.14942
G1 X163.317 Y116.079 E15.17248
G1 X162.548 Y116.068 E15.1955
G1 X161.785 Y115.978 E15.2185
G1 X161.034 Y115.808 E15.24155
G1 X160.306 Y115.562 E15.26455
G1 X159.606 Y115.242 E15.28759
G1 X159.41 Y115.126 E15.29441
G1 X158.952 Y115.698 E15.31634
G1 X158.412 Y116.245 E15.33935
G1 X157.817 Y116.733 E15.36239
G1 X157.175 Y117.157 E15.38542
G1 X156.492 Y117.511 E15.40844
G1 X155.777 Y117.793 E15.43145
G1 X154.74 Y118.059 E15.4635
G1 X152.776 Y118.413 E15.52324
G1 X152.57 Y118.447 E15.52949
G1 X148.273 Y119.097 E15.65958
G1 X145.027 Y119.538 E15.75764
G1 X144.512 Y119.596 E15.77315
G1 X143.063 Y119.752 E15.81677
G1 X138.825 Y120.148 E15.94419
G1 X138.611 Y120.165 E15.95061
G1 X135.807 Y120.345 E16.03472
G1 X133.01 Y120.518 E16.11861
G1 X132.491 Y120.544 E16.13416
G1 X131.967 Y120.543 E16.14985
G1 X131.804 Y121.04 E16.1655
G1 X131.729 Y121.235 E16.17176
G1 X131.434 Y121.903 E16.19362
G1 X131.34 Y122.09 E16.19988
G1 X130.901 Y122.846 E16.22605
G1 X130.786 Y123.02 E16.2323
G1 X130.395 Y123.558 E16.2522
G1 X130.264 Y123.722 E16.25849
G1 X129.697 Y124.354 E16.2839
G1 X129.548 Y124.502 E16.29019
G1 X129.011 Y124.986 E16.31183
G1 X128.848 Y125.119 E16.31813
G1 X128.184 Y125.602 E16.34271
G1 X128.009 Y125.715 E16.34894
G1 X127.347 Y126.095 E16.37179
G1 X127.16 Y126.19 E16.37807
G1 X126.464 Y126.5 E16.40088
G1 X126.269 Y126.575 E16.40713
G1 X125.524 Y126.817 E16.43058
G1 X125.322 Y126.871 E16.43684
G1 X124.571 Y127.031 E16.45982
G1 X124.363 Y127.064 E16.46613
G1 X123.592 Y127.145 E16.48933
G1 X123.383 Y127.156 E16.4956
G1 X122.994 Y127.166 E16.50725
G1 X51.994 Y127.167 E18.63257
G1 X51.226 Y127.127 E18.65559
G1 X50.466 Y127.008 E18.67862
G1 X49.723 Y126.81 E18.70163
G1 X49.004 Y126.536 E18.72467
G1 X48.318 Y126.189 E18.74768
G1 X47.671 Y125.773 E18.7707
G1 X47.071 Y125.292 E18.79372
G1 X46.524 Y124.751 E18.81675
G1 X46.036 Y124.156 E18.83979
G1 X45.613 Y123.514 E18.8628
G1 X45.26 Y122.835 E18.88571
G1 X44.819 Y122.835 E18.89891
G1 X44.051 Y122.795 E18.92193
G1 X43.291 Y122.676 E18.94496
G1 X42.548 Y122.478 E18.96798
G1 X41.829 Y122.204 E18.99101
G1 X41.143 Y121.857 E19.01402
G1 X40.496 Y121.441 E19.03705
G1 X39.896 Y120.96 E19.06006
G1 X39.349 Y120.419 E19.08309
G1 X38.861 Y119.824 E19.10613
G1 X38.438 Y119.182 E19.12914
G1 X38.083 Y118.499 E19.15219
G1 X37.802 Y117.784 E19.17518
G1 X37.596 Y117.042 E19.19823
G1 X37.468 Y116.284 E19.22124
G1 X37.419 Y115.437 E19.24664
G1 X37.418 Y111.437 E19.36638
G1 X37.458 Y110.669 E19.3894
G1 X37.577 Y109.909 E19.41243
G1 X37.775 Y109.166 E19.43544
G1 X38.048 Y108.447 E19.45846
G1 X38.395 Y107.76 E19.4815
G1 X38.811 Y107.113 E19.50453
G1 X39.292 Y106.513 E19.52755
G1 X39.833 Y105.966 E19.55058
G1 X40.428 Y105.478 E19.57361
G1 X41.07 Y105.055 E19.59663
G1 X41.752 Y104.7 E19.61964
G1 X42.468 Y104.418 E19.64268
G1 X43.209 Y104.212 E19.6657
G1 X43.967 Y104.084 E19.68871
