;FLAVOR:Marlin
;TIME:2987
;Filament used: 1.2366m
;Layer height: 0.2
;MINX:93.396
;MINY:88.004
;MINZ:0.2
;MAXX:135.063
;MAXY:131.996
;MAXZ:32
;Generated with Cura_SteamEngine 4.10.0
M140 S70
M105
M190 S70
M104 S210
M105
M109 S210
M82 ;absolute extrusion mode
; Ender 3 Custom Start G-code
G92 E0 ; Reset Extruder
G28 ; Home all axes
G1 Z2.0 F3000 ; Move Z Axis up little to prevent scratching of Heat Bed
G1 X0.1 Y20 Z0.3 F5000.0 ; Move to start position
G1 X0.1 Y200.0 Z0.3 F1500.0 E15 ; Draw the first line
G1 X0.4 Y200.0 Z0.3 F5000.0 ; Move to side a little
G1 X0.4 Y20 Z0.3 F1500.0 E30 ; Draw the second line
G92 E0 ; Reset Extruder
G1 Z2.0 F3000 ; Move Z Axis up little to prevent scratching of Heat Bed
G1 X5 Y20 Z0.3 F5000.0 ; Move over to prevent blob squish
G92 E0
G92 E0
G1 F1500 E-6.5
;LAYER_COUNT:160
;LAYER:0
M107
G1 F300 Z0.4
G0 F9000 X103.651 Y91.725 Z0.4
;TYPE:SKIRT
G1 F300 Z0.2
G1 F1500 E0
G1 F1200 X104.194 Y91.152 E0.02363
G1 X104.793 Y90.637 E0.04728
G1 X105.441 Y90.186 E0.07091
G1 X106.132 Y89.802 E0.09457
G1 X106.857 Y89.49 E0.1182
G1 X107.61 Y89.253 E0.14183
G1 X108.384 Y89.094 E0.16548
G1 X109.169 Y89.013 E0.18911
G1 X109.571 Y89.003 E0.20114
G1 X113.75 Y89.003 E0.32624
G1 X114.01 Y88.862 E0.33509
G1 X114.203 Y88.772 E0.34147
G1 X114.935 Y88.475 E0.36511
G1 X115.644 Y88.265 E0.38725
G1 X115.795 Y88.228 E0.3919
G1 X116.57 Y88.079 E0.41553
G1 X117.651 Y88.004 E0.44796
G1 X117.96 Y88.004 E0.45721
G1 X118.749 Y88.044 E0.48086
G1 X119.529 Y88.163 E0.50448
G1 X120.307 Y88.366 E0.52855
G1 X120.513 Y88.431 E0.53501
G1 X121.253 Y88.706 E0.55865
G1 X121.63 Y88.88 E0.57107
G1 X121.86 Y88.994 E0.57876
G1 X122.549 Y89.38 E0.6024
G1 X123.195 Y89.834 E0.62603
G1 X123.745 Y90.306 E0.64773
G1 X123.935 Y90.485 E0.65554
G1 X124.481 Y91.055 E0.67917
G1 X124.967 Y91.677 E0.7028
G1 X125.363 Y92.3 E0.7249
G1 X125.465 Y92.479 E0.73106
G1 X125.821 Y93.184 E0.75471
G1 X126.036 Y93.724 E0.7721
G1 X126.14 Y94.016 E0.78138
G1 X126.367 Y94.772 E0.80501
G1 X126.516 Y95.548 E0.82866
G1 X126.581 Y96.214 E0.8487
G1 X126.593 Y96.437 E0.85538
G1 X126.595 Y97.227 E0.87903
G1 X126.566 Y97.48 E0.88665
G1 X126.566 Y104.154 E1.08643
G1 X127.154 Y104.154 E1.10403
G1 X127.94 Y104.233 E1.12768
G1 X128.713 Y104.391 E1.1513
G1 X129.467 Y104.627 E1.17495
G1 X130.193 Y104.937 E1.19858
G1 X130.884 Y105.32 E1.22223
G1 X131.533 Y105.77 E1.24587
G1 X132.133 Y106.284 E1.26952
G1 X132.677 Y106.855 E1.29312
G1 X133.162 Y107.479 E1.31678
G1 X133.58 Y108.149 E1.34042
G1 X133.929 Y108.857 E1.36405
G1 X134.183 Y109.53 E1.38558
G1 X134.68 Y111.057 E1.43365
G1 X134.886 Y111.819 E1.45728
G1 X135.014 Y112.599 E1.48094
G1 X135.063 Y113.387 E1.50457
G1 X135.031 Y114.176 E1.52821
G1 X134.92 Y114.958 E1.55186
G1 X134.68 Y115.885 E1.58052
G1 X134.183 Y117.412 E1.62859
G1 X133.901 Y118.15 E1.65224
G1 X133.546 Y118.855 E1.67587
G1 X133.121 Y119.521 E1.69952
G1 X132.631 Y120.14 E1.72315
G1 X132.081 Y120.707 E1.74679
G1 X131.477 Y121.215 E1.77042
G1 X130.824 Y121.659 E1.79406
G1 X130.13 Y122.035 E1.81768
G1 X129.401 Y122.34 E1.84134
G1 X128.645 Y122.568 E1.86497
G1 X127.87 Y122.719 E1.88861
G1 X127.084 Y122.792 E1.91224
G1 X126.58 Y122.787 E1.92733
G1 X126.591 Y123.591 E1.9514
G1 X126.579 Y123.8 E1.95766
G1 X126.494 Y124.585 E1.9813
G1 X126.352 Y125.271 E2.00227
G1 X126.301 Y125.472 E2.00848
G1 X126.069 Y126.227 E2.03212
G1 X125.622 Y127.226 E2.06488
G1 X125.519 Y127.419 E2.07143
G1 X125.178 Y127.998 E2.09154
G1 X125.126 Y128.078 E2.0944
G1 X124.663 Y128.717 E2.11802
G1 X124.065 Y129.378 E2.1447
G1 X123.911 Y129.53 E2.15118
G1 X123.322 Y130.056 E2.17482
G1 X122.691 Y130.514 E2.19816
G1 X122.513 Y130.63 E2.20452
G1 X121.83 Y131.027 E2.22817
G1 X121.092 Y131.36 E2.2524
G1 X120.9 Y131.435 E2.25857
G1 X120.151 Y131.685 E2.28221
G1 X119.377 Y131.858 E2.30595
G1 X119.225 Y131.884 E2.31057
G1 X118.441 Y131.978 E2.3342
G1 X117.91 Y131.996 E2.35011
G1 X117.701 Y131.996 E2.35636
G1 X116.912 Y131.956 E2.38001
G1 X115.783 Y131.757 E2.41433
G1 X115.578 Y131.705 E2.42066
G1 X114.612 Y131.391 E2.45106
G1 X114.421 Y131.315 E2.45722
G1 X113.725 Y130.997 E2.48012
G1 X104.982 Y130.997 E2.74184
G1 X104.028 Y130.938 E2.77045
G1 X103.606 Y130.886 E2.78318
G1 X103.145 Y130.816 E2.79713
G1 X102.939 Y130.778 E2.8034
G1 X102.445 Y130.67 E2.81854
G1 X102.041 Y130.568 E2.83101
G1 X101.044 Y130.243 E2.8624
G1 X100.653 Y130.086 E2.87502
G1 X100.3 Y129.935 E2.88651
G1 X100.113 Y129.849 E2.89267
G1 X99.502 Y129.534 E2.91325
G1 X99.145 Y129.33 E2.92556
G1 X98.518 Y128.931 E2.9478
G1 X98.168 Y128.684 E2.96063
G1 X97.381 Y128.048 E2.99092
G1 X97.077 Y127.768 E3.00329
G1 X96.613 Y127.303 E3.02295
G1 X96.469 Y127.146 E3.02933
G1 X96.272 Y126.924 E3.03821
G1 X96.131 Y126.758 E3.04473
G1 X95.886 Y126.455 E3.0564
G1 X95.761 Y126.292 E3.06255
G1 X95.543 Y125.993 E3.07362
G1 X95.425 Y125.823 E3.07982
G1 X95.246 Y125.553 E3.08951
G1 X95.135 Y125.378 E3.09572
G1 X94.753 Y124.703 E3.11893
G1 X94.643 Y124.49 E3.12611
G1 X94.282 Y123.711 E3.15181
G1 X94.204 Y123.515 E3.15813
G1 X94.026 Y123.019 E3.1739
G1 X93.898 Y122.621 E3.18641
G1 X93.767 Y122.169 E3.2005
G1 X93.716 Y121.97 E3.20665
G1 X93.595 Y121.416 E3.22363
G1 X93.557 Y121.205 E3.23004
G1 X93.489 Y120.751 E3.24378
G1 X93.463 Y120.534 E3.25033
G1 X93.421 Y120.064 E3.26445
G1 X93.409 Y119.86 E3.27057
G1 X93.396 Y119.402 E3.28428
G1 X93.396 Y118.979 E3.29695
G1 X93.409 Y118.521 E3.31066
G1 X93.421 Y118.317 E3.31678
G1 X93.475 Y117.756 E3.33365
G1 X93.502 Y117.551 E3.33984
G1 X93.558 Y117.191 E3.35075
G1 X93.595 Y116.985 E3.35701
G1 X93.72 Y116.412 E3.37457
G1 X93.773 Y116.207 E3.3809
G1 X93.879 Y115.835 E3.39248
G1 X94.001 Y115.453 E3.40449
G1 X94.066 Y115.261 E3.41055
G1 X94.22 Y114.846 E3.4238
G1 X94.297 Y114.655 E3.42997
G1 X94.643 Y113.912 E3.4545
G1 X94.779 Y113.65 E3.46334
G1 X95.151 Y113.002 E3.48571
G1 X95.381 Y112.642 E3.49849
G1 X95.793 Y112.058 E3.51989
G1 X95.918 Y111.897 E3.52599
G1 X96.338 Y111.4 E3.54547
G1 X96.624 Y111.089 E3.55812
G1 X97.088 Y110.625 E3.57776
G1 X97.396 Y110.342 E3.59028
G1 X97.934 Y109.891 E3.61129
G1 X98.1 Y109.764 E3.61755
G1 X98.631 Y109.391 E3.63697
G1 X98.99 Y109.161 E3.64974
G1 X99.308 Y108.968 E3.66087
G1 X99.487 Y108.865 E3.66705
G1 X100.127 Y108.535 E3.68861
G1 X100.319 Y108.447 E3.69493
G1 X100.679 Y108.293 E3.70665
G1 X100.872 Y108.216 E3.71287
G1 X101.272 Y108.069 E3.72563
G1 X101.643 Y107.947 E3.73732
G1 X101.771 Y107.907 E3.74133
G1 X101.771 Y96.803 E4.07372
G1 X101.811 Y96.014 E4.09737
G1 X101.93 Y95.234 E4.12099
G1 X102.128 Y94.469 E4.14464
G1 X102.402 Y93.729 E4.16826
G1 X102.75 Y93.02 E4.19191
G1 X103.168 Y92.349 E4.21557
G1 X103.651 Y91.725 E4.23919
G0 F9000 X104.046 Y91.88
G1 F1200 X104.587 Y91.333 E4.26222
G1 X105.182 Y90.845 E4.28526
G1 X105.824 Y90.422 E4.30827
G1 X106.507 Y90.067 E4.33131
G1 X107.222 Y89.786 E4.35431
G1 X107.964 Y89.58 E4.37736
G1 X108.722 Y89.452 E4.40037
G1 X109.571 Y89.403 E4.42583
G1 X113.85 Y89.403 E4.55392
G1 X114.18 Y89.224 E4.56515
G1 X114.373 Y89.134 E4.57153
G1 X115.086 Y88.846 E4.59455
G1 X115.739 Y88.654 E4.61492
G1 X115.89 Y88.617 E4.61957
G1 X116.645 Y88.473 E4.64258
G1 X117.651 Y88.404 E4.67277
G1 X117.96 Y88.404 E4.68202
G1 X118.728 Y88.444 E4.70504
G1 X119.488 Y88.563 E4.72806
G1 X120.187 Y88.747 E4.7497
G1 X120.393 Y88.812 E4.75617
G1 X121.452 Y89.239 E4.79035
G1 X121.682 Y89.353 E4.79803
G1 X122.353 Y89.73 E4.82107
G1 X122.98 Y90.174 E4.84407
G1 X123.47 Y90.597 E4.86345
G1 X123.66 Y90.776 E4.87126
G1 X124.192 Y91.332 E4.89429
G1 X124.663 Y91.94 E4.91732
G1 X125.015 Y92.498 E4.93707
G1 X125.117 Y92.677 E4.94323
G1 X125.463 Y93.364 E4.96626
G1 X125.659 Y93.858 E4.98217
G1 X125.763 Y94.15 E4.99145
G1 X125.983 Y94.887 E5.01447
G1 X126.125 Y95.643 E5.03749
G1 X126.181 Y96.235 E5.05529
G1 X126.193 Y96.458 E5.06198
G1 X126.195 Y97.228 E5.08503
G1 X126.166 Y97.475 E5.09247
G1 X126.166 Y104.577 E5.30507
G1 X126.685 Y104.544 E5.32063
G1 X127.453 Y104.576 E5.34364
G1 X128.214 Y104.687 E5.36666
G1 X128.96 Y104.877 E5.38971
G1 X129.681 Y105.143 E5.41271
G1 X130.372 Y105.482 E5.43575
G1 X131.023 Y105.891 E5.45876
G1 X131.628 Y106.366 E5.48179
G1 X132.181 Y106.9 E5.5048
G1 X132.675 Y107.49 E5.52784
G1 X133.106 Y108.127 E5.55086
G1 X133.468 Y108.806 E5.57389
G1 X133.803 Y109.654 E5.60119
G1 X134.3 Y111.181 E5.64925
G1 X134.499 Y111.924 E5.67228
G1 X134.621 Y112.683 E5.69529
G1 X134.663 Y113.451 E5.71832
G1 X134.625 Y114.219 E5.74133
G1 X134.508 Y114.979 E5.76435
G1 X134.3 Y115.761 E5.78857
G1 X133.803 Y117.288 E5.83664
G1 X133.527 Y118.006 E5.85967
G1 X133.178 Y118.692 E5.88271
G1 X132.76 Y119.337 E5.90572
G1 X132.277 Y119.936 E5.92875
G1 X131.735 Y120.482 E5.95178
G1 X131.139 Y120.968 E5.9748
G1 X130.496 Y121.389 E5.9978
G1 X129.812 Y121.742 E6.02085
G1 X129.096 Y122.022 E6.04386
G1 X128.354 Y122.226 E6.06689
G1 X127.595 Y122.351 E6.08992
G1 X126.827 Y122.398 E6.11295
G1 X126.166 Y122.369 E6.13276
G1 X126.178 Y122.525 E6.13744
G1 X126.192 Y123.568 E6.16867
G1 X126.18 Y123.777 E6.17493
G1 X126.096 Y124.542 E6.19797
G1 X125.965 Y125.173 E6.21726
G1 X125.914 Y125.374 E6.22347
G1 X125.686 Y126.109 E6.2465
G1 X125.269 Y127.038 E6.27699
G1 X125.166 Y127.231 E6.28353
G1 X124.842 Y127.78 E6.30262
G1 X124.79 Y127.86 E6.30547
G1 X124.338 Y128.482 E6.32849
G1 X123.784 Y129.094 E6.3532
G1 X123.63 Y129.246 E6.35968
G1 X123.056 Y129.757 E6.38268
G1 X122.472 Y130.179 E6.40425
G1 X122.294 Y130.295 E6.41061
G1 X121.629 Y130.681 E6.43363
G1 X120.946 Y130.988 E6.45604
G1 X120.754 Y131.063 E6.46221
G1 X120.024 Y131.305 E6.48523
G1 X119.31 Y131.464 E6.50713
G1 X119.158 Y131.49 E6.51175
G1 X118.394 Y131.58 E6.53477
G1 X117.91 Y131.596 E6.54927
G1 X117.701 Y131.596 E6.55553
G1 X116.933 Y131.556 E6.57855
G1 X115.882 Y131.369 E6.6105
G1 X115.677 Y131.317 E6.61683
G1 X114.76 Y131.02 E6.64569
G1 X114.569 Y130.944 E6.65184
G1 X113.87 Y130.623 E6.67486
G1 X113.828 Y130.597 E6.67634
G1 X104.982 Y130.597 E6.94114
G1 X104.077 Y130.541 E6.96828
G1 X103.655 Y130.489 E6.98101
G1 X103.218 Y130.422 E6.99424
G1 X103.012 Y130.384 E7.00051
G1 X102.543 Y130.282 E7.01488
G1 X102.139 Y130.18 E7.02735
G1 X101.193 Y129.872 E7.05713
G1 X100.802 Y129.715 E7.06975
G1 X100.467 Y129.571 E7.08066
G1 X100.28 Y129.485 E7.08682
G1 X99.701 Y129.187 E7.10632
G1 X99.344 Y128.983 E7.11862
G1 X98.748 Y128.604 E7.13977
G1 X98.398 Y128.357 E7.15259
G1 X97.652 Y127.754 E7.1813
G1 X97.348 Y127.474 E7.19368
G1 X96.908 Y127.033 E7.21232
G1 X96.764 Y126.876 E7.2187
G1 X96.577 Y126.665 E7.22714
G1 X96.436 Y126.499 E7.23366
G1 X96.204 Y126.211 E7.24473
G1 X96.079 Y126.048 E7.25088
G1 X95.872 Y125.765 E7.26137
G1 X95.754 Y125.595 E7.26757
G1 X95.584 Y125.339 E7.27677
G1 X95.473 Y125.164 E7.28297
G1 X95.11 Y124.524 E7.305
G1 X94.996 Y124.302 E7.31247
G1 X94.653 Y123.563 E7.33685
G1 X94.575 Y123.367 E7.34317
G1 X94.406 Y122.897 E7.35812
G1 X94.278 Y122.499 E7.37063
G1 X94.155 Y122.07 E7.38399
G1 X94.104 Y121.871 E7.39014
G1 X93.989 Y121.346 E7.40623
G1 X93.951 Y121.135 E7.41265
G1 X93.887 Y120.703 E7.42572
G1 X93.861 Y120.486 E7.43226
G1 X93.821 Y120.041 E7.44564
G1 X93.809 Y119.837 E7.45176
G1 X93.796 Y119.402 E7.46478
G1 X93.796 Y118.979 E7.47744
G1 X93.809 Y118.544 E7.49047
G1 X93.821 Y118.34 E7.49659
G1 X93.871 Y117.809 E7.51255
G1 X93.898 Y117.604 E7.51874
G1 X93.952 Y117.262 E7.52911
G1 X93.989 Y117.056 E7.53537
G1 X94.108 Y116.512 E7.55204
G1 X94.161 Y116.307 E7.55838
G1 X94.261 Y115.954 E7.56936
G1 X94.38 Y115.581 E7.58108
G1 X94.445 Y115.389 E7.58715
G1 X94.591 Y114.995 E7.59973
G1 X94.668 Y114.804 E7.60589
G1 X94.996 Y114.099 E7.62917
G1 X95.135 Y113.833 E7.63815
G1 X95.488 Y113.217 E7.65941
G1 X95.718 Y112.857 E7.67219
G1 X96.109 Y112.303 E7.69249
G1 X96.234 Y112.142 E7.69859
G1 X96.632 Y111.671 E7.71705
G1 X96.918 Y111.36 E7.7297
G1 X97.358 Y110.92 E7.74833
G1 X97.666 Y110.637 E7.76085
G1 X98.177 Y110.209 E7.7808
G1 X98.343 Y110.082 E7.78706
G1 X98.847 Y109.728 E7.80549
G1 X99.206 Y109.498 E7.81825
G1 X99.507 Y109.315 E7.8288
G1 X99.686 Y109.212 E7.83498
G1 X100.294 Y108.899 E7.85545
G1 X100.486 Y108.811 E7.86177
G1 X100.827 Y108.665 E7.87288
G1 X101.02 Y108.588 E7.8791
G1 X101.399 Y108.448 E7.89119
G1 X101.761 Y108.329 E7.9026
G1 X102.171 Y108.208 E7.91539
G1 X102.171 Y96.803 E8.25679
G1 X102.211 Y96.035 E8.27981
G1 X102.33 Y95.275 E8.30284
G1 X102.528 Y94.532 E8.32586
G1 X102.802 Y93.813 E8.34889
G1 X103.149 Y93.127 E8.3719
G1 X103.565 Y92.48 E8.39493
G1 X104.046 Y91.88 E8.41795
G0 F9000 X104.442 Y92.04
G1 F1200 X104.979 Y91.519 E8.44034
G1 X105.569 Y91.06 E8.46272
G1 X106.205 Y90.665 E8.48513
G1 X106.879 Y90.341 E8.50752
G1 X107.584 Y90.091 E8.52991
G1 X108.312 Y89.917 E8.55231
G1 X109.054 Y89.822 E8.57471
G1 X109.571 Y89.803 E8.59019
G1 X113.948 Y89.803 E8.72121
G1 X114.349 Y89.587 E8.73485
G1 X114.542 Y89.497 E8.74122
G1 X115.235 Y89.217 E8.7636
G1 X115.834 Y89.042 E8.78228
G1 X115.985 Y89.005 E8.78693
G1 X116.72 Y88.866 E8.80932
G1 X117.651 Y88.804 E8.83725
G1 X117.96 Y88.804 E8.8465
G1 X118.707 Y88.844 E8.8689
G1 X119.445 Y88.963 E8.89127
G1 X120.066 Y89.128 E8.91051
G1 X120.272 Y89.193 E8.91697
G1 X121.275 Y89.597 E8.94934
G1 X121.505 Y89.711 E8.95702
G1 X122.156 Y90.079 E8.97941
G1 X122.765 Y90.514 E9.00181
G1 X123.196 Y90.888 E9.01889
G1 X123.386 Y91.067 E9.02671
G1 X123.902 Y91.608 E9.04909
G1 X124.358 Y92.202 E9.0715
G1 X124.668 Y92.696 E9.08896
G1 X124.77 Y92.875 E9.09513
G1 X125.105 Y93.544 E9.11753
G1 X125.282 Y93.992 E9.13194
G1 X125.386 Y94.284 E9.14122
G1 X125.599 Y95.001 E9.16361
G1 X125.734 Y95.737 E9.18601
G1 X125.782 Y96.257 E9.20164
G1 X125.794 Y96.48 E9.20833
G1 X125.794 Y97.228 E9.23072
G1 X125.766 Y97.466 E9.23789
G1 X125.766 Y105.025 E9.46416
G1 X126.249 Y104.963 E9.47874
G1 X126.997 Y104.948 E9.50114
G1 X127.742 Y105.012 E9.52352
G1 X128.476 Y105.156 E9.54591
G1 X129.191 Y105.377 E9.56831
G1 X129.878 Y105.674 E9.59072
G1 X130.529 Y106.041 E9.61309
G1 X131.137 Y106.477 E9.63548
G1 X131.696 Y106.974 E9.65787
G1 X132.198 Y107.529 E9.68027
G1 X132.638 Y108.134 E9.70267
G1 X133.011 Y108.782 E9.72505
G1 X133.422 Y109.778 E9.7573
G1 X133.919 Y111.305 E9.80537
G1 X134.112 Y112.027 E9.82774
G1 X134.227 Y112.766 E9.85013
G1 X134.263 Y113.514 E9.87255
G1 X134.218 Y114.26 E9.89492
G1 X134.094 Y114.998 E9.91732
G1 X133.919 Y115.637 E9.93715
G1 X133.422 Y117.164 E9.98522
G1 X133.153 Y117.862 E10.00761
G1 X132.811 Y118.528 E10.03002
G1 X132.4 Y119.153 E10.05242
G1 X131.924 Y119.73 E10.07481
G1 X131.39 Y120.253 E10.09718
G1 X130.803 Y120.717 E10.11958
G1 X130.169 Y121.115 E10.14199
G1 X129.497 Y121.443 E10.16437
G1 X128.794 Y121.698 E10.18676
G1 X128.067 Y121.876 E10.20916
G1 X127.326 Y121.976 E10.23154
G1 X126.578 Y121.995 E10.25394
G1 X125.832 Y121.935 E10.27634
G1 X125.766 Y121.923 E10.27835
G1 X125.766 Y122.468 E10.29467
G1 X125.781 Y122.579 E10.29802
G1 X125.792 Y123.545 E10.32694
G1 X125.78 Y123.754 E10.3332
G1 X125.698 Y124.498 E10.35561
G1 X125.577 Y125.075 E10.37326
G1 X125.526 Y125.276 E10.37947
G1 X125.304 Y125.99 E10.40185
G1 X124.917 Y126.85 E10.43008
G1 X124.814 Y127.043 E10.43663
G1 X124.507 Y127.562 E10.45468
G1 X124.455 Y127.642 E10.45753
G1 X124.014 Y128.246 E10.47992
G1 X123.503 Y128.809 E10.50268
G1 X123.349 Y128.961 E10.50916
G1 X122.79 Y129.457 E10.53153
G1 X122.254 Y129.844 E10.55132
G1 X122.076 Y129.96 E10.55768
G1 X121.428 Y130.334 E10.58007
G1 X120.801 Y130.615 E10.60064
G1 X120.609 Y130.69 E10.60681
G1 X119.899 Y130.925 E10.6292
G1 X119.242 Y131.07 E10.64934
G1 X119.09 Y131.096 E10.65395
G1 X118.347 Y131.182 E10.67634
G1 X117.91 Y131.196 E10.68943
G1 X117.701 Y131.196 E10.69569
G1 X116.954 Y131.156 E10.71808
G1 X115.98 Y130.981 E10.7477
