;FLAVOR:Marlin
;TIME:747
;Filament used: 0.407223m
;Layer height: 0.2
;MINX:86.707
;MINY:88.856
;MINZ:0.2
;MAXX:133.293
;MAXY:131.143
;MAXZ:6.2
;Generated with Cura_SteamEngine 4.10.0
M140 S70
M105
M190 S70
M104 S210
M105
M109 S210
M82 ;absolute extrusion mode
; Ender 3 Custom Start G-code
G92 E0 ; Reset Extruder
G28 ; Home all axes
G1 Z2.0 F3000 ; Move Z Axis up little to prevent scratching of Heat Bed
G1 X0.1 Y20 Z0.3 F5000.0 ; Move to start position
G1 X0.1 Y200.0 Z0.3 F1500.0 E15 ; Draw the first line
G1 X0.4 Y200.0 Z0.3 F5000.0 ; Move to side a little
G1 X0.4 Y20 Z0.3 F1500.0 E30 ; Draw the second line
G92 E0 ; Reset Extruder
G1 Z2.0 F3000 ; Move Z Axis up little to prevent scratching of Heat Bed
G1 X5 Y20 Z0.3 F5000.0 ; Move over to prevent blob squish
G92 E0
G92 E0
G1 F1500 E-6.5
;LAYER_COUNT:30
;LAYER:0
M107
G1 F300 Z0.4
G0 F9000 X93.666 Y93.383 Z0.4
;TYPE:SKIRT
G1 F300 Z0.2
G1 F1500 E0
G1 F1200 X94.249 Y92.826 E0.02414
G1 X94.624 Y92.49 E0.03921
G1 X95.245 Y91.969 E0.06347
G1 X95.502 Y91.763 E0.07333
G1 X96.135 Y91.276 E0.09724
G1 X96.491 Y91.018 E0.1104
G1 X97.173 Y90.552 E0.13513
G1 X97.476 Y90.355 E0.14594
G1 X97.787 Y90.163 E0.15689
G1 X98.479 Y89.783 E0.18052
G1 X99.206 Y89.474 E0.20416
G1 X99.96 Y89.241 E0.22779
G1 X100.734 Y89.085 E0.25142
G1 X101.884 Y89 E0.28594
G1 X103.514 Y89 E0.33473
G1 X103.779 Y88.957 E0.34277
G1 X104.013 Y88.926 E0.34983
G1 X105.035 Y88.858 E0.3805
G1 X114.896 Y88.856 E0.67568
G1 X115.282 Y88.865 E0.68723
G1 X115.505 Y88.876 E0.69392
G1 X116.291 Y88.955 E0.71756
G1 X116.511 Y89 E0.72429
G1 X118.116 Y89 E0.77233
G1 X118.905 Y89.04 E0.79598
G1 X119.685 Y89.159 E0.8196
G1 X120.45 Y89.357 E0.84325
G1 X121.19 Y89.631 E0.86687
G1 X122.22 Y90.167 E0.90163
G1 X122.553 Y90.373 E0.91335
G1 X122.862 Y90.574 E0.92438
G1 X123.531 Y91.033 E0.94867
G1 X123.871 Y91.28 E0.96125
G1 X124.506 Y91.768 E0.98522
G1 X124.778 Y91.987 E0.99568
G1 X125.406 Y92.516 E1.02026
G1 X125.789 Y92.861 E1.03569
G1 X126.371 Y93.421 E1.05986
G1 X126.646 Y93.699 E1.07157
G1 X127.196 Y94.284 E1.0956
G1 X127.385 Y94.493 E1.10404
G1 X127.927 Y95.113 E1.12869
G1 X128.233 Y95.486 E1.14313
G1 X128.72 Y96.118 E1.16702
G1 X128.979 Y96.474 E1.18019
G1 X129.445 Y97.155 E1.20489
G1 X129.684 Y97.526 E1.2181
G1 X130.104 Y98.221 E1.24241
G1 X130.306 Y98.577 E1.25467
G1 X130.691 Y99.297 E1.27911
G1 X130.859 Y99.63 E1.29027
G1 X131.206 Y100.361 E1.31449
G1 X131.366 Y100.721 E1.32629
G1 X131.675 Y101.467 E1.35046
G1 X131.821 Y101.848 E1.36267
G1 X132.093 Y102.616 E1.38706
G1 X132.212 Y102.978 E1.39846
G1 X132.447 Y103.761 E1.42294
G1 X132.565 Y104.203 E1.43663
G1 X132.75 Y104.983 E1.46063
G1 X132.831 Y105.363 E1.47226
G1 X132.98 Y106.168 E1.49676
G1 X133.036 Y106.518 E1.50737
G1 X133.146 Y107.312 E1.53137
G1 X133.198 Y107.793 E1.54585
G1 X133.259 Y108.598 E1.57002
G1 X133.28 Y109.063 E1.58395
G1 X133.293 Y109.883 E1.6085
G1 X133.293 Y110.141 E1.61622
G1 X133.279 Y110.958 E1.64068
G1 X133.256 Y111.432 E1.65489
G1 X133.193 Y112.238 E1.67909
G1 X133.145 Y112.691 E1.69272
G1 X133.036 Y113.485 E1.71671
G1 X132.975 Y113.857 E1.728
G1 X132.824 Y114.665 E1.7526
G1 X132.748 Y115.027 E1.76368
G1 X132.564 Y115.805 E1.78761
G1 X132.431 Y116.296 E1.80284
G1 X132.191 Y117.079 E1.82735
G1 X132.087 Y117.394 E1.83728
G1 X131.82 Y118.149 E1.86125
G1 X131.679 Y118.515 E1.87299
G1 X131.368 Y119.271 E1.89746
G1 X131.199 Y119.653 E1.90997
G1 X130.851 Y120.385 E1.93423
G1 X130.659 Y120.762 E1.94689
G1 X130.268 Y121.481 E1.97139
G1 X130.079 Y121.81 E1.98275
G1 X129.664 Y122.492 E2.00665
G1 X129.441 Y122.837 E2.01894
G1 X128.975 Y123.519 E2.04367
G1 X128.715 Y123.878 E2.05694
G1 X128.219 Y124.522 E2.08127
G1 X127.947 Y124.856 E2.09417
G1 X127.422 Y125.465 E2.11823
G1 X127.142 Y125.772 E2.13067
G1 X126.574 Y126.364 E2.15523
G1 X126.344 Y126.594 E2.16497
G1 X125.762 Y127.152 E2.1891
G1 X125.444 Y127.441 E2.20197
G1 X124.823 Y127.974 E2.22646
G1 X124.415 Y128.301 E2.24211
G1 X123.78 Y128.776 E2.26585
G1 X123.506 Y128.972 E2.27594
G1 X122.72 Y129.507 E2.3044
G1 X122.409 Y129.712 E2.31555
G1 X121.728 Y130.113 E2.3392
G1 X121.011 Y130.443 E2.36283
G1 X120.264 Y130.699 E2.38647
G1 X119.494 Y130.877 E2.41013
G1 X118.711 Y130.977 E2.43375
G1 X118.116 Y131 E2.45158
G1 X116.502 Y131 E2.49989
G1 X116.256 Y131.043 E2.50737
G1 X115.472 Y131.129 E2.53098
G1 X115.011 Y131.143 E2.54478
G1 X104.962 Y131.142 E2.84559
G1 X104.174 Y131.102 E2.86921
G1 X103.565 Y131 E2.88769
G1 X101.884 Y131 E2.93801
G1 X101.095 Y130.96 E2.96166
G1 X100.315 Y130.841 E2.98528
G1 X99.55 Y130.643 E3.00893
G1 X98.81 Y130.369 E3.03255
G1 X98.101 Y130.021 E3.0562
G1 X97.609 Y129.724 E3.0734
G1 X97.147 Y129.419 E3.08997
G1 X96.477 Y128.959 E3.1143
G1 X96.227 Y128.781 E3.12349
G1 X95.581 Y128.299 E3.14761
G1 X95.144 Y127.947 E3.16441
G1 X94.516 Y127.404 E3.18926
G1 X94.22 Y127.134 E3.20125
G1 X93.638 Y126.576 E3.22539
G1 X93.406 Y126.344 E3.23521
G1 X92.847 Y125.761 E3.25939
G1 X92.558 Y125.443 E3.27225
G1 X92.025 Y124.822 E3.29675
G1 X91.752 Y124.485 E3.30973
G1 X91.258 Y123.84 E3.33405
G1 X91.011 Y123.499 E3.34665
G1 X90.553 Y122.829 E3.37095
G1 X90.321 Y122.468 E3.38379
G1 X89.9 Y121.773 E3.40812
G1 X89.717 Y121.455 E3.4191
G1 X89.333 Y120.748 E3.44318
G1 X89.135 Y120.358 E3.45628
G1 X88.789 Y119.626 E3.48051
G1 X88.623 Y119.249 E3.49284
G1 X88.313 Y118.492 E3.51733
G1 X88.181 Y118.148 E3.52836
G1 X87.912 Y117.391 E3.55241
G1 X87.8 Y117.05 E3.56315
G1 X87.562 Y116.268 E3.58762
G1 X87.428 Y115.771 E3.60303
G1 X87.243 Y114.979 E3.62737
G1 X87.173 Y114.645 E3.63759
G1 X87.024 Y113.852 E3.66174
G1 X86.962 Y113.472 E3.67327
G1 X86.853 Y112.677 E3.69729
G1 X86.803 Y112.207 E3.71144
G1 X86.741 Y111.39 E3.73596
G1 X86.72 Y110.924 E3.74993
G1 X86.707 Y110.105 E3.77445
G1 X86.707 Y109.845 E3.78223
G1 X86.721 Y109.04 E3.80633
G1 X86.742 Y108.587 E3.8199
G1 X86.803 Y107.781 E3.8441
G1 X86.856 Y107.288 E3.85894
G1 X86.969 Y106.481 E3.88334
G1 X87.023 Y106.152 E3.89332
G1 X87.169 Y105.358 E3.91748
G1 X87.255 Y104.948 E3.93002
G1 X87.442 Y104.169 E3.954
G1 X87.559 Y103.738 E3.96737
G1 X87.799 Y102.942 E3.99226
G1 X87.917 Y102.584 E4.00354
G1 X88.189 Y101.818 E4.02787
G1 X88.341 Y101.423 E4.04054
G1 X88.647 Y100.69 E4.06432
G1 X88.802 Y100.344 E4.07567
G1 X89.156 Y99.6 E4.10033
G1 X89.325 Y99.265 E4.11156
G1 X89.71 Y98.547 E4.13595
G1 X89.911 Y98.194 E4.14811
G1 X90.325 Y97.51 E4.17204
G1 X90.568 Y97.133 E4.18547
G1 X91.035 Y96.453 E4.21016
G1 X91.29 Y96.104 E4.2231
G1 X91.787 Y95.46 E4.24745
G1 X92.1 Y95.079 E4.26221
G1 X92.625 Y94.481 E4.28603
G1 X92.8 Y94.289 E4.29381
G1 X93.367 Y93.685 E4.31861
G1 X93.666 Y93.383 E4.33133
G0 F9000 X93.942 Y93.672
G1 F1200 X94.525 Y93.115 E4.35547
G1 X94.881 Y92.797 E4.36976
G1 X95.502 Y92.276 E4.39402
G1 X95.746 Y92.08 E4.40339
G1 X96.379 Y91.593 E4.4273
G1 X96.716 Y91.348 E4.43977
G1 X97.398 Y90.882 E4.46449
G1 X97.686 Y90.695 E4.47477
G1 X97.997 Y90.503 E4.48571
G1 X98.671 Y90.134 E4.50871
G1 X99.381 Y89.836 E4.53176
G1 X100.117 Y89.614 E4.55478
G1 X100.872 Y89.469 E4.57779
G1 X101.884 Y89.4 E4.60815
G1 X103.535 Y89.4 E4.65757
G1 X103.831 Y89.353 E4.66655
G1 X104.065 Y89.322 E4.67361
G1 X105.035 Y89.258 E4.70271
G1 X114.896 Y89.256 E4.99789
G1 X115.263 Y89.265 E5.00888
G1 X115.486 Y89.276 E5.01556
G1 X116.251 Y89.354 E5.03858
G1 X116.472 Y89.4 E5.04534
G1 X118.116 Y89.4 E5.09455
G1 X118.884 Y89.44 E5.11757
G1 X119.644 Y89.559 E5.1406
G1 X120.387 Y89.757 E5.16362
G1 X121.106 Y90.031 E5.18665
G1 X122.009 Y90.507 E5.2172
G1 X122.342 Y90.713 E5.22893
G1 X122.636 Y90.904 E5.23942
G1 X123.305 Y91.363 E5.26371
G1 X123.627 Y91.598 E5.27564
G1 X124.262 Y92.086 E5.29961
G1 X124.52 Y92.293 E5.30951
G1 X125.148 Y92.822 E5.33409
G1 X125.512 Y93.15 E5.34876
G1 X126.094 Y93.71 E5.37294
G1 X126.354 Y93.973 E5.38401
G1 X126.904 Y94.558 E5.40804
G1 X127.084 Y94.757 E5.41607
G1 X127.626 Y95.377 E5.44073
G1 X127.917 Y95.73 E5.45442
G1 X128.404 Y96.362 E5.4783
G1 X128.649 Y96.7 E5.4908
G1 X129.115 Y97.381 E5.5155
G1 X129.341 Y97.733 E5.52802
G1 X129.761 Y98.428 E5.55233
G1 X129.954 Y98.766 E5.56398
G1 X130.339 Y99.486 E5.58842
G1 X130.498 Y99.802 E5.59901
G1 X130.845 Y100.533 E5.62323
G1 X130.997 Y100.874 E5.63441
G1 X131.306 Y101.62 E5.65858
G1 X131.444 Y101.982 E5.67018
G1 X131.716 Y102.75 E5.69456
G1 X131.829 Y103.093 E5.70537
G1 X132.064 Y103.876 E5.72985
G1 X132.176 Y104.295 E5.74283
G1 X132.361 Y105.075 E5.76682
G1 X132.437 Y105.436 E5.77787
G1 X132.586 Y106.241 E5.80237
G1 X132.64 Y106.573 E5.81244
G1 X132.75 Y107.367 E5.83644
G1 X132.799 Y107.823 E5.85017
G1 X132.86 Y108.628 E5.87433
G1 X132.88 Y109.07 E5.88758
G1 X132.893 Y109.89 E5.91213
G1 X132.893 Y110.134 E5.91943
G1 X132.879 Y110.951 E5.94389
G1 X132.857 Y111.401 E5.95738
G1 X132.794 Y112.207 E5.98158
G1 X132.748 Y112.636 E5.99449
G1 X132.639 Y113.43 E6.01848
G1 X132.582 Y113.783 E6.02919
G1 X132.431 Y114.591 E6.05379
G1 X132.358 Y114.935 E6.06432
G1 X132.174 Y115.713 E6.08825
G1 X132.048 Y116.179 E6.1027
G1 X131.808 Y116.962 E6.12721
G1 X131.71 Y117.26 E6.1366
G1 X131.443 Y118.015 E6.16058
G1 X131.31 Y118.363 E6.17173
G1 X130.999 Y119.119 E6.1962
G1 X130.838 Y119.481 E6.20806
G1 X130.49 Y120.213 E6.23232
G1 X130.308 Y120.571 E6.24434
G1 X129.917 Y121.29 E6.26884
G1 X129.738 Y121.602 E6.27961
G1 X129.323 Y122.284 E6.30351
G1 X129.111 Y122.612 E6.3152
G1 X128.645 Y123.294 E6.33992
G1 X128.398 Y123.634 E6.3525
G1 X127.902 Y124.278 E6.37683
G1 X127.644 Y124.595 E6.38907
G1 X127.119 Y125.204 E6.41314
G1 X126.854 Y125.495 E6.42492
G1 X126.286 Y126.087 E6.44948
G1 X126.067 Y126.306 E6.45875
G1 X125.485 Y126.864 E6.48288
G1 X125.184 Y127.137 E6.49505
G1 X124.563 Y127.67 E6.51955
G1 X124.176 Y127.981 E6.53441
G1 X123.541 Y128.456 E6.55815
G1 X123.281 Y128.641 E6.5677
G1 X122.5 Y129.173 E6.59598
G1 X122.189 Y129.378 E6.60713
G1 X121.525 Y129.768 E6.63019
G1 X120.825 Y130.086 E6.6532
G1 X120.096 Y130.33 E6.67621
G1 X119.345 Y130.497 E6.69924
G1 X118.581 Y130.585 E6.72226
G1 X118.116 Y130.6 E6.73619
G1 X116.461 Y130.6 E6.78573
G1 X116.193 Y130.648 E6.79388
G1 X115.428 Y130.731 E6.81691
G1 X115.011 Y130.743 E6.8294
G1 X104.962 Y130.742 E7.13021
G1 X104.194 Y130.702 E7.15323
G1 X103.589 Y130.6 E7.1716
G1 X101.884 Y130.6 E7.22263
G1 X101.116 Y130.56 E7.24565
G1 X100.356 Y130.441 E7.26868
G1 X99.613 Y130.243 E7.2917
G1 X98.894 Y129.969 E7.31473
G1 X98.208 Y129.622 E7.33774
G1 X97.828 Y129.39 E7.35107
G1 X97.506 Y129.179 E7.36259
G1 X96.704 Y128.63 E7.39169
G1 X96.467 Y128.46 E7.40042
G1 X95.821 Y127.978 E7.42455
G1 X95.406 Y127.645 E7.44047
G1 X94.778 Y127.102 E7.46532
G1 X94.497 Y126.846 E7.4767
G1 X93.915 Y126.288 E7.50084
G1 X93.695 Y126.067 E7.51017
G1 X93.136 Y125.484 E7.53435
G1 X92.862 Y125.183 E7.54654
G1 X92.329 Y124.562 E7.57103
G1 X92.069 Y124.242 E7.58337
G1 X91.575 Y123.597 E7.60769
G1 X91.341 Y123.273 E7.61966
G1 X90.883 Y122.603 E7.64395
G1 X90.663 Y122.261 E7.65612
G1 X90.242 Y121.566 E7.68045
G1 X90.068 Y121.264 E7.69088
G1 X89.684 Y120.557 E7.71496
G1 X89.497 Y120.187 E7.72737
G1 X89.151 Y119.455 E7.75161
G1 X88.993 Y119.097 E7.76332
G1 X88.683 Y118.34 E7.78781
G1 X88.558 Y118.014 E7.79826
G1 X88.289 Y117.257 E7.82231
G1 X88.183 Y116.934 E7.83249
G1 X87.945 Y116.152 E7.85696
G1 X87.818 Y115.68 E7.87159
G1 X87.633 Y114.888 E7.89593
G1 X87.566 Y114.572 E7.9056
G1 X87.417 Y113.779 E7.92976
G1 X87.359 Y113.417 E7.94073
G1 X87.25 Y112.622 E7.96475
G1 X87.202 Y112.177 E7.97815
G1 X87.14 Y111.36 E8.00267
G1 X87.12 Y110.917 E8.01595
G1 X87.107 Y110.098 E8.04047
G1 X87.107 Y109.852 E8.04783
G1 X87.121 Y109.047 E8.07193
G1 X87.141 Y108.618 E8.08479
G1 X87.202 Y107.812 E8.10898
G1 X87.252 Y107.344 E8.12307
G1 X87.365 Y106.537 E8.14747
G1 X87.416 Y106.225 E8.15693
G1 X87.562 Y105.431 E8.18109
G1 X87.644 Y105.042 E8.193
G1 X87.831 Y104.263 E8.21698
G1 X87.942 Y103.854 E8.22966
G1 X88.182 Y103.058 E8.25455
G1 X88.294 Y102.718 E8.26526
G1 X88.566 Y101.952 E8.2896
G1 X88.71 Y101.577 E8.30162
G1 X89.016 Y100.844 E8.3254
G1 X89.163 Y100.516 E8.33616
G1 X89.517 Y99.772 E8.36082
G1 X89.677 Y99.454 E8.37148
G1 X90.062 Y98.736 E8.39586
G1 X90.253 Y98.401 E8.40741
G1 X90.667 Y97.717 E8.43134
G1 X90.898 Y97.36 E8.44407
G1 X91.365 Y96.68 E8.46876
G1 X91.607 Y96.348 E8.48106
G1 X92.104 Y95.704 E8.50541
G1 X92.401 Y95.343 E8.51941
G1 X92.926 Y94.745 E8.54323
G1 X93.092 Y94.562 E8.55062
G1 X93.659 Y93.958 E8.57542
G1 X93.942 Y93.672 E8.58746
G0 F9000 X94.218 Y93.962
G1 F1200 X94.801 Y93.405 E8.6116
G1 X95.138 Y93.103 E8.62515
G1 X95.759 Y92.582 E8.64941
G1 X95.99 Y92.397 E8.65827
G1 X96.623 Y91.91 E8.68218
G1 X96.942 Y91.678 E8.69398
G1 X97.624 Y91.212 E8.71871
G1 X97.896 Y91.036 E8.72841
G1 X98.207 Y90.844 E8.73935
G1 X98.863 Y90.485 E8.76173
G1 X99.555 Y90.199 E8.78415
G1 X100.272 Y89.988 E8.80652
G1 X101.008 Y89.855 E8.82891
G1 X101.884 Y89.8 E8.85518
G1 X103.645 Y89.8 E8.9079
G1 X104.118 Y89.719 E8.92226
G1 X105.036 Y89.658 E8.9498
G1 X114.897 Y89.656 E9.24498
G1 X115.243 Y89.665 E9.25534
G1 X115.466 Y89.676 E9.26203
G1 X116.21 Y89.752 E9.28441
G1 X116.435 Y89.8 E9.2913
G1 X118.116 Y89.8 E9.34162
G1 X118.863 Y89.84 E9.36401
G1 X119.601 Y89.959 E9.38639
G1 X120.323 Y90.157 E9.4088
G1 X121.019 Y90.43 E9.43118
G1 X121.799 Y90.847 E9.45765
G1 X122.132 Y91.053 E9.46938
G1 X122.409 Y91.234 E9.47928
G1 X123.078 Y91.693 E9.50357
G1 X123.383 Y91.915 E9.51486
G1 X124.018 Y92.403 E9.53883
G1 X124.263 Y92.599 E9.54822
G1 X124.891 Y93.128 E9.5728
G1 X125.234 Y93.438 E9.58664
G1 X125.816 Y93.998 E9.61082
G1 X126.063 Y94.247 E9.62132
G1 X126.613 Y94.832 E9.64535
G1 X126.783 Y95.02 E9.65294
G1 X127.325 Y95.64 E9.67759
G1 X127.6 Y95.974 E9.69054
G1 X128.087 Y96.606 E9.71443
G1 X128.319 Y96.926 E9.72626
G1 X128.785 Y97.607 E9.75096
G1 X128.999 Y97.94 E9.76281
G1 X129.419 Y98.635 E9.78712
G1 X129.601 Y98.954 E9.79811
G1 X129.986 Y99.674 E9.82255
G1 X130.137 Y99.973 E9.83258
G1 X130.484 Y100.704 E9.8568
G1 X130.627 Y101.027 E9.86737
G1 X130.936 Y101.773 E9.89154
G1 X131.067 Y102.115 E9.90251
G1 X131.339 Y102.883 E9.92689
G1 X131.446 Y103.208 E9.93714
G1 X131.681 Y103.991 E9.96161
G1 X131.787 Y104.388 E9.97391
G1 X131.972 Y105.168 E9.9979
G1 X132.044 Y105.509 E10.00834
G1 X132.193 Y106.314 E10.03284
G1 X132.244 Y106.627 E10.04234
G1 X132.354 Y107.421 E10.06633
G1 X132.4 Y107.853 E10.07934
G1 X132.461 Y108.658 E10.1035
G1 X132.48 Y109.076 E10.11603
G1 X132.493 Y109.896 E10.14058
G1 X132.493 Y110.127 E10.14749
G1 X132.479 Y110.944 E10.17195
G1 X132.459 Y111.369 E10.18469
G1 X132.396 Y112.175 E10.20889
G1 X132.352 Y112.582 E10.22114
G1 X132.243 Y113.376 E10.24513
G1 X132.189 Y113.71 E10.25526
G1 X132.038 Y114.518 E10.27987
G1 X131.969 Y114.843 E10.28981
G1 X131.785 Y115.621 E10.31374
G1 X131.666 Y116.061 E10.32739
G1 X131.426 Y116.844 E10.3519
G1 X131.332 Y117.127 E10.36083
G1 X131.065 Y117.882 E10.3848
G1 X130.94 Y118.211 E10.39533
G1 X130.629 Y118.967 E10.4198
G1 X130.477 Y119.31 E10.43104
G1 X130.129 Y120.042 E10.4553
G1 X129.957 Y120.38 E10.46665
G1 X129.566 Y121.099 E10.49115
G1 X129.396 Y121.394 E10.50134
G1 X128.981 Y122.076 E10.52524
G1 X128.781 Y122.386 E10.53628
G1 X128.315 Y123.068 E10.56101
G1 X128.081 Y123.39 E10.57292
G1 X127.585 Y124.034 E10.59725
G1 X127.341 Y124.334 E10.60883
G1 X126.816 Y124.943 E10.6329
G1 X126.565 Y125.218 E10.64404
G1 X125.997 Y125.81 E10.6686
G1 X125.79 Y126.017 E10.67737
G1 X125.208 Y126.575 E10.7015
G1 X124.923 Y126.834 E10.71303
G1 X124.302 Y127.367 E10.73753
G1 X123.936 Y127.66 E10.75156
G1 X123.301 Y128.135 E10.7753
G1 X123.055 Y128.311 E10.78435
G1 X122.279 Y128.84 E10.81247
G1 X121.968 Y129.045 E10.82362
G1 X121.323 Y129.422 E10.84598
G1 X120.64 Y129.729 E10.86839
