;FLAVOR:Marlin
;TIME:2341
;Filament used: 1.66481m
;Layer height: 0.2
;MINX:52.235
;MINY:93.112
;MINZ:0.2
;MAXX:166.099
;MAXY:126.301
;MAXZ:7.8
;Generated with Cura_SteamEngine 4.10.0
M140 S70
M105
M190 S70
M104 S210
M105
M109 S210
M82 ;absolute extrusion mode
; Ender 3 Custom Start G-code
G92 E0 ; Reset Extruder
G28 ; Home all axes
G1 Z2.0 F3000 ; Move Z Axis up little to prevent scratching of Heat Bed
G1 X0.1 Y20 Z0.3 F5000.0 ; Move to start position
G1 X0.1 Y200.0 Z0.3 F1500.0 E15 ; Draw the first line
G1 X0.4 Y200.0 Z0.3 F5000.0 ; Move to side a little
G1 X0.4 Y20 Z0.3 F1500.0 E30 ; Draw the second line
G92 E0 ; Reset Extruder
G1 Z2.0 F3000 ; Move Z Axis up little to prevent scratching of Heat Bed
G1 X5 Y20 Z0.3 F5000.0 ; Move over to prevent blob squish
G92 E0
G92 E0
G1 F1500 E-6.5
;LAYER_COUNT:38
;LAYER:0
M107
G1 F300 Z0.4
G0 F9000 X55.907 Y94.297 Z0.4
;TYPE:SKIRT
G1 F300 Z0.2
G1 F1500 E0
G1 F1200 X56.597 Y93.913 E0.02364
G1 X57.322 Y93.601 E0.04726
G1 X58.076 Y93.364 E0.07092
G1 X58.849 Y93.205 E0.09455
G1 X59.635 Y93.124 E0.1182
G1 X60.036 Y93.114 E0.13021
G1 X130.403 Y93.112 E2.23658
G1 X130.555 Y93.115 E2.24113
G1 X130.973 Y93.116 E2.25364
G1 X131.762 Y93.158 E2.2773
G1 X132.542 Y93.279 E2.30092
G1 X133.306 Y93.478 E2.32456
G1 X134.046 Y93.754 E2.3482
G1 X134.754 Y94.103 E2.37183
G1 X135.424 Y94.522 E2.39548
G1 X136.048 Y95.006 E2.41912
G1 X136.619 Y95.551 E2.44275
G1 X137.132 Y96.151 E2.46638
G1 X137.583 Y96.8 E2.49004
G1 X137.965 Y97.491 E2.51367
G1 X138.275 Y98.217 E2.5373
G1 X138.511 Y98.971 E2.56095
G1 X138.669 Y99.745 E2.5846
G1 X138.757 Y100.916 E2.61975
G1 X138.757 Y101.713 E2.64361
G1 X139.814 Y101.755 E2.67527
G1 X141.978 Y101.877 E2.74015
G1 X144.292 Y102.045 E2.8096
G1 X144.527 Y102.065 E2.81666
G1 X149.045 Y102.533 E2.95263
G1 X151.282 Y102.8 E3.02007
G1 X151.51 Y102.83 E3.02695
G1 X153.832 Y103.178 E3.09723
G1 X158.195 Y103.898 E3.2296
G1 X158.434 Y103.941 E3.23687
G1 X159.808 Y104.212 E3.27879
G1 X160.574 Y104.404 E3.30243
G1 X161.317 Y104.673 E3.32609
G1 X162.029 Y105.015 E3.34973
G1 X162.702 Y105.427 E3.37335
G1 X163.331 Y105.905 E3.397
G1 X163.908 Y106.444 E3.42064
G1 X164.427 Y107.039 E3.44427
G1 X164.884 Y107.684 E3.46793
G1 X165.273 Y108.371 E3.49157
G1 X165.59 Y109.094 E3.5152
G1 X165.833 Y109.845 E3.53883
G1 X165.999 Y110.617 E3.56246
G1 X166.085 Y111.402 E3.5861
G1 X166.099 Y111.865 E3.59997
G1 X166.099 Y118.511 E3.79891
G1 X166.059 Y119.3 E3.82256
G1 X165.94 Y120.08 E3.84618
G1 X165.742 Y120.845 E3.86983
G1 X165.468 Y121.585 E3.89345
G1 X165.12 Y122.294 E3.91709
G1 X164.702 Y122.965 E3.94076
G1 X164.219 Y123.589 E3.96438
G1 X163.676 Y124.162 E3.98801
G1 X163.077 Y124.677 E4.01166
G1 X162.429 Y125.128 E4.03529
G1 X161.738 Y125.512 E4.05895
G1 X161.013 Y125.824 E4.08258
G1 X160.26 Y126.061 E4.10621
G1 X159.486 Y126.22 E4.12986
G1 X158.701 Y126.301 E4.15349
G1 X157.911 Y126.301 E4.17713
G1 X157.125 Y126.222 E4.20078
G1 X156.684 Y126.142 E4.2142
G1 X156.62 Y126.128 E4.21616
G1 X156.048 Y126.025 E4.23356
G1 X155.911 Y125.994 E4.23776
G1 X154.977 Y125.841 E4.26609
G1 X154.427 Y125.74 E4.28283
G1 X154.205 Y125.69 E4.28964
G1 X153.915 Y125.635 E4.29848
G1 X153.499 Y125.579 E4.31104
G1 X153.236 Y125.54 E4.319
G1 X152.232 Y125.371 E4.34948
G1 X152.04 Y125.336 E4.35532
G1 X151.716 Y125.273 E4.3652
G1 X149.673 Y124.999 E4.4269
G1 X149.441 Y124.964 E4.43393
G1 X148.448 Y124.8 E4.46405
G1 X148.153 Y124.761 E4.47296
G1 X147.23 Y124.667 E4.50073
G1 X146.981 Y124.638 E4.50824
G1 X145.399 Y124.426 E4.55602
G1 X144.025 Y124.301 E4.59732
G1 X143.701 Y124.265 E4.60707
G1 X143.284 Y124.209 E4.61967
G1 X142.605 Y124.166 E4.64003
G1 X142.368 Y124.143 E4.64716
G1 X141.775 Y124.096 E4.66497
G1 X141.358 Y124.052 E4.67752
G1 X141.064 Y124.019 E4.68638
G1 X140.566 Y123.975 E4.70134
G1 X139.765 Y123.919 E4.72538
G1 X139.304 Y123.891 E4.7392
G1 X139.174 Y123.878 E4.74311
G1 X138.027 Y123.806 E4.77752
G1 X137.585 Y123.796 E4.79075
G1 X136.256 Y123.713 E4.83061
G1 X136.167 Y123.709 E4.83328
G1 X135.735 Y124.081 E4.85034
G1 X135.087 Y124.532 E4.87398
G1 X134.396 Y124.916 E4.89764
G1 X133.671 Y125.228 E4.92127
G1 X132.918 Y125.465 E4.9449
G1 X132.144 Y125.624 E4.96855
G1 X131.359 Y125.705 E4.99217
G1 X130.957 Y125.715 E5.00421
G1 X130.026 Y125.715 E5.03208
G1 X129.704 Y125.709 E5.04172
G1 X61.158 Y125.709 E7.09358
G1 X60.049 Y125.711 E7.12678
G1 X59.26 Y125.672 E7.15043
G1 X58.48 Y125.554 E7.17404
G1 X57.715 Y125.358 E7.19768
G1 X56.974 Y125.085 E7.22132
G1 X56.264 Y124.739 E7.24496
G1 X55.593 Y124.322 E7.26861
G1 X54.967 Y123.84 E7.29226
G1 X54.394 Y123.298 E7.31587
G1 X53.878 Y122.7 E7.33951
G1 X53.425 Y122.053 E7.36316
G1 X53.04 Y121.363 E7.38681
G1 X52.727 Y120.638 E7.41045
G1 X52.489 Y119.885 E7.43409
G1 X52.328 Y119.112 E7.45772
G1 X52.246 Y118.327 E7.48135
G1 X52.235 Y117.911 E7.4938
G1 X52.236 Y100.914 E8.00259
G1 X52.276 Y100.125 E8.02624
G1 X52.396 Y99.344 E8.0499
G1 X52.593 Y98.58 E8.07351
G1 X52.868 Y97.839 E8.09717
G1 X53.215 Y97.13 E8.1208
G1 X53.633 Y96.46 E8.14444
G1 X54.116 Y95.835 E8.16809
G1 X54.66 Y95.263 E8.19171
G1 X55.259 Y94.748 E8.21536
G1 X55.907 Y94.297 E8.23899
G0 F9000 X56.29 Y94.532
G1 F1200 X56.972 Y94.178 E8.262
G1 X57.688 Y93.896 E8.28503
G1 X58.429 Y93.691 E8.30804
G1 X59.187 Y93.563 E8.33106
G1 X60.036 Y93.514 E8.35651
G1 X130.403 Y93.512 E10.46289
G1 X130.546 Y93.515 E10.46717
G1 X130.972 Y93.516 E10.47992
G1 X131.74 Y93.558 E10.50294
G1 X132.5 Y93.679 E10.52598
G1 X133.243 Y93.878 E10.54901
G1 X133.961 Y94.153 E10.57202
G1 X134.647 Y94.501 E10.59505
G1 X135.293 Y94.919 E10.61808
G1 X135.892 Y95.402 E10.64111
G1 X136.437 Y95.944 E10.66412
G1 X136.924 Y96.539 E10.68714
G1 X137.346 Y97.182 E10.71016
G1 X137.699 Y97.866 E10.7332
G1 X137.979 Y98.582 E10.75621
G1 X138.184 Y99.323 E10.77923
G1 X138.31 Y100.082 E10.80226
G1 X138.357 Y100.916 E10.82726
G1 X138.357 Y102.098 E10.86265
G1 X139.792 Y102.155 E10.90564
G1 X142.076 Y102.284 E10.97411
G1 X144.263 Y102.443 E11.03975
G1 X144.486 Y102.463 E11.04645
G1 X148.998 Y102.93 E11.18224
G1 X151.235 Y103.197 E11.24968
G1 X151.451 Y103.226 E11.2562
G1 X153.767 Y103.573 E11.3263
G1 X158.13 Y104.293 E11.45867
G1 X158.357 Y104.334 E11.46558
G1 X159.731 Y104.605 E11.5075
G1 X160.477 Y104.793 E11.53053
G1 X161.199 Y105.057 E11.55354
G1 X161.89 Y105.395 E11.57657
G1 X162.542 Y105.802 E11.59957
G1 X163.149 Y106.276 E11.62263
G1 X163.703 Y106.809 E11.64564
G1 X164.198 Y107.398 E11.66867
G1 X164.63 Y108.034 E11.69168
G1 X164.994 Y108.712 E11.71472
G1 X165.285 Y109.424 E11.73774
G1 X165.5 Y110.162 E11.76075
G1 X165.638 Y110.919 E11.78379
G1 X165.699 Y111.865 E11.81216
G1 X165.699 Y118.511 E12.01111
G1 X165.659 Y119.279 E12.03413
G1 X165.54 Y120.039 E12.05715
G1 X165.342 Y120.782 E12.08017
G1 X165.068 Y121.501 E12.1032
G1 X164.721 Y122.187 E12.12622
G1 X164.305 Y122.834 E12.14924
G1 X163.824 Y123.434 E12.17226
G1 X163.283 Y123.981 E12.19529
G1 X162.688 Y124.469 E12.21832
G1 X162.046 Y124.892 E12.24134
G1 X161.363 Y125.247 E12.26438
G1 X160.648 Y125.528 E12.28738
G1 X159.906 Y125.734 E12.31043
G1 X159.148 Y125.862 E12.33344
G1 X158.38 Y125.911 E12.35648
G1 X157.612 Y125.879 E12.37949
G1 X156.767 Y125.751 E12.40507
G1 X156.687 Y125.734 E12.40752
G1 X156.136 Y125.635 E12.42427
G1 X155.995 Y125.603 E12.4286
G1 X155.042 Y125.447 E12.45751
G1 X154.515 Y125.35 E12.47355
G1 X154.279 Y125.297 E12.48079
G1 X153.991 Y125.242 E12.48957
G1 X153.551 Y125.183 E12.50286
G1 X153.303 Y125.145 E12.51037
G1 X152.299 Y124.976 E12.54084
G1 X152.116 Y124.943 E12.54641
G1 X151.777 Y124.877 E12.55675
G1 X149.726 Y124.602 E12.61869
G1 X149.506 Y124.569 E12.62535
G1 X148.534 Y124.409 E12.65484
G1 X148.185 Y124.362 E12.66538
G1 X147.27 Y124.269 E12.69291
G1 X147.034 Y124.241 E12.70002
G1 X145.463 Y124.03 E12.74747
G1 X144.062 Y123.903 E12.78958
G1 X143.754 Y123.868 E12.79886
G1 X143.333 Y123.812 E12.81157
G1 X142.631 Y123.767 E12.83263
G1 X142.422 Y123.747 E12.83892
G1 X141.807 Y123.698 E12.85738
G1 X141.411 Y123.655 E12.86931
G1 X141.085 Y123.62 E12.87912
G1 X140.592 Y123.576 E12.89394
G1 X139.723 Y123.515 E12.92002
G1 X139.328 Y123.491 E12.93186
G1 X139.192 Y123.477 E12.93595
G1 X138.066 Y123.407 E12.96972
G1 X137.61 Y123.396 E12.98338
G1 X136.295 Y123.313 E13.02282
G1 X136.021 Y123.304 E13.03103
G1 X135.941 Y123.385 E13.03443
G1 X135.346 Y123.873 E13.05747
G1 X134.704 Y124.296 E13.08048
G1 X134.021 Y124.651 E13.10353
G1 X133.306 Y124.932 E13.12652
G1 X132.564 Y125.138 E13.14957
G1 X131.806 Y125.266 E13.17258
G1 X130.957 Y125.315 E13.19804
G1 X130.026 Y125.315 E13.22591
G1 X129.718 Y125.309 E13.23513
G1 X61.157 Y125.309 E15.28744
G1 X60.048 Y125.311 E15.32064
G1 X59.28 Y125.272 E15.34366
G1 X58.52 Y125.154 E15.36668
G1 X57.776 Y124.958 E15.38971
G1 X57.057 Y124.685 E15.41274
G1 X56.37 Y124.34 E15.43575
G1 X55.723 Y123.925 E15.45876
G1 X55.122 Y123.444 E15.4818
G1 X54.574 Y122.905 E15.50481
G1 X54.085 Y122.311 E15.52784
G1 X53.66 Y121.669 E15.55089
G1 X53.305 Y120.987 E15.5739
G1 X53.022 Y120.272 E15.59692
G1 X52.815 Y119.531 E15.61995
G1 X52.685 Y118.773 E15.64297
G1 X52.635 Y117.911 E15.66882
G1 X52.636 Y100.914 E16.17761
G1 X52.676 Y100.145 E16.20066
G1 X52.796 Y99.386 E16.22366
G1 X52.993 Y98.642 E16.2467
G1 X53.267 Y97.924 E16.2697
G1 X53.614 Y97.237 E16.29274
G1 X54.03 Y96.59 E16.31577
G1 X54.512 Y95.99 E16.33881
G1 X55.053 Y95.444 E16.36182
G1 X55.647 Y94.956 E16.38483
G1 X56.29 Y94.532 E16.40788
G0 F9000 X56.035 Y95.17
G1 F1200 X56.67 Y94.776 E16.43025
G1 X57.345 Y94.452 E16.45267
G1 X58.05 Y94.202 E16.47506
G1 X58.777 Y94.028 E16.49743
G1 X59.519 Y93.933 E16.51983
G1 X60.036 Y93.914 E16.53531
G1 X130.403 Y93.912 E18.64169
G1 X130.538 Y93.915 E18.64573
G1 X130.971 Y93.916 E18.65869
G1 X131.718 Y93.958 E18.68109
G1 X132.457 Y94.079 E18.7035
G1 X133.178 Y94.278 E18.72589
G1 X133.873 Y94.552 E18.74825
G1 X134.536 Y94.9 E18.77067
G1 X135.157 Y95.316 E18.79304
G1 X135.731 Y95.796 E18.81544
G1 X136.25 Y96.335 E18.83784
G1 X136.709 Y96.926 E18.86024
G1 X137.102 Y97.563 E18.88264
G1 X137.424 Y98.238 E18.90503
G1 X137.673 Y98.943 E18.92741
G1 X137.845 Y99.671 E18.9498
G1 X137.939 Y100.413 E18.97219
G1 X137.957 Y100.916 E18.98726
G1 X137.957 Y102.481 E19.03411
G1 X139.769 Y102.554 E19.08839
G1 X142.047 Y102.683 E19.15669
G1 X144.234 Y102.842 E19.22233
G1 X144.445 Y102.861 E19.22867
G1 X148.951 Y103.327 E19.36427
G1 X151.188 Y103.594 E19.43171
G1 X151.391 Y103.622 E19.43784
G1 X153.702 Y103.967 E19.50779
G1 X158.065 Y104.687 E19.64016
G1 X158.28 Y104.726 E19.6467
G1 X159.654 Y104.997 E19.68862
G1 X160.379 Y105.181 E19.71101
G1 X161.08 Y105.441 E19.73339
G1 X161.75 Y105.775 E19.7558
G1 X162.38 Y106.178 E19.77819
G1 X162.964 Y106.646 E19.80059
G1 X163.494 Y107.173 E19.82296
G1 X163.965 Y107.754 E19.84535
G1 X164.371 Y108.382 E19.86774
G1 X164.708 Y109.05 E19.89013
G1 X164.972 Y109.75 E19.91253
G1 X165.16 Y110.475 E19.93495
G1 X165.269 Y111.215 E19.95734
G1 X165.299 Y111.865 E19.97682
G1 X165.299 Y118.511 E20.17576
G1 X165.259 Y119.258 E20.19815
G1 X165.14 Y119.996 E20.22053
G1 X164.942 Y120.718 E20.24294
G1 X164.669 Y121.414 E20.26532
G1 X164.322 Y122.077 E20.28772
G1 X163.907 Y122.7 E20.31013
G1 X163.428 Y123.274 E20.33251
G1 X162.891 Y123.795 E20.3549
G1 X162.301 Y124.254 E20.37728
G1 X161.665 Y124.649 E20.39969
G1 X160.991 Y124.973 E20.42208
G1 X160.286 Y125.223 E20.44447
G1 X159.558 Y125.397 E20.46687
G1 X158.816 Y125.492 E20.48926
G1 X158.068 Y125.507 E20.51166
G1 X157.323 Y125.443 E20.53404
G1 X156.224 Y125.245 E20.56747
G1 X156.063 Y125.209 E20.57241
G1 X155.107 Y125.052 E20.60141
G1 X154.604 Y124.96 E20.61672
G1 X154.358 Y124.905 E20.62426
G1 X154.048 Y124.845 E20.63371
G1 X153.604 Y124.786 E20.64712
G1 X153.369 Y124.751 E20.65423
G1 X152.365 Y124.582 E20.68471
G1 X152.193 Y124.551 E20.68994
G1 X151.841 Y124.483 E20.70067
G1 X149.779 Y124.206 E20.76295
G1 X149.571 Y124.175 E20.76925
G1 X148.548 Y124.006 E20.80028
G1 X148.249 Y123.966 E20.80931
G1 X147.311 Y123.871 E20.83754
G1 X147.087 Y123.845 E20.84429
G1 X145.482 Y123.63 E20.89276
G1 X144.098 Y123.504 E20.93436
G1 X143.807 Y123.472 E20.94312
G1 X143.369 Y123.414 E20.95635
G1 X142.656 Y123.368 E20.97774
G1 X142.443 Y123.347 E20.98414
G1 X141.839 Y123.299 E21.00228
G1 X141.465 Y123.259 E21.01354
G1 X141.106 Y123.22 E21.02435
G1 X140.625 Y123.177 E21.0388
G1 X139.77 Y123.117 E21.06446
G1 X139.353 Y123.092 E21.07697
G1 X139.217 Y123.078 E21.08106
G1 X138.088 Y123.007 E21.11492
G1 X137.636 Y122.997 E21.12845
G1 X136.337 Y122.915 E21.16742
G1 X135.859 Y122.899 E21.18173
G1 X135.549 Y123.199 E21.19465
G1 X134.959 Y123.658 E21.21702
G1 X134.323 Y124.053 E21.23943
G1 X133.649 Y124.377 E21.26182
G1 X132.944 Y124.627 E21.28421
G1 X132.216 Y124.801 E21.30662
G1 X131.474 Y124.896 E21.32901
G1 X130.957 Y124.915 E21.3445
G1 X130.026 Y124.915 E21.37236
G1 X129.731 Y124.909 E21.3812
G1 X61.157 Y124.909 E23.4339
G1 X60.048 Y124.911 E23.4671
G1 X59.301 Y124.872 E23.48949
G1 X58.562 Y124.754 E23.51189
G1 X57.84 Y124.558 E23.53428
G1 X57.143 Y124.286 E23.55668
G1 X56.479 Y123.941 E23.57908
G1 X55.856 Y123.527 E23.60147
G1 X55.281 Y123.049 E23.62385
G1 X54.76 Y122.512 E23.64625
G1 X54.299 Y121.923 E23.66864
G1 X53.903 Y121.288 E23.69104
G1 X53.578 Y120.614 E23.71344
G1 X53.326 Y119.91 E23.73582
G1 X53.151 Y119.183 E23.75821
G1 X53.055 Y118.441 E23.7806
G1 X53.035 Y117.911 E23.79648
G1 X53.036 Y100.914 E24.30527
G1 X53.076 Y100.167 E24.32766
G1 X53.196 Y99.428 E24.35007
G1 X53.393 Y98.707 E24.37245
G1 X53.667 Y98.01 E24.39486
G1 X54.013 Y97.347 E24.41725
G1 X54.428 Y96.725 E24.43963
G1 X54.907 Y96.15 E24.46204
G1 X55.445 Y95.63 E24.48443
G1 X56.035 Y95.17 E24.50683
G0 F9000 X56.42 Y95.392
G1 F1200 X57.049 Y95.029 E24.52857
G1 X57.714 Y94.736 E24.55032
G1 X58.407 Y94.518 E24.57207
G1 X59.12 Y94.378 E24.59382
G1 X60.036 Y94.314 E24.6213
G1 X130.403 Y94.312 E26.72768
G1 X130.553 Y94.315 E26.73217
G1 X130.971 Y94.316 E26.74468
G1 X131.696 Y94.357 E26.76642
G1 X132.412 Y94.478 E26.78815
G1 X133.111 Y94.677 E26.80991
G1 X133.783 Y94.952 E26.83165
G1 X134.421 Y95.298 E26.85337
G1 X135.018 Y95.713 E26.87513
G1 X135.565 Y96.191 E26.89688
G1 X136.056 Y96.726 E26.91862
G1 X136.486 Y97.312 E26.94037
G1 X136.848 Y97.941 E26.9621
G1 X137.14 Y98.606 E26.98384
G1 X137.356 Y99.3 E27.0056
G1 X137.495 Y100.013 E27.02734
G1 X137.557 Y100.916 E27.05444
G1 X137.557 Y102.866 E27.11281
G1 X139.746 Y102.953 E27.17838
G1 X142.018 Y103.082 E27.2465
G1 X144.205 Y103.241 E27.31214
G1 X144.404 Y103.259 E27.31812
G1 X148.903 Y103.725 E27.45352
G1 X151.14 Y103.992 E27.52096
G1 X151.332 Y104.017 E27.52675
G1 X153.637 Y104.362 E27.59652
G1 X158 Y105.082 E27.72889
G1 X158.202 Y105.119 E27.73503
G1 X159.576 Y105.39 E27.77696
G1 X160.28 Y105.569 E27.7987
G1 X160.96 Y105.825 E27.82045
G1 X161.607 Y106.154 E27.84218
G1 X162.215 Y106.552 E27.86393
G1 X162.775 Y107.015 E27.88568
G1 X163.281 Y107.536 E27.90742
G1 X163.726 Y108.11 E27.92916
G1 X164.106 Y108.729 E27.9509
G1 X164.416 Y109.386 E27.97265
G1 X164.651 Y110.073 E27.99439
G1 X164.81 Y110.782 E28.01614
G1 X164.899 Y111.865 E28.04866
G1 X164.899 Y118.511 E28.24761
G1 X164.859 Y119.236 E28.26934
G1 X164.74 Y119.953 E28.2911
G1 X164.542 Y120.652 E28.31284
G1 X164.269 Y121.325 E28.33458
G1 X163.924 Y121.964 E28.35632
G1 X163.51 Y122.561 E28.37807
G1 X163.034 Y123.109 E28.3998
G1 X162.5 Y123.602 E28.42155
G1 X161.915 Y124.032 E28.44329
G1 X161.286 Y124.396 E28.46504
G1 X160.621 Y124.689 E28.48679
G1 X159.928 Y124.907 E28.50854
G1 X159.216 Y125.047 E28.53026
G1 X158.492 Y125.108 E28.55201
G1 X157.766 Y125.089 E28.57375
G1 X156.933 Y124.968 E28.59895
G1 X156.872 Y124.955 E28.60081
