;FLAVOR:Marlin
;TIME:6436
;Filament used: 3.58502m
;Layer height: 0.2
;MINX:92.731
;MINY:87.306
;MINZ:0.2
;MAXX:135.268
;MAXY:132.669
;MAXZ:63
;Generated with Cura_SteamEngine 4.10.0
M140 S70
M105
M190 S70
M104 S210
M105
M109 S210
M82 ;absolute extrusion mode
; Ender 3 Custom Start G-code
G92 E0 ; Reset Extruder
G28 ; Home all axes
G1 Z2.0 F3000 ; Move Z Axis up little to prevent scratching of Heat Bed
G1 X0.1 Y20 Z0.3 F5000.0 ; Move to start position
G1 X0.1 Y200.0 Z0.3 F1500.0 E15 ; Draw the first line
G1 X0.4 Y200.0 Z0.3 F5000.0 ; Move to side a little
G1 X0.4 Y20 Z0.3 F1500.0 E30 ; Draw the second line
G92 E0 ; Reset Extruder
G1 Z2.0 F3000 ; Move Z Axis up little to prevent scratching of Heat Bed
G1 X5 Y20 Z0.3 F5000.0 ; Move over to prevent blob squish
G92 E0
G92 E0
G1 F1500 E-6.5
;LAYER_COUNT:314
;LAYER:0
M107
G1 F300 Z0.4
G0 F9000 X105.013 Y95.704 Z0.4
;TYPE:SKIRT
G1 F300 Z0.2
G1 F1500 E0
G1 F1200 X105.818 Y94.894 E0.03418
G1 X110.415 Y90.9 E0.21647
G1 X111.037 Y90.413 E0.24012
G1 X111.704 Y89.991 E0.26375
G1 X112.411 Y89.639 E0.28739
G1 X113.15 Y89.36 E0.31103
G1 X113.913 Y89.158 E0.33466
G1 X114.693 Y89.033 E0.35831
G1 X115.531 Y88.988 E0.38343
G1 X120.04 Y88.988 E0.5184
G1 X120.181 Y88.891 E0.52352
G1 X120.927 Y88.463 E0.54927
G1 X121.128 Y88.362 E0.556
G1 X121.399 Y88.233 E0.56499
G1 X121.678 Y88.106 E0.57416
G1 X122.412 Y87.816 E0.59779
G1 X123.029 Y87.635 E0.61704
G1 X123.327 Y87.561 E0.62623
G1 X124.361 Y87.377 E0.65767
G1 X124.59 Y87.352 E0.66456
G1 X125.436 Y87.306 E0.68992
G1 X125.636 Y87.306 E0.69591
G1 X126.599 Y87.366 E0.72479
G1 X126.8 Y87.391 E0.73085
G1 X127.711 Y87.559 E0.75858
G1 X128.01 Y87.633 E0.76781
G1 X128.863 Y87.897 E0.79453
G1 X129.064 Y87.972 E0.80096
G1 X129.853 Y88.317 E0.82673
G1 X130.055 Y88.419 E0.83351
G1 X130.405 Y88.607 E0.8454
G1 X130.582 Y88.708 E0.8515
G1 X131.247 Y89.134 E0.87514
G1 X131.866 Y89.625 E0.89879
G1 X132.224 Y89.96 E0.91347
G1 X132.599 Y90.334 E0.92932
G1 X133.129 Y90.919 E0.95295
G1 X133.445 Y91.334 E0.96856
G1 X133.571 Y91.511 E0.97507
G1 X133.982 Y92.152 E0.99786
G1 X134.083 Y92.328 E1.00394
G1 X134.417 Y92.979 E1.02584
G1 X134.544 Y93.258 E1.03501
G1 X134.834 Y93.992 E1.05864
G1 X135.103 Y95.007 E1.09007
G1 X135.127 Y95.131 E1.09385
G1 X135.238 Y95.913 E1.11749
G1 X135.268 Y96.702 E1.14113
G1 X135.22 Y97.49 E1.16476
G1 X135.091 Y98.269 E1.1884
G1 X134.885 Y99.031 E1.21203
G1 X134.602 Y99.769 E1.23569
G1 X134.246 Y100.474 E1.25933
G1 X133.821 Y101.139 E1.28295
G1 X133.331 Y101.758 E1.30658
G1 X132.781 Y102.325 E1.33023
G1 X132.33 Y102.704 E1.34786
G1 X132.33 Y117.299 E1.78475
G1 X132.547 Y117.467 E1.79297
G1 X133.12 Y118.01 E1.8166
G1 X133.635 Y118.609 E1.84024
G1 X134.086 Y119.257 E1.86388
G1 X134.47 Y119.948 E1.88754
G1 X134.782 Y120.673 E1.91117
G1 X135.019 Y121.426 E1.9348
G1 X135.178 Y122.2 E1.95845
G1 X135.259 Y122.985 E1.98207
G1 X135.259 Y123.775 E2.00572
G1 X135.18 Y124.561 E2.02937
G1 X135.022 Y125.334 E2.05299
G1 X134.774 Y126.122 E2.07772
G1 X134.712 Y126.316 E2.08381
G1 X134.346 Y127.175 E2.11176
G1 X134.245 Y127.377 E2.11852
G1 X133.856 Y128.065 E2.14218
G1 X133.622 Y128.412 E2.15471
G1 X133.125 Y129.086 E2.17978
G1 X132.606 Y129.658 E2.2029
G1 X132.308 Y129.956 E2.21551
G1 X131.722 Y130.486 E2.23916
G1 X131.259 Y130.836 E2.25654
G1 X131.007 Y131.012 E2.26574
G1 X130.057 Y131.58 E2.29887
G1 X129.853 Y131.683 E2.30571
G1 X129.064 Y132.028 E2.33149
G1 X128.863 Y132.103 E2.33791
G1 X128.01 Y132.367 E2.36464
G1 X127.711 Y132.441 E2.37386
G1 X126.936 Y132.591 E2.39749
G1 X125.837 Y132.669 E2.43047
G1 X125.207 Y132.669 E2.44933
G1 X124.418 Y132.629 E2.47298
G1 X123.327 Y132.439 E2.50613
G1 X123.029 Y132.365 E2.51532
G1 X122.182 Y132.103 E2.54186
G1 X121.981 Y132.028 E2.54828
G1 X121.256 Y131.715 E2.57192
G1 X120.927 Y131.537 E2.58312
G1 X120.24 Y131.147 E2.60676
G1 X120.02 Y130.986 E2.61492
G1 X115.532 Y130.986 E2.74927
G1 X114.743 Y130.946 E2.77292
G1 X113.963 Y130.827 E2.79653
G1 X113.198 Y130.629 E2.82019
G1 X112.458 Y130.355 E2.84381
G1 X111.749 Y130.007 E2.86745
G1 X111.078 Y129.589 E2.89112
G1 X110.417 Y129.075 E2.91618
G1 X107.189 Y126.271 E3.04417
G1 X105.91 Y125.186 E3.09438
G1 X105.556 Y124.866 E3.10866
G1 X105.012 Y124.293 E3.13231
G1 X104.529 Y123.669 E3.15594
G1 X104.112 Y122.998 E3.17958
G1 X103.765 Y122.289 E3.20321
G1 X103.491 Y121.548 E3.22686
G1 X103.294 Y120.783 E3.25051
G1 X103.175 Y120.003 E3.27413
G1 X103.135 Y119.218 E3.29766
G1 X103.134 Y100.782 E3.84952
G1 X103.174 Y99.994 E3.87314
G1 X103.293 Y99.213 E3.89679
G1 X103.491 Y98.449 E3.92041
G1 X103.765 Y97.708 E3.94406
G1 X104.113 Y96.999 E3.9677
G1 X104.53 Y96.329 E3.99133
G1 X105.013 Y95.704 E4.01497
G0 F9000 X105.409 Y95.859
G1 F1200 X106.081 Y95.196 E4.04323
G1 X110.678 Y91.202 E4.22552
G1 X111.284 Y90.728 E4.24855
G1 X111.936 Y90.32 E4.27157
G1 X112.626 Y89.982 E4.29457
G1 X113.349 Y89.717 E4.31762
G1 X114.094 Y89.529 E4.34062
G1 X114.856 Y89.419 E4.36367
G1 X115.531 Y89.388 E4.3839
G1 X120.169 Y89.388 E4.52273
G1 X120.399 Y89.227 E4.53113
G1 X121.106 Y88.821 E4.55554
G1 X121.307 Y88.72 E4.56227
G1 X121.564 Y88.597 E4.5708
G1 X121.843 Y88.47 E4.57998
G1 X122.559 Y88.188 E4.60301
G1 X123.126 Y88.023 E4.62069
G1 X123.424 Y87.949 E4.62988
G1 X124.404 Y87.775 E4.65968
G1 X124.633 Y87.75 E4.66657
G1 X125.436 Y87.706 E4.69064
G1 X125.636 Y87.706 E4.69663
G1 X126.549 Y87.763 E4.72401
G1 X126.75 Y87.788 E4.73008
G1 X127.615 Y87.948 E4.75641
G1 X127.914 Y88.022 E4.76563
G1 X128.723 Y88.272 E4.79098
G1 X128.924 Y88.347 E4.7974
G1 X129.673 Y88.674 E4.82186
G1 X129.875 Y88.776 E4.82864
G1 X130.207 Y88.955 E4.83993
G1 X130.384 Y89.056 E4.84603
G1 X131.031 Y89.471 E4.86904
G1 X131.632 Y89.952 E4.89208
G1 X131.942 Y90.243 E4.90481
G1 X132.317 Y90.617 E4.92066
G1 X132.832 Y91.188 E4.94368
G1 X133.12 Y91.566 E4.9579
G1 X133.246 Y91.743 E4.96441
G1 X133.635 Y92.351 E4.98601
G1 X133.736 Y92.527 E4.99209
G1 X134.053 Y93.144 E5.01285
G1 X134.18 Y93.423 E5.02203
G1 X134.462 Y94.139 E5.04506
G1 X134.71 Y95.083 E5.07428
G1 X134.734 Y95.207 E5.07806
G1 X134.841 Y95.969 E5.10109
G1 X134.868 Y96.737 E5.1241
G1 X134.815 Y97.505 E5.14714
G1 X134.683 Y98.262 E5.17014
G1 X134.473 Y99.002 E5.19317
G1 X134.187 Y99.716 E5.21619
G1 X133.828 Y100.397 E5.23924
G1 X133.401 Y101.036 E5.26224
G1 X132.91 Y101.628 E5.28527
G1 X132.36 Y102.166 E5.3083
G1 X131.93 Y102.507 E5.32472
G1 X131.93 Y117.492 E5.77329
G1 X132.392 Y117.862 E5.79101
G1 X132.939 Y118.403 E5.81404
G1 X133.427 Y118.998 E5.83707
G1 X133.85 Y119.64 E5.86008
G1 X134.205 Y120.323 E5.88313
G1 X134.486 Y121.038 E5.90612
G1 X134.692 Y121.78 E5.92917
G1 X134.82 Y122.538 E5.95219
G1 X134.869 Y123.306 E5.97522
G1 X134.837 Y124.074 E5.99823
G1 X134.726 Y124.835 E6.02125
G1 X134.536 Y125.581 E6.0443
G1 X134.399 Y125.982 E6.05698
G1 X134.329 Y126.2 E6.06383
G1 X133.988 Y126.996 E6.08976
G1 X133.887 Y127.198 E6.09652
G1 X133.297 Y128.18 E6.13081
G1 X132.803 Y128.848 E6.15568
G1 X132.324 Y129.376 E6.17702
G1 X132.026 Y129.674 E6.18963
G1 X131.454 Y130.188 E6.21265
G1 X131.03 Y130.508 E6.22856
G1 X130.778 Y130.684 E6.23776
G1 X129.876 Y131.223 E6.26921
G1 X129.672 Y131.326 E6.27605
G1 X128.924 Y131.653 E6.30049
G1 X128.723 Y131.728 E6.30691
G1 X127.914 Y131.978 E6.33226
G1 X127.615 Y132.052 E6.34148
G1 X126.86 Y132.198 E6.3645
G1 X125.837 Y132.269 E6.39519
G1 X125.207 Y132.269 E6.41405
G1 X124.439 Y132.229 E6.43707
G1 X123.424 Y132.051 E6.46792
G1 X123.126 Y131.977 E6.47711
G1 X122.322 Y131.728 E6.5023
G1 X122.121 Y131.653 E6.50873
G1 X121.415 Y131.347 E6.53176
G1 X121.106 Y131.179 E6.54229
G1 X120.438 Y130.799 E6.56529
G1 X120.147 Y130.586 E6.57609
G1 X115.532 Y130.586 E6.71423
G1 X114.764 Y130.546 E6.73725
G1 X114.004 Y130.427 E6.76028
G1 X113.261 Y130.229 E6.7833
G1 X112.542 Y129.955 E6.80633
G1 X111.856 Y129.608 E6.82934
G1 X111.209 Y129.192 E6.85237
G1 X110.679 Y128.773 E6.87259
G1 X107.428 Y125.949 E7.0015
G1 X106.169 Y124.881 E7.05092
G1 X105.832 Y124.577 E7.0645
G1 X105.303 Y124.018 E7.08754
G1 X104.835 Y123.407 E7.11058
G1 X104.433 Y122.752 E7.13358
G1 X104.102 Y122.058 E7.1566
G1 X103.844 Y121.333 E7.17964
G1 X103.662 Y120.585 E7.20268
G1 X103.56 Y119.823 E7.22569
G1 X103.535 Y119.218 E7.24382
G1 X103.534 Y100.782 E7.79568
G1 X103.574 Y100.014 E7.81871
G1 X103.693 Y99.254 E7.84173
G1 X103.891 Y98.511 E7.86475
G1 X104.165 Y97.792 E7.88778
G1 X104.512 Y97.106 E7.91079
G1 X104.928 Y96.459 E7.93382
G1 X105.409 Y95.859 E7.95684
G0 F9000 X105.804 Y96.019
G1 F1200 X106.343 Y95.498 E7.97928
G1 X110.94 Y91.504 E8.16157
G1 X111.53 Y91.044 E8.18396
G1 X112.166 Y90.65 E8.20636
G1 X112.84 Y90.326 E8.22874
G1 X113.545 Y90.076 E8.25114
G1 X114.273 Y89.902 E8.27354
G1 X115.015 Y89.807 E8.29593
G1 X115.531 Y89.788 E8.31139
G1 X120.297 Y89.788 E8.45406
G1 X120.54 Y89.612 E8.46304
G1 X120.617 Y89.562 E8.46579
G1 X121.286 Y89.178 E8.48888
G1 X121.487 Y89.077 E8.49561
G1 X121.73 Y88.961 E8.50367
G1 X122.009 Y88.834 E8.51285
G1 X122.705 Y88.561 E8.53523
G1 X123.222 Y88.411 E8.55134
G1 X123.52 Y88.337 E8.56053
G1 X124.447 Y88.172 E8.58872
G1 X124.676 Y88.147 E8.59561
G1 X125.436 Y88.106 E8.6184
G1 X125.636 Y88.106 E8.62438
G1 X126.5 Y88.16 E8.6503
G1 X126.701 Y88.185 E8.65636
G1 X127.519 Y88.336 E8.68126
G1 X127.818 Y88.41 E8.69048
G1 X128.583 Y88.647 E8.71445
G1 X128.784 Y88.722 E8.72087
G1 X129.492 Y89.031 E8.744
G1 X129.694 Y89.133 E8.75077
G1 X130.008 Y89.302 E8.76145
G1 X130.185 Y89.403 E8.76755
G1 X130.814 Y89.808 E8.78994
G1 X131.659 Y90.527 E8.82315
G1 X132.034 Y90.901 E8.83901
G1 X132.535 Y91.456 E8.86139
G1 X132.794 Y91.797 E8.87421
G1 X132.92 Y91.974 E8.88071
G1 X133.288 Y92.55 E8.90117
G1 X133.389 Y92.726 E8.90724
G1 X133.689 Y93.31 E8.9269
G1 X133.816 Y93.589 E8.93607
G1 X134.089 Y94.285 E8.95845
G1 X134.317 Y95.159 E8.98549
G1 X134.341 Y95.283 E8.98927
G1 X134.444 Y96.024 E9.01167
G1 X134.467 Y96.772 E9.03407
G1 X134.41 Y97.517 E9.05643
G1 X134.274 Y98.253 E9.07884
G1 X134.06 Y98.97 E9.10124
G1 X133.771 Y99.66 E9.12363
G1 X133.41 Y100.315 E9.14602
G1 X132.981 Y100.928 E9.16841
G1 X132.489 Y101.491 E9.19079
G1 X131.94 Y101.999 E9.21318
G1 X131.53 Y102.304 E9.22848
G1 X131.53 Y117.694 E9.68917
G1 X131.658 Y117.779 E9.69377
G1 X132.232 Y118.258 E9.71615
G1 X132.753 Y118.795 E9.73854
G1 X133.212 Y119.385 E9.76092
G1 X133.607 Y120.021 E9.78333
G1 X133.931 Y120.695 E9.80572
G1 X134.181 Y121.4 E9.82811
G1 X134.355 Y122.128 E9.85051
G1 X134.45 Y122.87 E9.8729
G1 X134.465 Y123.618 E9.8953
G1 X134.401 Y124.363 E9.91768
G1 X134.257 Y125.097 E9.94007
G1 X134.025 Y125.841 E9.9634
G1 X133.946 Y126.084 E9.97105
G1 X133.63 Y126.817 E9.99494
G1 X133.529 Y127.019 E10.00171
G1 X132.971 Y127.949 E10.03417
G1 X132.481 Y128.609 E10.05878
G1 X132.041 Y129.093 E10.07836
G1 X131.743 Y129.391 E10.09097
G1 X131.186 Y129.891 E10.11338
G1 X130.801 Y130.18 E10.12779
G1 X130.549 Y130.356 E10.13699
G1 X129.696 Y130.866 E10.16674
G1 X129.492 Y130.969 E10.17358
G1 X128.784 Y131.278 E10.1967
G1 X128.583 Y131.353 E10.20313
G1 X127.818 Y131.59 E10.2271
G1 X127.519 Y131.664 E10.23632
G1 X126.784 Y131.805 E10.25872
G1 X125.837 Y131.869 E10.28713
G1 X125.207 Y131.869 E10.30599
G1 X124.46 Y131.829 E10.32839
G1 X123.52 Y131.663 E10.35696
G1 X123.222 Y131.589 E10.36615
G1 X122.462 Y131.353 E10.38997
G1 X122.261 Y131.278 E10.39639
G1 X121.575 Y130.98 E10.41878
G1 X121.286 Y130.822 E10.42864
G1 X120.637 Y130.451 E10.45102
G1 X120.276 Y130.186 E10.46442
G1 X115.532 Y130.186 E10.60643
G1 X114.785 Y130.146 E10.62882
G1 X114.047 Y130.027 E10.6512
G1 X113.325 Y129.829 E10.67361
G1 X112.629 Y129.556 E10.69599
G1 X111.966 Y129.209 E10.71839
G1 X111.343 Y128.794 E10.7408
G1 X110.941 Y128.471 E10.75624
G1 X107.69 Y125.647 E10.88514
G1 X106.428 Y124.576 E10.93469
G1 X106.107 Y124.287 E10.94762
G1 X105.594 Y123.743 E10.97
G1 X105.142 Y123.147 E10.99239
G1 X104.755 Y122.506 E11.0148
G1 X104.44 Y121.828 E11.03718
G1 X104.198 Y121.12 E11.05958
G1 X104.034 Y120.39 E11.08198
G1 X103.948 Y119.647 E11.10437
G1 X103.935 Y119.218 E11.11721
G1 X103.934 Y100.782 E11.66908
G1 X103.974 Y100.035 E11.69147
G1 X104.093 Y99.297 E11.71385
G1 X104.291 Y98.575 E11.73626
G1 X104.564 Y97.879 E11.75864
G1 X104.91 Y97.216 E11.78103
G1 X105.325 Y96.593 E11.80343
G1 X105.804 Y96.019 E11.82581
G0 F9000 X105.723 Y96.732
G1 F1200 X106.199 Y96.184 E11.84754
G1 X106.605 Y95.8 E11.86427
G1 X111.202 Y91.806 E12.04656
G1 X111.776 Y91.36 E12.06832
G1 X112.395 Y90.981 E12.09004
G1 X113.052 Y90.671 E12.11179
G1 X113.74 Y90.436 E12.13355
G1 X114.448 Y90.277 E12.15527
G1 X115.531 Y90.188 E12.1878
G1 X120.425 Y90.188 E12.3343
G1 X120.758 Y89.948 E12.34659
G1 X120.835 Y89.898 E12.34933
G1 X121.466 Y89.536 E12.37111
G1 X121.667 Y89.435 E12.37784
G1 X121.896 Y89.325 E12.38545
G1 X122.175 Y89.198 E12.39463
G1 X122.851 Y88.934 E12.41635
G1 X123.318 Y88.8 E12.43089
G1 X123.616 Y88.726 E12.44008
G1 X124.491 Y88.57 E12.46669
G1 X124.72 Y88.545 E12.47358
G1 X125.436 Y88.506 E12.49505
G1 X125.636 Y88.506 E12.50104
G1 X126.451 Y88.556 E12.52548
G1 X126.652 Y88.581 E12.53154
G1 X127.423 Y88.724 E12.55501
G1 X127.722 Y88.798 E12.56423
G1 X128.443 Y89.021 E12.58683
G1 X128.644 Y89.096 E12.59325
G1 X129.312 Y89.388 E12.61507
G1 X129.514 Y89.49 E12.62184
G1 X129.81 Y89.65 E12.63192
G1 X129.987 Y89.751 E12.63802
G1 X130.597 Y90.145 E12.65975
G1 X131.377 Y90.81 E12.69044
G1 X131.752 Y91.184 E12.70629
G1 X132.237 Y91.724 E12.72802
G1 X132.468 Y92.029 E12.73947
G1 X132.594 Y92.206 E12.74597
G1 X132.941 Y92.749 E12.76526
G1 X133.042 Y92.925 E12.77134
G1 X133.325 Y93.476 E12.78988
G1 X133.452 Y93.755 E12.79906
G1 X133.716 Y94.431 E12.82078
G1 X133.925 Y95.235 E12.84565
G1 X133.949 Y95.359 E12.84943
G1 X134.047 Y96.078 E12.87115
G1 X134.066 Y96.805 E12.89292
G1 X134.005 Y97.528 E12.91464
G1 X133.865 Y98.241 E12.93639
G1 X133.647 Y98.934 E12.95814
G1 X133.355 Y99.599 E12.97988
G1 X132.991 Y100.228 E13.00163
G1 X132.56 Y100.813 E13.02338
G1 X132.068 Y101.347 E13.04512
G1 X131.52 Y101.823 E13.06684
G1 X131.13 Y102.093 E13.08104
G1 X131.13 Y117.906 E13.55439
G1 X131.519 Y118.176 E13.56857
G1 X132.067 Y118.652 E13.59029
G1 X132.56 Y119.186 E13.61205
G1 X132.99 Y119.771 E13.63378
G1 X133.354 Y120.4 E13.65554
G1 X133.647 Y121.065 E13.67729
G1 X133.865 Y121.758 E13.69904
G1 X134.005 Y122.47 E13.72076
G1 X134.066 Y123.194 E13.74251
G1 X134.047 Y123.92 E13.76425
G1 X133.949 Y124.64 E13.786
G1 X133.772 Y125.344 E13.80773
G1 X133.65 Y125.701 E13.81902
G1 X133.563 Y125.967 E13.8274
G1 X133.272 Y126.639 E13.84932
G1 X133.171 Y126.841 E13.85608
G1 X132.645 Y127.717 E13.88667
G1 X132.516 Y127.892 E13.89317
G1 X132.16 Y128.37 E13.91101
G1 X131.758 Y128.81 E13.92885
G1 X131.46 Y129.108 E13.94147
G1 X130.919 Y129.592 E13.9632
G1 X130.572 Y129.852 E13.97618
G1 X130.32 Y130.028 E13.98538
G1 X129.516 Y130.509 E14.01342
G1 X129.312 Y130.612 E14.02027
G1 X128.644 Y130.904 E14.04209
G1 X128.443 Y130.979 E14.04851
G1 X127.722 Y131.202 E14.0711
G1 X127.423 Y131.276 E14.08032
G1 X126.709 Y131.411 E14.10207
G1 X125.837 Y131.469 E14.12823
G1 X125.207 Y131.469 E14.14709
G1 X124.482 Y131.429 E14.16883
G1 X123.616 Y131.274 E14.19516
G1 X123.318 Y131.2 E14.20435
G1 X122.602 Y130.979 E14.22678
G1 X122.401 Y130.904 E14.23321
G1 X121.735 Y130.613 E14.25496
G1 X121.466 Y130.464 E14.26417
G1 X120.836 Y130.103 E14.2859
G1 X120.405 Y129.786 E14.30192
G1 X115.532 Y129.786 E14.44779
G1 X114.807 Y129.746 E14.46952
G1 X114.09 Y129.627 E14.49128
G1 X113.391 Y129.429 E14.51303
G1 X112.718 Y129.156 E14.53477
G1 X112.079 Y128.811 E14.5565
G1 X111.204 Y128.169 E14.58899
G1 X108.011 Y125.395 E14.7156
G1 X106.686 Y124.271 E14.76761
G1 X106.383 Y123.997 E14.77984
