;FLAVOR:Marlin
;TIME:2453
;Filament used: 1.14584m
;Layer height: 0.2
;MINX:76.136
;MINY:94.527
;MINZ:0.2
;MAXX:135.864
;MAXY:125.473
;MAXZ:30.6
;Generated with Cura_SteamEngine 4.10.0
M140 S70
M105
M190 S70
M104 S210
M105
M109 S210
M82 ;absolute extrusion mode
; Ender 3 Custom Start G-code
G92 E0 ; Reset Extruder
G28 ; Home all axes
G1 Z2.0 F3000 ; Move Z Axis up little to prevent scratching of Heat Bed
G1 X0.1 Y20 Z0.3 F5000.0 ; Move to start position
G1 X0.1 Y200.0 Z0.3 F1500.0 E15 ; Draw the first line
G1 X0.4 Y200.0 Z0.3 F5000.0 ; Move to side a little
G1 X0.4 Y20 Z0.3 F1500.0 E30 ; Draw the second line
G92 E0 ; Reset Extruder
G1 Z2.0 F3000 ; Move Z Axis up little to prevent scratching of Heat Bed
G1 X5 Y20 Z0.3 F5000.0 ; Move over to prevent blob squish
G92 E0
G92 E0
G1 F1500 E-6.5
;LAYER_COUNT:153
;LAYER:0
M107
G1 F300 Z0.4
G0 F9000 X79.158 Y102.458 Z0.4
;TYPE:SKIRT
G1 F300 Z0.2
G1 F1500 E0
G1 F1200 X79.806 Y102.007 E0.02363
G1 X80.497 Y101.623 E0.0473
G1 X81.222 Y101.311 E0.07092
G1 X81.975 Y101.074 E0.09455
G1 X82.749 Y100.915 E0.11821
G1 X83.534 Y100.834 E0.14183
G1 X83.936 Y100.824 E0.15387
G1 X84.408 Y100.824 E0.168
G1 X85.197 Y100.864 E0.19164
G1 X85.622 Y100.907 E0.20443
G1 X86.158 Y100.948 E0.22052
G1 X86.325 Y100.954 E0.22552
G1 X86.775 Y100.983 E0.23902
G1 X87.041 Y100.991 E0.24699
G1 X87.402 Y101.011 E0.25781
G1 X87.586 Y101.012 E0.26332
G1 X87.961 Y101.032 E0.27456
G1 X88.508 Y101.032 E0.29094
G1 X88.87 Y101.046 E0.30178
G1 X89.053 Y101.032 E0.30727
G1 X89.646 Y101.032 E0.32502
G1 X90.289 Y101.059 E0.34429
G1 X90.47 Y101.074 E0.34973
G1 X90.906 Y101.074 E0.36278
G1 X91.694 Y101.033 E0.3864
G1 X93.235 Y101.032 E0.43253
G1 X93.961 Y101.022 E0.45426
G1 X94.1 Y101.033 E0.45843
G1 X95.026 Y100.951 E0.48626
G1 X95.525 Y100.929 E0.50121
G1 X95.84 Y100.899 E0.51068
G1 X96.064 Y100.87 E0.51745
G1 X96.505 Y100.832 E0.5307
G1 X97.175 Y100.803 E0.55077
G1 X97.369 Y100.789 E0.55659
G1 X98.639 Y100.713 E0.59468
G1 X98.834 Y100.676 E0.60062
G1 X99.616 Y100.567 E0.62425
G1 X100.405 Y100.537 E0.64789
G1 X100.422 Y100.538 E0.6484
G1 X102.24 Y100.332 E0.70317
G1 X102.512 Y100.317 E0.71132
G1 X102.979 Y100.276 E0.72535
G1 X103.481 Y100.204 E0.74053
G1 X103.563 Y100.19 E0.74302
G1 X104.034 Y100.121 E0.75727
G1 X104.329 Y100.069 E0.76624
G1 X104.652 Y100.019 E0.77602
G1 X107.675 Y99.617 E0.86731
G1 X108.279 Y99.433 E0.88621
G1 X109.045 Y99.241 E0.90985
G1 X109.827 Y99.127 E0.93351
G1 X110.438 Y99.099 E0.95182
G1 X110.893 Y99.02 E0.96564
G1 X111.474 Y98.878 E0.98354
G1 X111.884 Y98.79 E0.9961
G1 X112.145 Y98.741 E1.00405
G1 X112.927 Y98.635 E1.02767
G1 X113.717 Y98.608 E1.05133
G1 X114.504 Y98.661 E1.07494
G1 X115.283 Y98.794 E1.0986
G1 X116.044 Y99.005 E1.12224
G1 X116.78 Y99.292 E1.14588
G1 X117.344 Y99.58 E1.16484
G1 X117.569 Y99.217 E1.17762
G1 X118.051 Y98.592 E1.20125
G1 X118.593 Y98.018 E1.22488
G1 X119.191 Y97.502 E1.24853
G1 X119.838 Y97.049 E1.27217
G1 X120.527 Y96.664 E1.29579
G1 X121.252 Y96.35 E1.31944
G1 X121.857 Y96.152 E1.3385
G1 X122.842 Y95.792 E1.36989
G1 X123.34 Y95.578 E1.38612
G1 X123.75 Y95.438 E1.39909
G1 X124.018 Y95.355 E1.40749
G1 X124.269 Y95.291 E1.41524
G1 X124.472 Y95.224 E1.42164
G1 X125.839 Y94.831 E1.46422
G1 X126.608 Y94.651 E1.48786
G1 X127.391 Y94.55 E1.51149
G1 X128.003 Y94.527 E1.52982
G1 X128.792 Y94.567 E1.55347
G1 X129.572 Y94.686 E1.57709
G1 X130.337 Y94.884 E1.60074
G1 X131.077 Y95.158 E1.62436
G1 X131.786 Y95.506 E1.64801
G1 X132.457 Y95.924 E1.67167
G1 X133.081 Y96.407 E1.69529
G1 X133.654 Y96.95 E1.71892
G1 X134.169 Y97.549 E1.74257
G1 X134.62 Y98.197 E1.7662
G1 X135.004 Y98.888 E1.78987
G1 X135.316 Y99.613 E1.81349
G1 X135.553 Y100.366 E1.83712
G1 X135.712 Y101.14 E1.86078
G1 X135.793 Y101.925 E1.8844
G1 X135.803 Y102.322 E1.89629
G1 X135.808 Y110.085 E2.12866
G1 X135.769 Y110.874 E2.15231
G1 X135.65 Y111.654 E2.17593
G1 X135.452 Y112.419 E2.19958
G1 X135.179 Y113.16 E2.22322
G1 X134.91 Y113.724 E2.24193
G1 X134.801 Y113.931 E2.24893
G1 X134.42 Y114.591 E2.27174
G1 X134.232 Y114.893 E2.28239
G1 X134.053 Y115.207 E2.29321
G1 X133.889 Y115.477 E2.30267
G1 X133.742 Y115.715 E2.31104
G1 X133.305 Y116.372 E2.33466
G1 X132.803 Y116.982 E2.35831
G1 X132.422 Y117.373 E2.37465
G1 X132.356 Y117.436 E2.37738
G1 X131.758 Y117.952 E2.40103
G1 X131.11 Y118.404 E2.42468
G1 X130.421 Y118.789 E2.4483
G1 X129.696 Y119.102 E2.47194
G1 X129.168 Y119.266 E2.48849
G1 X127.611 Y119.833 E2.53809
G1 X127.017 Y120.023 E2.55676
G1 X126.526 Y120.159 E2.57201
G1 X126.233 Y120.246 E2.58116
G1 X126.104 Y120.282 E2.58517
G1 X125.333 Y120.455 E2.60882
G1 X124.549 Y120.55 E2.63246
G1 X123.76 Y120.565 E2.65608
G1 X122.973 Y120.5 E2.67972
G1 X122.196 Y120.356 E2.70338
G1 X121.438 Y120.134 E2.72702
G1 X120.707 Y119.837 E2.75064
G1 X120.216 Y119.577 E2.76727
G1 X119.968 Y119.972 E2.78123
G1 X119.484 Y120.596 E2.80487
G1 X118.939 Y121.167 E2.8285
G1 X118.339 Y121.681 E2.85215
G1 X117.69 Y122.131 E2.87579
G1 X116.999 Y122.513 E2.89942
G1 X116.273 Y122.823 E2.92306
G1 X115.603 Y123.037 E2.94411
G1 X115.306 Y123.117 E2.95332
G1 X114.65 Y123.263 E2.97343
G1 X114.32 Y123.322 E2.98347
G1 X114.046 Y123.361 E2.99175
G1 X113.348 Y123.513 E3.01314
G1 X112.569 Y123.642 E3.03677
G1 X111.78 Y123.691 E3.06044
G1 X111.395 Y123.676 E3.07197
G1 X106.202 Y124.718 E3.23052
G1 X105.421 Y124.834 E3.25415
G1 X104.401 Y124.865 E3.2847
G1 X103.814 Y124.845 E3.30228
G1 X102.247 Y125.025 E3.3495
G1 X101.847 Y125.048 E3.36149
G1 X101.489 Y125.091 E3.37228
G1 X101.239 Y125.117 E3.37981
G1 X100.988 Y125.139 E3.38735
G1 X100.43 Y125.23 E3.40427
G1 X99.878 Y125.273 E3.42085
G1 X95.628 Y125.446 E3.54817
G1 X95.311 Y125.452 E3.55766
G1 X94.553 Y125.452 E3.58035
G1 X94.01 Y125.469 E3.59661
G1 X93.766 Y125.473 E3.60392
G1 X91.547 Y125.473 E3.67034
G1 X91.201 Y125.465 E3.6807
G1 X90.908 Y125.452 E3.68948
G1 X89.625 Y125.452 E3.72789
G1 X89.019 Y125.428 E3.74604
G1 X88.889 Y125.418 E3.74994
G1 X88.495 Y125.402 E3.76175
G1 X88.131 Y125.369 E3.77269
G1 X87.395 Y125.342 E3.79474
G1 X87.077 Y125.327 E3.80427
G1 X86.822 Y125.323 E3.8119
G1 X86.118 Y125.3 E3.83298
G1 X85.799 Y125.276 E3.84256
G1 X84.047 Y125.172 E3.8951
G1 X83.41 Y125.108 E3.91426
G1 X83.129 Y125.068 E3.92276
G1 X82.354 Y124.917 E3.94639
G1 X81.598 Y124.689 E3.97003
G1 X80.869 Y124.386 E3.99366
G1 X80.174 Y124.01 E4.01732
G1 X79.521 Y123.566 E4.04095
G1 X78.916 Y123.058 E4.0646
G1 X78.366 Y122.492 E4.08822
G1 X77.876 Y121.872 E4.11188
G1 X77.451 Y121.207 E4.1355
G1 X77.095 Y120.502 E4.15915
G1 X76.812 Y119.765 E4.18278
G1 X76.606 Y119.002 E4.20644
G1 X76.477 Y118.223 E4.23007
G1 X76.432 Y117.594 E4.24895
G1 X76.39 Y116.274 E4.28848
G1 X76.405 Y115.485 E4.3121
G1 X76.499 Y114.701 E4.33574
G1 X76.673 Y113.93 E4.3594
G1 X76.905 Y113.235 E4.38133
G1 X76.689 Y112.73 E4.39777
G1 X76.452 Y111.976 E4.42143
G1 X76.26 Y110.962 E4.45233
G1 X76.229 Y110.707 E4.46002
G1 X76.204 Y110.328 E4.47138
G1 X76.169 Y109.947 E4.48284
G1 X76.136 Y109.233 E4.50423
G1 X76.136 Y108.624 E4.52246
G1 X76.176 Y107.835 E4.54611
G1 X76.295 Y107.055 E4.56973
G1 X76.493 Y106.29 E4.59338
G1 X76.767 Y105.55 E4.61701
G1 X77.115 Y104.841 E4.64065
G1 X77.533 Y104.17 E4.66431
G1 X78.016 Y103.546 E4.68793
G1 X78.559 Y102.973 E4.71156
G1 X79.158 Y102.458 E4.73521
G0 F9000 X79.547 Y102.666
G1 F1200 X80.189 Y102.243 E4.75822
G1 X80.872 Y101.888 E4.78127
G1 X81.587 Y101.607 E4.80426
G1 X82.329 Y101.401 E4.82731
G1 X83.087 Y101.273 E4.85032
G1 X83.936 Y101.224 E4.87578
G1 X84.408 Y101.224 E4.88991
G1 X85.176 Y101.264 E4.91293
G1 X85.593 Y101.306 E4.92548
G1 X86.136 Y101.348 E4.94178
G1 X86.311 Y101.354 E4.94702
G1 X86.737 Y101.382 E4.9598
G1 X87.041 Y101.391 E4.9689
G1 X87.405 Y101.411 E4.97982
G1 X87.584 Y101.412 E4.98517
G1 X87.95 Y101.432 E4.99615
G1 X88.508 Y101.432 E5.01285
G1 X88.865 Y101.446 E5.02354
G1 X89.053 Y101.432 E5.02919
G1 X89.646 Y101.432 E5.04694
G1 X90.256 Y101.457 E5.06521
G1 X90.462 Y101.474 E5.0714
G1 X90.928 Y101.473 E5.08535
G1 X91.694 Y101.433 E5.10831
G1 X93.197 Y101.432 E5.1533
G1 X93.966 Y101.423 E5.17632
G1 X94.102 Y101.434 E5.18041
G1 X95.061 Y101.349 E5.20923
G1 X95.57 Y101.327 E5.22448
G1 X95.873 Y101.298 E5.23359
G1 X96.099 Y101.268 E5.24041
G1 X96.54 Y101.23 E5.25366
G1 X97.175 Y101.203 E5.27269
G1 X98.692 Y101.111 E5.31818
G1 X98.909 Y101.069 E5.3248
G1 X99.671 Y100.963 E5.34783
G1 X100.459 Y100.936 E5.37143
G1 X102.285 Y100.729 E5.42644
G1 X102.556 Y100.714 E5.43456
G1 X102.781 Y100.688 E5.44134
G1 X103.031 Y100.673 E5.44884
G1 X103.527 Y100.602 E5.46384
G1 X103.622 Y100.585 E5.46673
G1 X104.119 Y100.512 E5.48177
G1 X104.398 Y100.463 E5.49025
G1 X104.705 Y100.415 E5.49955
G1 X107.76 Y100.009 E5.5918
G1 X108.396 Y99.815 E5.6117
G1 X109.142 Y99.629 E5.63472
G1 X109.904 Y99.522 E5.65775
G1 X110.486 Y99.496 E5.67519
G1 X110.98 Y99.411 E5.6902
G1 X111.569 Y99.267 E5.70835
G1 X111.958 Y99.183 E5.72026
G1 X112.219 Y99.134 E5.72821
G1 X112.981 Y99.032 E5.75122
G1 X113.75 Y99.009 E5.77425
G1 X114.517 Y99.066 E5.79727
G1 X115.274 Y99.202 E5.8203
G1 X116.012 Y99.417 E5.84331
G1 X116.725 Y99.707 E5.86635
G1 X117.403 Y100.069 E5.88935
G1 X117.486 Y100.125 E5.89235
G1 X117.552 Y99.994 E5.89674
G1 X117.967 Y99.347 E5.91975
G1 X118.447 Y98.746 E5.94278
G1 X118.986 Y98.198 E5.96578
G1 X119.58 Y97.709 E5.98882
G1 X120.221 Y97.284 E6.01184
G1 X120.903 Y96.928 E6.03487
G1 X121.959 Y96.539 E6.06855
G1 X122.985 Y96.166 E6.10123
G1 X123.498 Y95.946 E6.11794
G1 X123.869 Y95.82 E6.12967
G1 X124.137 Y95.737 E6.13807
G1 X125.949 Y95.215 E6.19451
G1 X126.699 Y95.041 E6.21756
G1 X127.462 Y94.946 E6.24058
G1 X128.003 Y94.927 E6.25678
G1 X128.771 Y94.967 E6.2798
G1 X129.531 Y95.086 E6.30283
G1 X130.274 Y95.284 E6.32585
G1 X130.993 Y95.558 E6.34888
G1 X131.679 Y95.905 E6.37189
G1 X132.326 Y96.321 E6.39492
G1 X132.926 Y96.802 E6.41794
G1 X133.473 Y97.343 E6.44097
G1 X133.961 Y97.938 E6.464
G1 X134.384 Y98.58 E6.48702
G1 X134.739 Y99.263 E6.51006
G1 X135.02 Y99.978 E6.53305
G1 X135.226 Y100.72 E6.5561
G1 X135.354 Y101.478 E6.57912
G1 X135.403 Y102.322 E6.60442
G1 X135.408 Y110.085 E6.8368
G1 X135.369 Y110.853 E6.85982
G1 X135.25 Y111.613 E6.88285
G1 X135.052 Y112.357 E6.90589
G1 X134.779 Y113.076 E6.92892
G1 X134.556 Y113.538 E6.94427
G1 X134.447 Y113.745 E6.95127
G1 X134.161 Y114.24 E6.96839
G1 X134.072 Y114.394 E6.97371
G1 X133.883 Y114.698 E6.98443
G1 X133.707 Y115.006 E6.99505
G1 X133.551 Y115.262 E7.00402
G1 X133.398 Y115.51 E7.01274
G1 X132.971 Y116.15 E7.03577
G1 X132.481 Y116.743 E7.0588
G1 X132.146 Y117.084 E7.07311
G1 X132.08 Y117.147 E7.07584
G1 X131.496 Y117.648 E7.09887
G1 X130.864 Y118.086 E7.12189
G1 X130.19 Y118.457 E7.14492
G1 X129.481 Y118.755 E7.16794
G1 X129.001 Y118.901 E7.18296
G1 X127.474 Y119.457 E7.23161
G1 X126.91 Y119.637 E7.24933
G1 X126.438 Y119.767 E7.26398
G1 X126.125 Y119.861 E7.27377
G1 X125.996 Y119.897 E7.27777
G1 X125.246 Y120.065 E7.30078
G1 X124.482 Y120.154 E7.32381
G1 X123.712 Y120.163 E7.34686
G1 X122.947 Y120.093 E7.36985
G1 X122.192 Y119.943 E7.39289
G1 X121.457 Y119.716 E7.41592
G1 X120.75 Y119.414 E7.43893
G1 X120.07 Y119.034 E7.46225
G1 X119.988 Y119.195 E7.46766
G1 X119.571 Y119.841 E7.49068
G1 X119.088 Y120.44 E7.51371
G1 X118.546 Y120.986 E7.53674
G1 X117.95 Y121.472 E7.55976
G1 X117.307 Y121.894 E7.58278
G1 X116.624 Y122.247 E7.6058
G1 X115.908 Y122.527 E7.62881
G1 X115.499 Y122.65 E7.6416
G1 X115.202 Y122.73 E7.6508
G1 X114.579 Y122.869 E7.66991
G1 X114.249 Y122.928 E7.67995
G1 X113.97 Y122.968 E7.68838
G1 X113.262 Y123.122 E7.71007
G1 X112.503 Y123.247 E7.7331
G1 X111.736 Y123.292 E7.7561
G1 X111.359 Y123.275 E7.76739
G1 X106.123 Y124.325 E7.92725
G1 X105.362 Y124.437 E7.95027
G1 X104.415 Y124.466 E7.97863
G1 X103.796 Y124.445 E7.99717
G1 X102.202 Y124.628 E8.0452
G1 X101.802 Y124.651 E8.0572
G1 X101.442 Y124.694 E8.06805
G1 X101.204 Y124.719 E8.07521
G1 X100.936 Y124.743 E8.08327
G1 X100.365 Y124.835 E8.10058
G1 X99.862 Y124.873 E8.11568
G1 X95.612 Y125.046 E8.243
G1 X95.311 Y125.052 E8.25202
G1 X94.54 Y125.052 E8.2751
G1 X93.997 Y125.069 E8.29136
G1 X93.766 Y125.073 E8.29827
G1 X91.547 Y125.073 E8.3647
G1 X91.219 Y125.066 E8.37452
G1 X90.904 Y125.052 E8.38396
G1 X89.625 Y125.052 E8.42224
G1 X89.05 Y125.03 E8.43947
G1 X88.883 Y125.017 E8.44448
G1 X88.511 Y125.002 E8.45563
G1 X88.162 Y124.971 E8.46611
G1 X87.409 Y124.943 E8.48867
G1 X87.077 Y124.927 E8.49862
G1 X86.835 Y124.923 E8.50587
G1 X86.131 Y124.9 E8.52695
G1 X85.823 Y124.877 E8.5362
G1 X84.071 Y124.773 E8.58873
G1 X83.466 Y124.712 E8.60693
G1 X83.185 Y124.672 E8.61543
G1 X82.43 Y124.524 E8.63846
G1 X81.695 Y124.299 E8.66147
G1 X80.987 Y123.998 E8.6845
G1 X80.314 Y123.626 E8.70752
G1 X79.683 Y123.186 E8.73054
G1 X79.102 Y122.683 E8.75355
G1 X78.575 Y122.122 E8.77659
G1 X78.11 Y121.509 E8.79962
G1 X77.711 Y120.852 E8.82263
G1 X77.382 Y120.156 E8.84568
G1 X77.128 Y119.43 E8.8687
G1 X76.95 Y118.682 E8.89171
G1 X76.832 Y117.581 E8.92486
G1 X76.79 Y116.261 E8.96439
G1 X76.805 Y115.492 E8.98742
G1 X76.901 Y114.729 E9.01044
G1 X77.075 Y113.98 E9.03346
G1 X77.325 Y113.253 E9.05647
G1 X77.265 Y113.081 E9.06192
G1 X76.984 Y112.365 E9.08495
G1 X76.779 Y111.623 E9.10799
G1 X76.657 Y110.914 E9.12952
G1 X76.626 Y110.659 E9.13721
G1 X76.602 Y110.291 E9.14825
G1 X76.567 Y109.91 E9.15971
G1 X76.536 Y109.233 E9.17999
G1 X76.536 Y108.624 E9.19822
G1 X76.576 Y107.856 E9.22124
G1 X76.695 Y107.096 E9.24427
G1 X76.893 Y106.353 E9.26729
G1 X77.167 Y105.634 E9.29032
G1 X77.514 Y104.948 E9.31333
G1 X77.93 Y104.301 E9.33636
G1 X78.411 Y103.701 E9.35938
G1 X78.952 Y103.154 E9.38241
G1 X79.547 Y102.666 E9.40544
G0 F9000 X79.934 Y102.881
G1 F1200 X80.57 Y102.486 E9.42785
G1 X81.244 Y102.162 E9.45024
G1 X81.949 Y101.912 E9.47263
G1 X82.677 Y101.738 E9.49503
G1 X83.419 Y101.643 E9.51743
G1 X83.936 Y101.624 E9.53291
G1 X84.408 Y101.624 E9.54704
G1 X85.155 Y101.664 E9.56944
G1 X85.563 Y101.705 E9.58171
G1 X86.113 Y101.747 E9.59822
G1 X86.296 Y101.754 E9.6037
G1 X86.699 Y101.78 E9.61579
G1 X87.041 Y101.791 E9.62603
G1 X87.4 Y101.811 E9.6368
G1 X87.583 Y101.812 E9.64228
G1 X87.939 Y101.832 E9.65295
G1 X88.508 Y101.832 E9.66998
G1 X88.859 Y101.846 E9.6805
G1 X89.053 Y101.832 E9.68632
G1 X89.646 Y101.832 E9.70407
G1 X90.223 Y101.856 E9.72136
G1 X90.441 Y101.874 E9.7279
G1 X90.941 Y101.874 E9.74287
G1 X90.97 Y101.871 E9.74374
G1 X91.694 Y101.833 E9.76545
G1 X93.222 Y101.831 E9.81119
G1 X93.97 Y101.824 E9.83358
G1 X94.111 Y101.836 E9.83781
G1 X95.097 Y101.748 E9.86745
G1 X95.606 Y101.725 E9.8827
G1 X95.911 Y101.696 E9.89187
G1 X96.133 Y101.667 E9.89857
G1 X96.574 Y101.629 E9.91182
G1 X97.175 Y101.603 E9.92983
G1 X98.746 Y101.508 E9.97694
G1 X98.985 Y101.462 E9.98423
G1 X99.726 Y101.36 E10.00662
G1 X100.472 Y101.338 E10.02896
G1 X102.331 Y101.127 E10.08496
G1 X102.586 Y101.112 E10.09261
G1 X102.826 Y101.085 E10.09984
G1 X103.083 Y101.07 E10.10754
G1 X103.585 Y100.997 E10.12273
G1 X103.68 Y100.981 E10.12561
G1 X104.175 Y100.908 E10.14059
G1 X104.467 Y100.857 E10.14946
G1 X104.758 Y100.812 E10.15828
G1 X107.846 Y100.402 E10.25153
G1 X108.513 Y100.198 E10.2724
G1 X109.239 Y100.018 E10.29479
G1 X109.98 Y99.917 E10.31718
G1 X110.531 Y99.894 E10.33369
G1 X111.071 Y99.801 E10.35009
G1 X111.664 Y99.656 E10.36837
G1 X112.031 Y99.576 E10.37961
G1 X112.292 Y99.527 E10.38756
G1 X113.034 Y99.429 E10.40996
G1 X113.782 Y99.41 E10.43236
G1 X114.527 Y99.471 E10.45474
G1 X115.262 Y99.611 E10.47713
G1 X115.978 Y99.829 E10.49954
G1 X116.666 Y100.122 E10.52192
G1 X117.319 Y100.487 E10.54432
G1 X117.636 Y100.711 E10.55593
G1 X117.951 Y100.104 E10.57641
G1 X118.365 Y99.48 E10.59882
G1 X118.842 Y98.905 E10.62119
