;FLAVOR:Marlin
;TIME:1443
;Filament used: 0.698872m
;Layer height: 0.2
;MINX:92.265
;MINY:92.7
;MINZ:0.2
;MAXX:127.734
;MAXY:127.3
;MAXZ:17.2
;Generated with Cura_SteamEngine 4.10.0
M140 S70
M105
M190 S70
M104 S210
M105
M109 S210
M82 ;absolute extrusion mode
; Ender 3 Custom Start G-code
G92 E0 ; Reset Extruder
G28 ; Home all axes
G1 Z2.0 F3000 ; Move Z Axis up little to prevent scratching of Heat Bed
G1 X0.1 Y20 Z0.3 F5000.0 ; Move to start position
G1 X0.1 Y200.0 Z0.3 F1500.0 E15 ; Draw the first line
G1 X0.4 Y200.0 Z0.3 F5000.0 ; Move to side a little
G1 X0.4 Y20 Z0.3 F1500.0 E30 ; Draw the second line
G92 E0 ; Reset Extruder
G1 Z2.0 F3000 ; Move Z Axis up little to prevent scratching of Heat Bed
G1 X5 Y20 Z0.3 F5000.0 ; Move over to prevent blob squish
G92 E0
G92 E0
G1 F1500 E-6.5
;LAYER_COUNT:86
;LAYER:0
M107
G1 F300 Z0.4
G0 F9000 X94.688 Y94.849 Z0.4
;TYPE:SKIRT
G1 F300 Z0.2
G1 F1500 E0
G1 F1200 X95.287 Y94.334 E0.02365
G1 X95.935 Y93.883 E0.04728
G1 X96.626 Y93.499 E0.07094
G1 X97.351 Y93.187 E0.09457
G1 X98.104 Y92.95 E0.1182
G1 X98.878 Y92.791 E0.14185
G1 X99.663 Y92.71 E0.16548
G1 X100.065 Y92.7 E0.17751
G1 X119.934 Y92.7 E0.77227
G1 X120.723 Y92.74 E0.79592
G1 X121.503 Y92.859 E0.81954
G1 X122.268 Y93.057 E0.8432
G1 X123.008 Y93.331 E0.86682
G1 X123.717 Y93.679 E0.89046
G1 X124.388 Y94.097 E0.91412
G1 X125.012 Y94.58 E0.93774
G1 X125.585 Y95.123 E0.96137
G1 X126.1 Y95.722 E0.98502
G1 X126.551 Y96.37 E1.00865
G1 X126.935 Y97.061 E1.03232
G1 X127.247 Y97.786 E1.05594
G1 X127.484 Y98.539 E1.07957
G1 X127.643 Y99.313 E1.10323
G1 X127.724 Y100.098 E1.12685
G1 X127.734 Y100.501 E1.13892
G1 X127.733 Y106.001 E1.30356
G1 X127.693 Y106.79 E1.3272
G1 X127.573 Y107.571 E1.35086
G1 X127.375 Y108.335 E1.37448
G1 X127.101 Y109.076 E1.39813
G1 X126.753 Y109.785 E1.42177
G1 X126.621 Y109.997 E1.42925
G1 X126.935 Y110.561 E1.44857
G1 X127.247 Y111.286 E1.4722
G1 X127.484 Y112.039 E1.49583
G1 X127.643 Y112.813 E1.51948
G1 X127.724 Y113.598 E1.5431
G1 X127.734 Y114.001 E1.55517
G1 X127.733 Y119.501 E1.71981
G1 X127.693 Y120.29 E1.74346
G1 X127.573 Y121.071 E1.76711
G1 X127.375 Y121.835 E1.79074
G1 X127.101 Y122.576 E1.81438
G1 X126.753 Y123.285 E1.83803
G1 X126.336 Y123.955 E1.86165
G1 X125.852 Y124.579 E1.88529
G1 X125.308 Y125.152 E1.90894
G1 X124.709 Y125.666 E1.93257
G1 X124.061 Y126.118 E1.95622
G1 X123.371 Y126.501 E1.97984
G1 X122.646 Y126.813 E2.00347
G1 X121.892 Y127.05 E2.02713
G1 X121.119 Y127.209 E2.05075
G1 X120.333 Y127.29 E2.0744
G1 X119.933 Y127.3 E2.08638
G1 X100.065 Y127.3 E2.68111
G1 X99.276 Y127.26 E2.70476
G1 X98.496 Y127.141 E2.72838
G1 X97.731 Y126.943 E2.75203
G1 X96.991 Y126.669 E2.77565
G1 X96.282 Y126.321 E2.79929
G1 X95.611 Y125.903 E2.82296
G1 X94.987 Y125.42 E2.84658
G1 X94.414 Y124.877 E2.87021
G1 X93.899 Y124.278 E2.89386
G1 X93.448 Y123.63 E2.91749
G1 X93.064 Y122.939 E2.94115
G1 X92.752 Y122.214 E2.96478
G1 X92.515 Y121.461 E2.98841
G1 X92.356 Y120.687 E3.01206
G1 X92.275 Y119.902 E3.03569
G1 X92.265 Y119.5 E3.04772
G1 X92.265 Y100.5 E3.61647
G1 X92.305 Y99.711 E3.64012
G1 X92.424 Y98.931 E3.66374
G1 X92.622 Y98.166 E3.68739
G1 X92.896 Y97.426 E3.71101
G1 X93.244 Y96.717 E3.73466
G1 X93.662 Y96.046 E3.75832
G1 X94.145 Y95.422 E3.78194
G1 X94.688 Y94.849 E3.80557
G0 F9000 X95.081 Y95.03
G1 F1200 X95.676 Y94.542 E3.82861
G1 X96.318 Y94.119 E3.85162
G1 X97.001 Y93.764 E3.87466
G1 X97.716 Y93.483 E3.89766
G1 X98.458 Y93.277 E3.92071
G1 X99.216 Y93.149 E3.94372
G1 X100.065 Y93.1 E3.96918
G1 X119.934 Y93.1 E4.56394
G1 X120.702 Y93.14 E4.58696
G1 X121.462 Y93.259 E4.60999
G1 X122.205 Y93.457 E4.633
G1 X122.924 Y93.731 E4.65604
G1 X123.61 Y94.078 E4.67905
G1 X124.257 Y94.494 E4.70207
G1 X124.857 Y94.975 E4.72509
G1 X125.404 Y95.516 E4.74812
G1 X125.892 Y96.111 E4.77116
G1 X126.315 Y96.753 E4.79417
G1 X126.67 Y97.436 E4.81721
G1 X126.951 Y98.151 E4.84021
G1 X127.157 Y98.893 E4.86326
G1 X127.285 Y99.651 E4.88627
G1 X127.334 Y100.501 E4.91176
G1 X127.333 Y106.001 E5.0764
G1 X127.293 Y106.769 E5.09942
G1 X127.173 Y107.529 E5.12245
G1 X126.975 Y108.273 E5.1455
G1 X126.701 Y108.991 E5.1685
G1 X126.354 Y109.678 E5.19154
G1 X126.147 Y109.999 E5.20297
G1 X126.315 Y110.253 E5.21209
G1 X126.67 Y110.936 E5.23513
G1 X126.951 Y111.651 E5.25813
G1 X127.157 Y112.393 E5.28118
G1 X127.285 Y113.151 E5.30419
G1 X127.334 Y114.001 E5.32968
G1 X127.333 Y119.501 E5.49431
G1 X127.293 Y120.269 E5.51733
G1 X127.173 Y121.029 E5.54037
G1 X126.975 Y121.773 E5.56341
G1 X126.701 Y122.491 E5.58642
G1 X126.354 Y123.178 E5.60946
G1 X125.938 Y123.824 E5.63246
G1 X125.457 Y124.424 E5.65547
G1 X124.916 Y124.971 E5.6785
G1 X124.321 Y125.459 E5.70154
G1 X123.679 Y125.882 E5.72455
G1 X122.996 Y126.236 E5.74758
G1 X122.28 Y126.518 E5.77062
G1 X121.539 Y126.724 E5.79364
G1 X120.781 Y126.851 E5.81665
G1 X119.933 Y126.9 E5.84207
G1 X100.065 Y126.9 E6.4368
G1 X99.297 Y126.86 E6.45982
G1 X98.537 Y126.741 E6.48285
G1 X97.794 Y126.543 E6.50587
G1 X97.075 Y126.269 E6.5289
G1 X96.389 Y125.922 E6.55191
G1 X95.742 Y125.506 E6.57494
G1 X95.142 Y125.025 E6.59796
G1 X94.595 Y124.484 E6.62099
G1 X94.107 Y123.889 E6.64402
G1 X93.684 Y123.247 E6.66704
G1 X93.329 Y122.564 E6.69008
G1 X93.048 Y121.849 E6.71307
G1 X92.842 Y121.107 E6.73613
G1 X92.714 Y120.349 E6.75914
G1 X92.665 Y119.5 E6.78459
G1 X92.665 Y100.5 E7.35334
G1 X92.705 Y99.732 E7.37636
G1 X92.824 Y98.972 E7.39939
G1 X93.022 Y98.229 E7.42241
G1 X93.296 Y97.51 E7.44544
G1 X93.643 Y96.824 E7.46845
G1 X94.059 Y96.177 E7.49148
G1 X94.54 Y95.577 E7.5145
G1 X95.081 Y95.03 E7.53753
G0 F9000 X95.473 Y95.216
G1 F1200 X96.063 Y94.757 E7.5599
G1 X96.699 Y94.362 E7.58231
G1 X97.373 Y94.038 E7.6047
G1 X98.078 Y93.788 E7.62709
G1 X98.806 Y93.614 E7.6495
G1 X99.548 Y93.519 E7.67189
G1 X100.065 Y93.5 E7.68737
G1 X119.934 Y93.5 E8.28214
G1 X120.681 Y93.54 E8.30453
G1 X121.419 Y93.659 E8.32691
G1 X122.141 Y93.857 E8.34932
G1 X122.837 Y94.13 E8.3717
G1 X123.5 Y94.477 E8.3941
G1 X124.123 Y94.892 E8.4165
G1 X124.697 Y95.371 E8.43888
G1 X125.218 Y95.908 E8.46128
G1 X125.677 Y96.498 E8.48366
G1 X126.072 Y97.134 E8.50607
G1 X126.396 Y97.808 E8.52845
G1 X126.646 Y98.513 E8.55084
G1 X126.82 Y99.241 E8.57325
G1 X126.915 Y99.983 E8.59564
G1 X126.934 Y100.501 E8.61116
G1 X126.933 Y106.001 E8.7758
G1 X126.893 Y106.748 E8.79819
G1 X126.773 Y107.487 E8.8206
G1 X126.576 Y108.208 E8.84297
G1 X126.302 Y108.904 E8.86536
G1 X125.956 Y109.567 E8.88775
G1 X125.673 Y109.992 E8.90303
G1 X126.072 Y110.634 E8.92566
G1 X126.396 Y111.308 E8.94805
G1 X126.646 Y112.013 E8.97044
G1 X126.82 Y112.741 E8.99284
G1 X126.915 Y113.483 E9.01524
G1 X126.934 Y114.001 E9.03075
G1 X126.933 Y119.501 E9.19539
G1 X126.893 Y120.248 E9.21778
G1 X126.773 Y120.987 E9.24019
G1 X126.576 Y121.708 E9.26257
G1 X126.302 Y122.404 E9.28496
G1 X125.956 Y123.067 E9.30734
G1 X125.541 Y123.69 E9.32975
G1 X125.061 Y124.264 E9.35215
G1 X124.524 Y124.784 E9.37453
G1 X123.934 Y125.244 E9.39692
G1 X123.298 Y125.638 E9.41932
G1 X122.624 Y125.962 E9.4417
G1 X121.919 Y126.212 E9.46409
G1 X121.191 Y126.386 E9.4865
G1 X120.449 Y126.481 E9.50889
G1 X119.933 Y126.5 E9.52435
G1 X100.065 Y126.5 E10.11908
G1 X99.318 Y126.46 E10.14147
G1 X98.58 Y126.341 E10.16385
G1 X97.858 Y126.143 E10.18626
G1 X97.162 Y125.87 E10.20864
G1 X96.499 Y125.523 E10.23104
G1 X95.876 Y125.108 E10.25345
G1 X95.302 Y124.629 E10.27583
G1 X94.781 Y124.092 E10.29822
G1 X94.322 Y123.502 E10.3206
G1 X93.927 Y122.866 E10.34301
G1 X93.603 Y122.192 E10.3654
G1 X93.353 Y121.487 E10.38779
G1 X93.179 Y120.759 E10.41019
G1 X93.084 Y120.017 E10.43258
G1 X93.065 Y119.5 E10.44807
G1 X93.065 Y100.5 E11.01682
G1 X93.105 Y99.753 E11.03921
G1 X93.224 Y99.015 E11.06159
G1 X93.422 Y98.293 E11.084
G1 X93.695 Y97.597 E11.10638
G1 X94.042 Y96.934 E11.12878
G1 X94.457 Y96.311 E11.15119
G1 X94.936 Y95.737 E11.17357
G1 X95.473 Y95.216 E11.19596
G0 F9000 X95.33 Y95.902
G1 F1200 X95.864 Y95.409 E11.21772
G1 X96.449 Y94.979 E11.23945
G1 X97.078 Y94.615 E11.26121
G1 X97.743 Y94.322 E11.28296
G1 X98.436 Y94.104 E11.3047
G1 X99.148 Y93.964 E11.32643
G1 X100.065 Y93.9 E11.35394
G1 X119.934 Y93.9 E11.9487
G1 X120.659 Y93.94 E11.97044
G1 X121.376 Y94.059 E11.99219
G1 X122.075 Y94.257 E12.01394
G1 X122.748 Y94.53 E12.03568
G1 X123.387 Y94.875 E12.05742
G1 X123.984 Y95.289 E12.07917
G1 X124.532 Y95.765 E12.10089
G1 X125.025 Y96.299 E12.12265
G1 X125.455 Y96.884 E12.14438
G1 X125.819 Y97.513 E12.16614
G1 X126.112 Y98.178 E12.18789
G1 X126.33 Y98.871 E12.20964
G1 X126.47 Y99.583 E12.23136
G1 X126.534 Y100.501 E12.2589
G1 X126.533 Y106.001 E12.42354
G1 X126.493 Y106.726 E12.44528
G1 X126.373 Y107.443 E12.46704
G1 X126.176 Y108.142 E12.48878
G1 X125.903 Y108.815 E12.51052
G1 X125.557 Y109.454 E12.53227
G1 X125.176 Y110.005 E12.55232
G1 X125.455 Y110.384 E12.56641
G1 X125.819 Y111.013 E12.58816
G1 X126.112 Y111.678 E12.60992
G1 X126.33 Y112.371 E12.63166
G1 X126.47 Y113.083 E12.65338
G1 X126.534 Y114.001 E12.68093
G1 X126.533 Y119.501 E12.84557
G1 X126.493 Y120.226 E12.8673
G1 X126.373 Y120.943 E12.88906
G1 X126.176 Y121.642 E12.9108
G1 X125.903 Y122.315 E12.93254
G1 X125.557 Y122.954 E12.9543
G1 X125.144 Y123.551 E12.97603
G1 X124.667 Y124.099 E12.99777
G1 X124.133 Y124.591 E13.01951
G1 X123.548 Y125.022 E13.04126
G1 X122.919 Y125.386 E13.06301
G1 X122.254 Y125.678 E13.08475
G1 X121.561 Y125.896 E13.1065
G1 X120.849 Y126.036 E13.12822
G1 X119.933 Y126.1 E13.15571
G1 X100.065 Y126.1 E13.75044
G1 X99.34 Y126.06 E13.77218
G1 X98.623 Y125.941 E13.79393
G1 X97.924 Y125.743 E13.81568
G1 X97.251 Y125.47 E13.83742
G1 X96.612 Y125.125 E13.85916
G1 X96.015 Y124.711 E13.8809
G1 X95.467 Y124.235 E13.90263
G1 X94.974 Y123.701 E13.92439
G1 X94.544 Y123.116 E13.94612
G1 X94.18 Y122.487 E13.96787
G1 X93.887 Y121.822 E13.98963
G1 X93.669 Y121.129 E14.01137
G1 X93.529 Y120.417 E14.03309
G1 X93.465 Y119.5 E14.06061
G1 X93.465 Y100.5 E14.62936
G1 X93.505 Y99.775 E14.65109
G1 X93.624 Y99.058 E14.67285
G1 X93.822 Y98.359 E14.6946
G1 X94.095 Y97.686 E14.71634
G1 X94.44 Y97.047 E14.73808
G1 X94.854 Y96.45 E14.75982
G1 X95.33 Y95.902 E14.78155
G0 F9000 X95.724 Y96.073
G1 F1200 X96.254 Y95.609 E14.80264
G1 X96.833 Y95.209 E14.8237
G1 X97.454 Y94.877 E14.84478
G1 X98.108 Y94.617 E14.86585
G1 X98.788 Y94.433 E14.88694
G1 X99.484 Y94.327 E14.90801
G1 X100.065 Y94.3 E14.92542
G1 X119.934 Y94.3 E15.52018
G1 X120.637 Y94.34 E15.54126
G1 X121.331 Y94.459 E15.56234
G1 X122.006 Y94.657 E15.58339
G1 X122.655 Y94.929 E15.60446
G1 X123.269 Y95.274 E15.62554
G1 X123.84 Y95.685 E15.6466
G1 X124.361 Y96.159 E15.66769
G1 X124.825 Y96.689 E15.68877
G1 X125.225 Y97.268 E15.70984
G1 X125.557 Y97.889 E15.73092
G1 X125.817 Y98.543 E15.75198
G1 X126.001 Y99.223 E15.77307
G1 X126.107 Y99.919 E15.79414
G1 X126.134 Y100.501 E15.81158
G1 X126.133 Y106.001 E15.97622
G1 X126.093 Y106.704 E15.9973
G1 X125.973 Y107.398 E16.01838
G1 X125.776 Y108.073 E16.03943
G1 X125.503 Y108.723 E16.06054
G1 X125.159 Y109.336 E16.08158
G1 X124.747 Y109.907 E16.10265
G1 X124.661 Y110.002 E16.10649
G1 X124.825 Y110.189 E16.11394
G1 X125.225 Y110.768 E16.135
G1 X125.557 Y111.389 E16.15608
G1 X125.817 Y112.043 E16.17715
G1 X126.001 Y112.723 E16.19823
G1 X126.107 Y113.419 E16.21931
G1 X126.134 Y114.001 E16.23675
G1 X126.133 Y119.501 E16.40139
G1 X126.093 Y120.204 E16.42246
G1 X125.973 Y120.898 E16.44355
G1 X125.776 Y121.573 E16.4646
G1 X125.503 Y122.223 E16.4857
G1 X125.159 Y122.836 E16.50674
G1 X124.747 Y123.407 E16.52782
G1 X124.273 Y123.928 E16.5489
G1 X123.743 Y124.391 E16.56997
G1 X123.164 Y124.792 E16.59105
G1 X122.543 Y125.124 E16.61213
G1 X121.889 Y125.383 E16.63319
G1 X121.209 Y125.567 E16.65427
G1 X120.513 Y125.673 E16.67535
G1 X119.933 Y125.7 E16.69273
G1 X100.065 Y125.7 E17.28746
G1 X99.362 Y125.66 E17.30854
G1 X98.668 Y125.541 E17.32961
G1 X97.993 Y125.343 E17.35067
G1 X97.344 Y125.071 E17.37174
G1 X96.73 Y124.726 E17.39282
G1 X96.159 Y124.315 E17.41388
G1 X95.638 Y123.841 E17.43496
G1 X95.174 Y123.311 E17.45605
G1 X94.774 Y122.732 E17.47711
G1 X94.442 Y122.111 E17.49819
G1 X94.182 Y121.457 E17.51926
G1 X93.998 Y120.777 E17.54035
G1 X93.892 Y120.081 E17.56142
G1 X93.865 Y119.5 E17.57883
G1 X93.865 Y100.5 E18.14758
G1 X93.905 Y99.797 E18.16866
G1 X94.024 Y99.103 E18.18974
G1 X94.222 Y98.428 E18.21079
G1 X94.494 Y97.779 E18.23186
G1 X94.839 Y97.165 E18.25294
G1 X95.25 Y96.594 E18.274
G1 X95.724 Y96.073 E18.29508
G0 F9000 X96.118 Y96.251
G1 F1200 X96.643 Y95.817 E18.31547
G1 X97.215 Y95.448 E18.33585
G1 X97.827 Y95.149 E18.35624
G1 X98.469 Y94.924 E18.3766
G1 X99.134 Y94.775 E18.397
G1 X100.065 Y94.7 E18.42496
G1 X119.934 Y94.7 E19.01972
G1 X120.614 Y94.74 E19.04011
G1 X121.284 Y94.859 E19.06048
G1 X121.936 Y95.056 E19.08087
G1 X122.56 Y95.328 E19.10125
G1 X123.148 Y95.672 E19.12164
G1 X123.692 Y96.082 E19.14203
G1 X124.183 Y96.553 E19.1624
G1 X124.617 Y97.078 E19.18279
G1 X124.986 Y97.65 E19.20316
G1 X125.285 Y98.262 E19.22355
G1 X125.51 Y98.904 E19.24392
G1 X125.659 Y99.569 E19.26432
G1 X125.734 Y100.501 E19.2923
G1 X125.733 Y106.001 E19.45694
G1 X125.693 Y106.681 E19.47733
G1 X125.573 Y107.351 E19.49771
G1 X125.376 Y108.003 E19.5181
G1 X125.104 Y108.627 E19.53847
G1 X124.761 Y109.215 E19.55885
G1 X124.351 Y109.758 E19.57922
G1 X124.123 Y109.996 E19.58908
G1 X124.183 Y110.053 E19.59156
G1 X124.617 Y110.578 E19.61195
G1 X124.986 Y111.15 E19.63233
G1 X125.285 Y111.762 E19.65271
G1 X125.51 Y112.404 E19.67308
G1 X125.659 Y113.069 E19.69348
G1 X125.734 Y114.001 E19.72147
G1 X125.733 Y119.501 E19.8861
G1 X125.693 Y120.181 E19.90649
G1 X125.573 Y120.851 E19.92687
G1 X125.376 Y121.503 E19.94726
G1 X125.104 Y122.127 E19.96763
G1 X124.761 Y122.715 E19.98801
G1 X124.351 Y123.258 E20.00838
G1 X123.88 Y123.75 E20.02877
G1 X123.354 Y124.183 E20.04916
G1 X122.782 Y124.552 E20.06954
G1 X122.17 Y124.851 E20.08993
G1 X121.528 Y125.076 E20.11029
G1 X120.863 Y125.225 E20.13069
G1 X119.933 Y125.3 E20.15862
G1 X100.065 Y125.3 E20.75335
G1 X99.385 Y125.26 E20.77374
G1 X98.715 Y125.141 E20.79411
G1 X98.063 Y124.944 E20.8145
G1 X97.439 Y124.672 E20.83488
G1 X96.851 Y124.328 E20.85527
G1 X96.307 Y123.918 E20.87566
G1 X95.816 Y123.447 E20.89603
G1 X95.382 Y122.922 E20.91642
G1 X95.013 Y122.35 E20.93679
G1 X94.714 Y121.738 E20.95718
G1 X94.489 Y121.096 E20.97754
G1 X94.34 Y120.431 E20.99794
G1 X94.265 Y119.5 E21.0259
G1 X94.265 Y100.5 E21.59465
G1 X94.305 Y99.82 E21.61504
G1 X94.424 Y99.15 E21.63541
G1 X94.621 Y98.498 E21.6558
G1 X94.893 Y97.874 E21.67618
G1 X95.237 Y97.286 E21.69657
G1 X95.647 Y96.742 E21.71696
G1 X96.118 Y96.251 E21.73733
G0 F9000 X96.51 Y96.435
G1 F1200 X97.03 Y96.034 E21.75698
G1 X97.594 Y95.698 E21.77663
G1 X98.196 Y95.434 E21.79631
G1 X98.825 Y95.244 E21.81598
G1 X99.472 Y95.133 E21.83563
G1 X100.065 Y95.1 E21.85341
G1 X119.934 Y95.1 E22.44817
G1 X120.59 Y95.14 E22.46784
G1 X121.236 Y95.259 E22.48751
G1 X121.863 Y95.456 E22.50718
G1 X122.461 Y95.728 E22.52684
G1 X123.022 Y96.07 E22.54651
G1 X123.537 Y96.478 E22.56618
G1 X123.999 Y96.945 E22.58584
G1 X124.4 Y97.465 E22.6055
G1 X124.736 Y98.029 E22.62515
G1 X125 Y98.631 E22.64483
G1 X125.19 Y99.26 E22.6645
G1 X125.301 Y99.907 E22.68415
G1 X125.334 Y100.501 E22.70196
G1 X125.333 Y106.001 E22.86659
G1 X125.293 Y106.657 E22.88627
G1 X125.174 Y107.303 E22.90593
G1 X124.977 Y107.929 E22.92557
G1 X124.705 Y108.528 E22.94527
G1 X124.363 Y109.088 E22.96491
G1 X123.955 Y109.603 E22.98458
G1 X123.556 Y109.997 E23.00136
G1 X123.999 Y110.445 E23.02022
G1 X124.4 Y110.965 E23.03988
G1 X124.736 Y111.529 E23.05953
G1 X125 Y112.131 E23.07921
G1 X125.19 Y112.76 E23.09888
G1 X125.301 Y113.407 E23.11853
G1 X125.334 Y114.001 E23.13634
