;FLAVOR:Marlin
;TIME:4741
;Filament used: 3.39124m
;Layer height: 0.2
;MINX:51.194
;MINY:77.7
;MINZ:0.2
;MAXX:170.71
;MAXY:142.297
;MAXZ:15.2
;Generated with Cura_SteamEngine 4.10.0
M140 S70
M105
M190 S70
M104 S210
M105
M109 S210
M82 ;absolute extrusion mode
; Ender 3 Custom Start G-code
G92 E0 ; Reset Extruder
G28 ; Home all axes
G1 Z2.0 F3000 ; Move Z Axis up little to prevent scratching of Heat Bed
G1 X0.1 Y20 Z0.3 F5000.0 ; Move to start position
G1 X0.1 Y200.0 Z0.3 F1500.0 E15 ; Draw the first line
G1 X0.4 Y200.0 Z0.3 F5000.0 ; Move to side a little
G1 X0.4 Y20 Z0.3 F1500.0 E30 ; Draw the second line
G92 E0 ; Reset Extruder
G1 Z2.0 F3000 ; Move Z Axis up little to prevent scratching of Heat Bed
G1 X5 Y20 Z0.3 F5000.0 ; Move over to prevent blob squish
G92 E0
G92 E0
G1 F1500 E-6.5
;LAYER_COUNT:75
;LAYER:0
M107
G1 F300 Z0.4
G0 F9000 X64.437 Y81.125 Z0.4
;TYPE:SKIRT
G1 F300 Z0.2
G1 F1500 E0
G1 F1200 X64.606 Y81.002 E0.00626
G1 X65.314 Y80.544 E0.0315
G1 X65.497 Y80.439 E0.03781
G1 X66.208 Y80.078 E0.06168
G1 X66.399 Y79.993 E0.06794
G1 X67.148 Y79.705 E0.09196
G1 X67.347 Y79.64 E0.09823
G1 X68.124 Y79.429 E0.12233
G1 X68.328 Y79.385 E0.12858
G1 X69.197 Y79.249 E0.15491
G1 X69.407 Y79.228 E0.16122
G1 X70.033 Y79.19 E0.18
G1 X70.292 Y79.187 E0.18775
G1 X107.285 Y79.211 E1.2951
G1 X107.69 Y79.222 E1.30723
G1 X107.899 Y79.233 E1.3135
G1 X108.723 Y79.32 E1.3383
G1 X108.929 Y79.353 E1.34454
G1 X109.709 Y79.52 E1.36842
G1 X109.911 Y79.574 E1.37468
G1 X110.697 Y79.829 E1.39942
G1 X110.892 Y79.904 E1.40567
G1 X111.639 Y80.237 E1.43015
G1 X111.827 Y80.333 E1.43647
G1 X112.528 Y80.738 E1.46071
G1 X112.702 Y80.851 E1.46692
G1 X113.323 Y81.302 E1.48989
G1 X113.398 Y81.21 E1.49344
G1 X113.763 Y80.797 E1.50994
G1 X113.834 Y80.722 E1.51303
G1 X114.259 Y80.305 E1.53086
G1 X114.409 Y80.169 E1.53692
G1 X115.077 Y79.628 E1.56265
G1 X115.254 Y79.5 E1.56919
G1 X115.935 Y79.059 E1.59347
G1 X116.114 Y78.956 E1.59966
G1 X116.819 Y78.597 E1.62334
G1 X117.009 Y78.512 E1.62957
G1 X117.827 Y78.2 E1.65578
G1 X118.028 Y78.136 E1.66209
G1 X118.766 Y77.94 E1.68495
G1 X118.972 Y77.896 E1.69125
G1 X119.784 Y77.767 E1.71586
G1 X119.993 Y77.745 E1.72215
G1 X120.654 Y77.704 E1.74198
G1 X120.91 Y77.7 E1.74964
G1 X160.913 Y77.7 E2.9471
G1 X161.288 Y77.709 E2.95833
G1 X161.496 Y77.719 E2.96456
G1 X162.343 Y77.806 E2.99005
G1 X162.551 Y77.839 E2.99635
G1 X163.413 Y78.026 E3.02275
G1 X163.615 Y78.082 E3.02903
G1 X164.319 Y78.314 E3.05122
G1 X164.515 Y78.389 E3.0575
G1 X165.245 Y78.713 E3.08141
G1 X165.431 Y78.807 E3.08765
G1 X166.153 Y79.221 E3.11256
G1 X166.329 Y79.335 E3.11884
G1 X167.038 Y79.853 E3.14512
G1 X167.2 Y79.986 E3.15139
G1 X167.766 Y80.5 E3.17428
G1 X167.913 Y80.647 E3.1805
G1 X168.471 Y81.267 E3.20547
G1 X168.604 Y81.432 E3.21182
G1 X169.084 Y82.096 E3.23634
G1 X169.197 Y82.271 E3.24258
G1 X169.605 Y82.984 E3.26717
G1 X169.699 Y83.17 E3.27341
G1 X170.006 Y83.856 E3.2959
G1 X170.082 Y84.051 E3.30217
G1 X170.361 Y84.913 E3.32929
G1 X170.414 Y85.116 E3.33557
G1 X170.563 Y85.816 E3.35699
G1 X170.597 Y86.022 E3.36324
G1 X170.678 Y86.694 E3.38351
G1 X170.686 Y86.798 E3.38663
G1 X170.709 Y87.358 E3.4034
G1 X170.71 Y87.562 E3.40951
G1 X170.7 Y87.823 E3.41733
G1 X170.676 Y98.644 E3.74125
G1 X170.676 Y114.242 E4.20816
G1 X170.636 Y115.031 E4.23181
G1 X170.517 Y115.811 E4.25543
G1 X170.319 Y116.576 E4.27908
G1 X170.045 Y117.316 E4.3027
G1 X169.697 Y118.025 E4.32634
G1 X169.279 Y118.696 E4.35001
G1 X169.061 Y118.977 E4.36065
G1 X169.062 Y126.992 E4.60058
G1 X169.493 Y127.612 E4.62318
G1 X169.877 Y128.303 E4.64684
G1 X170.189 Y129.028 E4.67047
G1 X170.426 Y129.781 E4.6941
G1 X170.585 Y130.555 E4.71775
G1 X170.666 Y131.34 E4.74138
G1 X170.676 Y131.742 E4.75341
G1 X170.676 Y131.846 E4.75653
G1 X170.709 Y132.398 E4.77308
G1 X170.709 Y132.607 E4.77934
G1 X170.666 Y133.427 E4.80392
G1 X170.644 Y133.635 E4.81018
G1 X170.513 Y134.452 E4.83495
G1 X170.469 Y134.657 E4.84122
G1 X170.257 Y135.442 E4.86556
G1 X170.192 Y135.641 E4.87183
G1 X169.912 Y136.373 E4.89529
G1 X169.828 Y136.563 E4.90151
G1 X169.45 Y137.307 E4.92649
G1 X169.345 Y137.489 E4.93278
G1 X168.883 Y138.199 E4.95813
G1 X168.76 Y138.367 E4.96437
G1 X168.253 Y138.989 E4.98839
G1 X168.112 Y139.145 E4.99468
G1 X167.516 Y139.737 E5.01983
G1 X167.359 Y139.877 E5.02612
G1 X166.8 Y140.331 E5.04768
G1 X166.632 Y140.455 E5.05393
G1 X165.87 Y140.951 E5.08115
G1 X165.688 Y141.055 E5.08742
G1 X165.007 Y141.402 E5.1103
G1 X164.815 Y141.488 E5.1166
G1 X163.98 Y141.805 E5.14334
G1 X163.781 Y141.868 E5.14958
G1 X163.064 Y142.058 E5.17179
G1 X162.859 Y142.102 E5.17806
G1 X162.006 Y142.237 E5.20391
G1 X161.798 Y142.258 E5.21017
G1 X161.014 Y142.297 E5.23367
G1 X160.805 Y142.297 E5.23993
G1 X160.469 Y142.281 E5.25
G1 X121.468 Y142.28 E6.41746
G1 X120.497 Y142.289 E6.44652
G1 X120.289 Y142.278 E6.45276
G1 X119.467 Y142.191 E6.4775
G1 X119.261 Y142.158 E6.48375
G1 X118.465 Y141.987 E6.50812
G1 X118.261 Y141.932 E6.51444
G1 X117.491 Y141.681 E6.53869
G1 X117.296 Y141.606 E6.54494
G1 X116.534 Y141.265 E6.56993
G1 X116.347 Y141.169 E6.57622
G1 X115.678 Y140.783 E6.59934
G1 X115.503 Y140.67 E6.60558
G1 X114.803 Y140.16 E6.6315
G1 X114.64 Y140.027 E6.6378
G1 X114.037 Y139.481 E6.66215
G1 X113.89 Y139.333 E6.66839
G1 X113.377 Y138.763 E6.69135
G1 X113.324 Y138.698 E6.69386
G1 X112.787 Y139.097 E6.71389
G1 X112.698 Y139.157 E6.7171
G1 X112.224 Y139.452 E6.73381
G1 X112.043 Y139.556 E6.74006
G1 X111.373 Y139.899 E6.76259
G1 X111.183 Y139.985 E6.76883
G1 X110.334 Y140.311 E6.79606
G1 X110.133 Y140.375 E6.80237
G1 X109.418 Y140.566 E6.82453
G1 X109.215 Y140.61 E6.83074
G1 X108.347 Y140.748 E6.85705
G1 X108.139 Y140.769 E6.86331
G1 X107.574 Y140.805 E6.88026
G1 X107.243 Y140.811 E6.89017
G1 X70.252 Y140.787 E7.99746
G1 X69.845 Y140.776 E8.00965
G1 X69.637 Y140.765 E8.01588
G1 X68.832 Y140.681 E8.04011
G1 X68.623 Y140.648 E8.04645
G1 X67.807 Y140.473 E8.07143
G1 X67.607 Y140.419 E8.07763
G1 X66.833 Y140.166 E8.102
G1 X66.636 Y140.09 E8.10832
G1 X65.866 Y139.744 E8.13359
G1 X65.68 Y139.648 E8.13986
G1 X65.043 Y139.281 E8.16187
G1 X64.867 Y139.168 E8.16813
G1 X64.154 Y138.651 E8.19449
G1 X63.992 Y138.519 E8.20074
G1 X63.404 Y137.987 E8.22448
G1 X63.255 Y137.838 E8.23079
G1 X62.705 Y137.228 E8.25537
G1 X62.574 Y137.066 E8.26161
G1 X62.086 Y136.392 E8.28652
G1 X61.973 Y136.217 E8.29276
G1 X61.572 Y135.519 E8.31685
G1 X61.477 Y135.332 E8.32313
G1 X61.138 Y134.566 E8.34821
G1 X61.064 Y134.371 E8.35445
G1 X60.847 Y133.713 E8.37519
G1 X60.79 Y133.51 E8.3815
G1 X60.588 Y132.56 E8.41057
G1 X60.163 Y132.325 E8.42511
G1 X59.514 Y131.875 E8.44875
G1 X58.914 Y131.361 E8.4724
G1 X58.369 Y130.79 E8.49603
G1 X57.885 Y130.166 E8.51967
G1 X57.664 Y129.831 E8.53168
G1 X56.605 Y128.135 E8.59153
G1 X56.572 Y128.076 E8.59356
G1 X56.369 Y127.814 E8.60348
G1 X56.141 Y127.469 E8.61586
G1 X53.815 Y123.732 E8.74762
G1 X53.468 Y123.106 E8.76905
G1 X53.427 Y123.044 E8.77127
G1 X52.368 Y121.348 E8.83112
G1 X51.984 Y120.658 E8.85476
G1 X51.672 Y119.933 E8.87839
G1 X51.435 Y119.179 E8.90205
G1 X51.275 Y118.406 E8.92568
G1 X51.194 Y117.62 E8.94933
G1 X51.194 Y116.831 E8.97295
G1 X51.273 Y116.045 E8.99659
G1 X51.431 Y115.271 E9.02024
G1 X51.666 Y114.518 E9.04385
G1 X51.976 Y113.791 E9.06751
G1 X52.359 Y113.1 E9.09116
G1 X52.809 Y112.452 E9.11478
G1 X53.322 Y111.852 E9.13841
G1 X53.894 Y111.307 E9.16206
G1 X54.518 Y110.822 E9.18571
G1 X54.854 Y110.6 E9.19777
G1 X60.47 Y107.095 E9.39593
G1 X60.485 Y88.978 E9.93825
G1 X60.498 Y88.538 E9.95143
G1 X60.51 Y88.329 E9.95769
G1 X60.589 Y87.579 E9.98027
G1 X60.621 Y87.373 E9.98651
G1 X60.8 Y86.53 E10.01231
G1 X60.855 Y86.327 E10.0186
G1 X61 Y85.855 E10.03338
G1 X61.033 Y85.758 E10.03645
G1 X61.291 Y85.099 E10.05763
G1 X61.376 Y84.908 E10.06389
G1 X61.753 Y84.169 E10.08872
G1 X61.859 Y83.986 E10.09506
G1 X62.297 Y83.313 E10.11909
G1 X62.419 Y83.145 E10.12531
G1 X62.943 Y82.498 E10.15023
G1 X63.084 Y82.342 E10.15652
G1 X63.661 Y81.767 E10.18091
G1 X63.817 Y81.627 E10.18718
G1 X64.437 Y81.125 E10.21106
G0 F9000 X64.672 Y81.449
G1 F1200 X64.841 Y81.326 E10.21732
G1 X65.513 Y80.89 E10.2413
G1 X65.696 Y80.785 E10.24761
G1 X66.37 Y80.443 E10.27024
G1 X66.561 Y80.358 E10.2765
G1 X67.272 Y80.085 E10.29929
G1 X67.471 Y80.02 E10.30556
G1 X68.209 Y79.82 E10.32845
G1 X68.413 Y79.776 E10.3347
G1 X69.237 Y79.647 E10.35966
G1 X69.447 Y79.626 E10.36598
G1 X70.041 Y79.59 E10.38379
G1 X70.292 Y79.587 E10.39131
G1 X107.285 Y79.611 E11.49866
G1 X107.669 Y79.621 E11.51016
G1 X107.878 Y79.632 E11.51642
G1 X108.66 Y79.715 E11.53996
G1 X108.866 Y79.748 E11.54621
G1 X109.606 Y79.906 E11.56886
G1 X109.808 Y79.96 E11.57512
G1 X110.553 Y80.202 E11.59857
G1 X110.748 Y80.277 E11.60482
G1 X111.457 Y80.594 E11.62807
G1 X111.645 Y80.69 E11.63439
G1 X112.31 Y81.074 E11.65737
G1 X112.484 Y81.187 E11.66358
G1 X113.111 Y81.642 E11.68677
G1 X113.391 Y81.879 E11.69776
G1 X113.575 Y81.625 E11.70714
G1 X113.708 Y81.463 E11.71342
G1 X114.053 Y81.072 E11.72903
G1 X114.124 Y80.997 E11.73212
G1 X114.528 Y80.602 E11.74903
G1 X114.678 Y80.466 E11.75509
G1 X115.312 Y79.952 E11.77952
G1 X115.489 Y79.824 E11.78606
G1 X116.134 Y79.406 E11.80907
G1 X116.313 Y79.303 E11.81525
G1 X116.982 Y78.962 E11.83773
G1 X117.172 Y78.877 E11.84396
G1 X117.949 Y78.581 E11.86885
G1 X118.15 Y78.517 E11.87516
G1 X118.849 Y78.331 E11.89682
G1 X119.055 Y78.287 E11.90312
G1 X119.826 Y78.165 E11.92649
G1 X120.035 Y78.143 E11.93278
G1 X120.662 Y78.103 E11.95159
G1 X120.91 Y78.1 E11.95901
G1 X160.913 Y78.1 E13.15646
G1 X161.268 Y78.109 E13.16709
G1 X161.476 Y78.119 E13.17333
G1 X162.281 Y78.201 E13.19755
G1 X162.489 Y78.234 E13.20385
G1 X163.306 Y78.412 E13.22888
G1 X163.508 Y78.468 E13.23516
G1 X164.176 Y78.688 E13.25621
G1 X164.372 Y78.763 E13.26249
G1 X165.065 Y79.07 E13.28518
G1 X165.251 Y79.164 E13.29142
G1 X165.936 Y79.557 E13.31506
G1 X166.112 Y79.671 E13.32134
G1 X166.785 Y80.163 E13.34629
G1 X166.947 Y80.296 E13.35257
G1 X167.484 Y80.782 E13.37425
G1 X167.631 Y80.929 E13.38047
G1 X168.159 Y81.518 E13.40415
G1 X168.292 Y81.683 E13.41049
G1 X168.748 Y82.313 E13.43377
G1 X168.861 Y82.488 E13.44001
G1 X169.248 Y83.164 E13.46332
G1 X169.342 Y83.35 E13.46956
G1 X169.633 Y84.001 E13.49091
G1 X169.709 Y84.196 E13.49717
G1 X169.974 Y85.014 E13.52291
G1 X170.027 Y85.217 E13.52919
G1 X170.168 Y85.881 E13.54951
G1 X170.202 Y86.087 E13.55576
G1 X170.279 Y86.724 E13.57497
G1 X170.287 Y86.828 E13.57809
G1 X170.309 Y87.36 E13.59403
G1 X170.31 Y87.564 E13.60014
G1 X170.3 Y87.821 E13.60783
G1 X170.276 Y98.643 E13.93178
G1 X170.276 Y114.242 E14.39873
G1 X170.236 Y115.01 E14.42175
G1 X170.117 Y115.77 E14.44477
G1 X169.919 Y116.513 E14.46779
G1 X169.645 Y117.232 E14.49082
G1 X169.298 Y117.918 E14.51383
G1 X168.882 Y118.565 E14.53686
G1 X168.661 Y118.84 E14.54742
G1 X168.662 Y127.143 E14.79596
G1 X168.834 Y127.353 E14.80409
G1 X169.257 Y127.995 E14.8271
G1 X169.612 Y128.678 E14.85015
G1 X169.893 Y129.393 E14.87314
G1 X170.099 Y130.135 E14.89619
G1 X170.227 Y130.893 E14.9192
G1 X170.276 Y131.742 E14.94466
G1 X170.276 Y131.845 E14.94774
G1 X170.309 Y132.398 E14.96433
G1 X170.309 Y132.607 E14.97058
G1 X170.268 Y133.385 E14.9939
G1 X170.246 Y133.593 E15.00017
G1 X170.122 Y134.368 E15.02366
G1 X170.078 Y134.573 E15.02994
G1 X169.877 Y135.318 E15.05303
G1 X169.812 Y135.517 E15.0593
G1 X169.546 Y136.211 E15.08155
G1 X169.462 Y136.401 E15.08777
G1 X169.104 Y137.107 E15.11146
G1 X168.999 Y137.289 E15.11775
G1 X168.56 Y137.962 E15.1418
G1 X168.437 Y138.13 E15.14804
G1 X167.956 Y138.721 E15.17085
G1 X167.815 Y138.877 E15.17714
G1 X167.25 Y139.438 E15.20098
G1 X167.093 Y139.578 E15.20727
G1 X166.563 Y140.009 E15.22772
G1 X166.395 Y140.133 E15.23397
G1 X165.671 Y140.604 E15.25983
G1 X165.489 Y140.708 E15.2661
G1 X164.843 Y141.036 E15.28779
G1 X164.651 Y141.122 E15.29409
G1 X163.859 Y141.424 E15.31946
G1 X163.66 Y141.487 E15.32571
G1 X162.98 Y141.667 E15.34676
G1 X162.775 Y141.711 E15.35304
G1 X161.965 Y141.839 E15.37759
G1 X161.757 Y141.86 E15.38384
G1 X161.014 Y141.897 E15.40611
G1 X160.805 Y141.897 E15.41237
G1 X160.467 Y141.881 E15.4225
G1 X121.44 Y141.881 E16.59074
G1 X120.518 Y141.89 E16.61834
G1 X120.31 Y141.879 E16.62457
G1 X119.53 Y141.796 E16.64805
G1 X119.324 Y141.763 E16.6543
G1 X118.569 Y141.601 E16.67741
G1 X118.365 Y141.546 E16.68374
G1 X117.635 Y141.308 E16.70672
G1 X117.44 Y141.233 E16.71298
G1 X116.716 Y140.909 E16.73672
G1 X116.529 Y140.813 E16.74301
G1 X115.895 Y140.447 E16.76493
G1 X115.72 Y140.334 E16.77116
G1 X115.056 Y139.851 E16.79574
G1 X114.893 Y139.718 E16.80204
G1 X114.321 Y139.199 E16.82516
G1 X114.174 Y139.051 E16.8314
G1 X113.687 Y138.51 E16.85319
G1 X113.555 Y138.348 E16.85945
G1 X113.389 Y138.12 E16.86789
G1 X113.097 Y138.369 E16.87938
G1 X112.564 Y138.765 E16.89925
G1 X112.475 Y138.825 E16.90246
G1 X112.025 Y139.105 E16.91833
G1 X111.844 Y139.209 E16.92458
G1 X111.208 Y139.535 E16.94597
G1 X111.018 Y139.621 E16.95221
G1 X110.212 Y139.93 E16.97805
G1 X110.011 Y139.994 E16.98437
G1 X109.334 Y140.175 E17.00535
G1 X109.131 Y140.219 E17.01156
G1 X108.306 Y140.35 E17.03657
G1 X108.098 Y140.371 E17.04283
G1 X107.562 Y140.405 E17.0589
G1 X107.243 Y140.411 E17.06845
G1 X70.252 Y140.387 E18.17575
G1 X69.866 Y140.377 E18.18731
G1 X69.658 Y140.366 E18.19354
G1 X68.895 Y140.285 E18.21651
G1 X68.686 Y140.252 E18.22284
G1 X67.911 Y140.087 E18.24656
G1 X67.711 Y140.033 E18.25276
G1 X66.977 Y139.793 E18.27588
G1 X66.78 Y139.717 E18.2822
G1 X66.049 Y139.389 E18.30618
G1 X65.863 Y139.293 E18.31245
G1 X65.259 Y138.944 E18.33333
G1 X65.083 Y138.831 E18.33959
G1 X64.407 Y138.341 E18.36458
G1 X64.245 Y138.209 E18.37084
G1 X63.686 Y137.705 E18.39337
G1 X63.537 Y137.556 E18.39968
G1 X63.016 Y136.976 E18.42301
G1 X62.885 Y136.814 E18.42925
G1 X62.422 Y136.175 E18.45287
G1 X62.309 Y136 E18.45911
G1 X61.929 Y135.338 E18.48196
G1 X61.834 Y135.151 E18.48824
G1 X61.512 Y134.425 E18.51201
G1 X61.438 Y134.23 E18.51825
G1 X61.233 Y133.604 E18.53797
G1 X61.176 Y133.401 E18.54428
G1 X60.977 Y132.467 E18.57287
G1 X60.953 Y132.305 E18.57777
G1 X60.851 Y132.258 E18.58113
G1 X60.189 Y131.866 E18.60416
G1 X59.571 Y131.408 E18.62719
G1 X59.004 Y130.889 E18.6502
G1 X58.494 Y130.313 E18.67323
G1 X58.003 Y129.619 E18.69867
G1 X56.944 Y127.923 E18.75853
G1 X56.918 Y127.875 E18.76016
G1 X56.481 Y127.257 E18.78282
G1 X54.155 Y123.52 E18.91458
G1 X53.806 Y122.889 E18.93617
G1 X53.766 Y122.832 E18.93825
G1 X52.707 Y121.136 E18.9981
G1 X52.334 Y120.464 E19.02111
G1 X52.033 Y119.756 E19.04414
G1 X51.807 Y119.021 E19.06716
G1 X51.659 Y118.266 E19.09019
G1 X51.589 Y117.5 E19.11321
G1 X51.6 Y116.731 E19.13623
G1 X51.69 Y115.967 E19.15926
G1 X51.859 Y115.217 E19.18228
G1 X52.106 Y114.488 E19.20532
G1 X52.426 Y113.789 E19.22833
G1 X52.817 Y113.127 E19.25134
G1 X53.275 Y112.509 E19.27437
G1 X53.795 Y111.941 E19.29742
G1 X54.37 Y111.431 E19.32043
G1 X55.066 Y110.94 E19.34592
G1 X60.869 Y107.317 E19.55071
G1 X60.885 Y88.979 E20.09964
G1 X60.897 Y88.561 E20.11216
G1 X60.909 Y88.352 E20.11842
G1 X60.985 Y87.64 E20.13986
G1 X61.017 Y87.434 E20.1461
G1 X61.187 Y86.635 E20.17055
G1 X61.242 Y86.432 E20.17685
G1 X61.378 Y85.984 E20.19086
G1 X61.411 Y85.887 E20.19393
G1 X61.656 Y85.261 E20.21405
G1 X61.741 Y85.07 E20.22031
G1 X62.099 Y84.37 E20.24384
G1 X62.205 Y84.187 E20.25017
G1 X62.62 Y83.548 E20.27298
G1 X62.742 Y83.38 E20.2792
G1 X63.24 Y82.766 E20.30286
G1 X63.381 Y82.61 E20.30916
G1 X63.928 Y82.065 E20.33227
G1 X64.084 Y81.925 E20.33855
G1 X64.672 Y81.449 E20.36119
G0 F9000 X64.908 Y81.772
G1 F1200 X65.077 Y81.649 E20.36745
G1 X65.712 Y81.237 E20.39011
G1 X65.895 Y81.132 E20.39642
