;FLAVOR:Marlin
;TIME:5999
;Filament used: 3.29865m
;Layer height: 0.2
;MINX:32.629
;MINY:90.905
;MINZ:0.2
;MAXX:190.737
;MAXY:129.095
;MAXZ:21
;Generated with Cura_SteamEngine 4.10.0
M140 S70
M105
M190 S70
M104 S210
M105
M109 S210
M82 ;absolute extrusion mode
; Ender 3 Custom Start G-code
G92 E0 ; Reset Extruder
G28 ; Home all axes
G1 Z2.0 F3000 ; Move Z Axis up little to prevent scratching of Heat Bed
G1 X0.1 Y20 Z0.3 F5000.0 ; Move to start position
G1 X0.1 Y200.0 Z0.3 F1500.0 E15 ; Draw the first line
G1 X0.4 Y200.0 Z0.3 F5000.0 ; Move to side a little
G1 X0.4 Y20 Z0.3 F1500.0 E30 ; Draw the second line
G92 E0 ; Reset Extruder
G1 Z2.0 F3000 ; Move Z Axis up little to prevent scratching of Heat Bed
G1 X5 Y20 Z0.3 F5000.0 ; Move over to prevent blob squish
G92 E0
G92 E0
G1 F1500 E-6.5
;LAYER_COUNT:105
;LAYER:0
M107
G1 F300 Z0.4
G0 F9000 X43.361 Y100.982 Z0.4
;TYPE:SKIRT
G1 F300 Z0.2
G1 F1500 E0
G1 F1200 X44.114 Y100.745 E0.02363
G1 X44.888 Y100.586 E0.04728
G1 X45.673 Y100.505 E0.07091
G1 X46.075 Y100.495 E0.08294
G1 X119.076 Y100.495 E2.26816
G1 X119.865 Y100.535 E2.29181
G1 X119.996 Y100.555 E2.29578
G1 X120.603 Y100.556 E2.31395
G1 X120.628 Y100.552 E2.31471
G1 X121.524 Y100.519 E2.34155
G1 X122.129 Y100.532 E2.35966
G1 X122.318 Y100.52 E2.36533
G1 X123.108 Y100.511 E2.38898
G1 X123.894 Y100.582 E2.4126
G1 X124.67 Y100.733 E2.43627
G1 X125.426 Y100.961 E2.4599
G1 X126.155 Y101.264 E2.48354
G1 X126.849 Y101.64 E2.50716
G1 X127.095 Y101.807 E2.51606
G1 X127.339 Y101.598 E2.52568
G1 X127.987 Y101.146 E2.54933
G1 X128.678 Y100.763 E2.57298
G1 X129.403 Y100.451 E2.59661
G1 X130.156 Y100.214 E2.62024
G1 X130.93 Y100.055 E2.64389
G1 X131.428 Y99.994 E2.65891
G1 X131.846 Y99.961 E2.67146
G1 X132.063 Y99.947 E2.67797
G1 X132.675 Y99.902 E2.69634
G1 X132.674 Y99.896 E2.69652
G1 X133.346 Y99.834 E2.71672
G1 X134.088 Y99.774 E2.73901
G1 X134.417 Y99.728 E2.74895
G1 X135.2 Y99.619 E2.77261
G1 X135.987 Y99.553 E2.79626
G1 X136.264 Y99.565 E2.80455
G1 X137.396 Y99.392 E2.83883
G1 X137.766 Y99.364 E2.84994
G1 X138.118 Y99.316 E2.86058
G1 X138.27 Y99.279 E2.86526
G1 X138.972 Y99.179 E2.88648
G1 X139.448 Y99.135 E2.90079
G1 X139.863 Y99.106 E2.91325
G1 X140.117 Y99.092 E2.92086
G1 X140.243 Y99.094 E2.92463
G1 X141.486 Y98.835 E2.96264
G1 X142.531 Y98.651 E2.9944
G1 X143.158 Y98.574 E3.01331
G1 X143.38 Y98.534 E3.02006
G1 X143.638 Y98.5 E3.02785
G1 X143.955 Y98.442 E3.0375
G1 X144.418 Y98.354 E3.05161
G1 X145.058 Y98.254 E3.071
G1 X145.582 Y98.173 E3.08687
G1 X145.884 Y98.124 E3.09603
G1 X146.341 Y98.04 E3.10994
G1 X147.788 Y97.792 E3.15388
G1 X148.191 Y97.7 E3.16626
G1 X148.192 Y97.706 E3.16644
G1 X149.002 Y97.535 E3.19122
G1 X149.223 Y97.504 E3.1979
G1 X150.868 Y97.158 E3.24822
G1 X151.244 Y97.075 E3.25975
G1 X152.559 Y96.802 E3.29995
G1 X153.005 Y96.723 E3.31351
G1 X153.399 Y96.622 E3.32568
G1 X153.786 Y96.533 E3.33757
G1 X154.032 Y96.459 E3.34526
G1 X155.798 Y96.027 E3.39968
G1 X155.853 Y96.007 E3.40143
G1 X156.286 Y95.869 E3.41504
G1 X156.453 Y95.821 E3.42024
G1 X157.348 Y95.62 E3.4477
G1 X157.69 Y95.564 E3.45807
G1 X158.474 Y95.476 E3.48169
G1 X159.264 Y95.467 E3.50534
G1 X160.05 Y95.539 E3.52896
G1 X160.826 Y95.69 E3.55263
G1 X161.581 Y95.918 E3.57624
G1 X162.12 Y96.143 E3.59372
G1 X162.388 Y95.796 E3.60684
G1 X162.931 Y95.223 E3.63048
G1 X163.53 Y94.708 E3.65412
G1 X164.178 Y94.257 E3.67775
G1 X164.869 Y93.873 E3.70142
G1 X165.594 Y93.561 E3.72505
G1 X166.58 Y93.268 E3.75584
G1 X167.218 Y93.123 E3.77542
G1 X169.121 Y92.712 E3.8337
G1 X169.588 Y92.616 E3.84797
G1 X171.677 Y92.195 E3.91176
G1 X171.85 Y92.162 E3.91703
G1 X174.224 Y91.739 E3.98921
G1 X174.892 Y91.65 E4.00939
G1 X175.15 Y91.592 E4.0173
G1 X177.863 Y91.078 E4.09996
G1 X178.404 Y90.995 E4.11634
G1 X178.54 Y90.979 E4.12044
G1 X178.935 Y90.943 E4.13232
G1 X179.252 Y90.922 E4.14183
G1 X179.768 Y90.905 E4.15728
G1 X179.914 Y90.905 E4.16165
G1 X180.362 Y90.918 E4.17507
G1 X180.64 Y90.934 E4.1834
G1 X181.024 Y90.965 E4.19493
G1 X181.391 Y91.007 E4.20599
G1 X181.663 Y91.045 E4.21421
G1 X182.303 Y91.162 E4.23369
G1 X182.48 Y91.202 E4.23912
G1 X182.828 Y91.289 E4.24986
G1 X183.24 Y91.405 E4.26267
G1 X183.465 Y91.473 E4.26971
G1 X184.156 Y91.717 E4.29164
G1 X184.45 Y91.837 E4.30115
G1 X185.101 Y92.139 E4.32263
G1 X185.376 Y92.282 E4.33191
G1 X186.057 Y92.681 E4.35553
G1 X186.694 Y93.147 E4.37916
G1 X187.281 Y93.675 E4.40279
G1 X187.812 Y94.26 E4.42644
G1 X188.281 Y94.896 E4.4501
G1 X188.683 Y95.575 E4.47372
G1 X189.014 Y96.292 E4.49736
G1 X189.271 Y97.039 E4.521
G1 X189.442 Y97.756 E4.54307
G1 X189.642 Y98.816 E4.57536
G1 X189.749 Y99.598 E4.59899
G1 X189.776 Y100.387 E4.62262
G1 X189.746 Y100.833 E4.636
G1 X189.821 Y100.977 E4.64086
G1 X190.112 Y101.711 E4.66449
G1 X190.371 Y102.673 E4.69432
G1 X190.582 Y103.717 E4.7262
G1 X190.699 Y104.498 E4.74984
G1 X190.737 Y105.287 E4.77348
G1 X190.695 Y106.075 E4.79711
G1 X190.573 Y106.855 E4.82074
G1 X190.372 Y107.619 E4.84439
G1 X190.096 Y108.359 E4.86803
G1 X189.746 Y109.067 E4.89167
G1 X189.326 Y109.736 E4.91531
G1 X188.728 Y110.487 E4.94405
G1 X188.394 Y110.852 E4.95886
G1 X188.245 Y111.007 E4.9653
G1 X187.788 Y111.445 E4.98425
G1 X187.676 Y111.544 E4.98872
G1 X187.452 Y111.734 E4.99751
G1 X187.242 Y111.906 E5.00564
G1 X186.994 Y112.102 E5.0151
G1 X186.848 Y112.212 E5.02057
G1 X186.388 Y112.533 E5.03736
G1 X186.176 Y112.67 E5.04492
G1 X185.713 Y112.947 E5.06107
G1 X185.398 Y113.121 E5.07184
G1 X184.82 Y113.41 E5.09119
G1 X184.606 Y113.506 E5.09821
G1 X184.304 Y113.633 E5.10801
G1 X184.091 Y113.718 E5.11488
G1 X183.527 Y113.919 E5.1328
G1 X183.178 Y114.024 E5.14371
G1 X182.882 Y114.107 E5.15291
G1 X182.452 Y114.215 E5.16619
G1 X182.137 Y114.281 E5.17582
G1 X176.211 Y115.411 E5.35641
G1 X175.429 Y115.519 E5.38004
G1 X174.64 Y115.548 E5.40367
G1 X173.852 Y115.497 E5.42731
G1 X173.073 Y115.367 E5.45095
G1 X172.311 Y115.158 E5.4746
G1 X171.575 Y114.873 E5.49823
G1 X171.447 Y114.808 E5.50252
G1 X171.306 Y114.836 E5.50683
G1 X171.04 Y114.882 E5.51491
G1 X170.296 Y115.051 E5.53775
G1 X170.177 Y115.08 E5.54141
G1 X169.401 Y115.23 E5.56507
G1 X168.615 Y115.301 E5.58869
G1 X167.825 Y115.292 E5.61234
G1 X167.041 Y115.203 E5.63596
G1 X166.269 Y115.036 E5.65961
G1 X165.518 Y114.791 E5.68325
G1 X165.135 Y114.622 E5.69578
G1 X164.829 Y115.013 E5.71065
G1 X164.282 Y115.583 E5.7343
G1 X163.68 Y116.094 E5.75793
G1 X163.03 Y116.542 E5.78156
G1 X162.338 Y116.922 E5.8052
G1 X161.611 Y117.23 E5.82883
G1 X160.895 Y117.453 E5.85128
G1 X159.373 Y117.848 E5.89835
G1 X159.033 Y117.928 E5.9088
G1 X158.869 Y117.963 E5.91382
G1 X157.774 Y118.246 E5.94768
G1 X157.452 Y118.322 E5.95758
G1 X155.927 Y118.648 E6.00426
G1 X155.147 Y118.773 E6.02791
G1 X154.887 Y118.788 E6.0357
G1 X153.289 Y119.273 E6.08569
G1 X152.243 Y119.513 E6.11782
G1 X151.042 Y119.703 E6.15422
G1 X150.409 Y119.833 E6.17356
G1 X149.813 Y119.928 E6.19163
G1 X147.913 Y120.297 E6.24956
G1 X147.298 Y120.391 E6.26819
G1 X146.597 Y120.47 E6.2893
G1 X146.544 Y120.48 E6.29092
G1 X145.948 Y120.57 E6.30896
G1 X145.664 Y120.611 E6.31755
G1 X145.327 Y120.663 E6.32776
G1 X145.234 Y120.675 E6.33056
G1 X144.712 Y120.759 E6.34639
G1 X144.379 Y120.806 E6.35646
G1 X144.175 Y120.842 E6.36266
G1 X143.536 Y120.948 E6.38205
G1 X143.239 Y120.991 E6.39103
G1 X143.106 Y121.013 E6.39507
G1 X142.677 Y121.072 E6.40803
G1 X142.485 Y121.093 E6.41381
G1 X142.01 Y121.121 E6.42805
G1 X140.494 Y121.368 E6.47403
G1 X139.709 Y121.456 E6.49768
G1 X139.312 Y121.454 E6.50956
G1 X138.079 Y121.629 E6.54684
G1 X137.697 Y121.674 E6.55836
G1 X137.066 Y121.733 E6.57733
G1 X136.66 Y121.781 E6.58956
G1 X134.103 Y122.019 E6.66644
G1 X133.965 Y122.036 E6.6706
G1 X133.6 Y122.059 E6.68155
G1 X132.934 Y122.129 E6.70159
G1 X132.145 Y122.172 E6.72525
G1 X131.356 Y122.135 E6.74889
G1 X130.575 Y122.019 E6.77252
G1 X129.81 Y121.824 E6.79616
G1 X129.069 Y121.552 E6.81978
G1 X128.358 Y121.208 E6.84343
G1 X127.729 Y120.82 E6.86555
G1 X127.576 Y120.951 E6.87158
G1 X126.928 Y121.402 E6.89521
G1 X126.596 Y121.587 E6.90659
G1 X126.504 Y121.962 E6.91815
G1 X126.258 Y122.713 E6.9418
G1 X126.183 Y122.908 E6.94806
G1 X125.872 Y123.611 E6.97107
G1 X125.778 Y123.798 E6.97733
G1 X125.316 Y124.596 E7.00494
G1 X125.201 Y124.77 E7.01118
G1 X124.788 Y125.337 E7.03218
G1 X124.657 Y125.501 E7.03846
G1 X124.06 Y126.167 E7.06523
G1 X123.911 Y126.315 E7.07152
G1 X123.345 Y126.824 E7.09431
G1 X123.182 Y126.957 E7.1006
G1 X122.482 Y127.467 E7.12653
G1 X122.307 Y127.58 E7.13276
G1 X121.609 Y127.981 E7.15686
G1 X121.422 Y128.076 E7.16314
G1 X120.689 Y128.402 E7.18715
G1 X120.494 Y128.477 E7.19341
G1 X119.708 Y128.732 E7.21814
G1 X119.506 Y128.786 E7.2244
G1 X118.714 Y128.955 E7.24864
G1 X118.506 Y128.988 E7.25495
G1 X117.694 Y129.073 E7.27939
G1 X117.485 Y129.084 E7.28565
G1 X117.075 Y129.095 E7.29793
G1 X46.075 Y129.095 E9.42325
G1 X45.286 Y129.055 E9.4469
G1 X44.506 Y128.936 E9.47052
G1 X43.741 Y128.738 E9.49417
G1 X43.001 Y128.464 E9.51779
G1 X42.292 Y128.116 E9.54144
G1 X41.621 Y127.698 E9.5651
G1 X40.997 Y127.215 E9.58872
G1 X40.424 Y126.672 E9.61235
G1 X39.909 Y126.073 E9.636
G1 X39.458 Y125.425 E9.65963
G1 X39.074 Y124.734 E9.68329
G1 X39.029 Y124.63 E9.68669
G1 X38.866 Y124.605 E9.69162
G1 X38.101 Y124.408 E9.71527
G1 X37.36 Y124.134 E9.73892
G1 X36.651 Y123.787 E9.76255
G1 X35.98 Y123.37 E9.7862
G1 X35.355 Y122.887 E9.80984
G1 X34.782 Y122.344 E9.83347
G1 X34.267 Y121.745 E9.85712
G1 X33.815 Y121.098 E9.88074
G1 X33.431 Y120.408 E9.90438
G1 X33.119 Y119.683 E9.92801
G1 X32.881 Y118.93 E9.95165
G1 X32.721 Y118.156 E9.97531
G1 X32.64 Y117.371 E9.99893
G1 X32.629 Y116.963 E10.01115
G1 X32.629 Y112.963 E10.13088
G1 X32.669 Y112.174 E10.15453
G1 X32.788 Y111.394 E10.17815
G1 X32.986 Y110.629 E10.2018
G1 X33.26 Y109.889 E10.22542
G1 X33.608 Y109.18 E10.24907
G1 X34.026 Y108.509 E10.27273
G1 X34.509 Y107.885 E10.29635
G1 X35.052 Y107.312 E10.31998
G1 X35.651 Y106.797 E10.34363
G1 X36.299 Y106.346 E10.36726
G1 X36.99 Y105.962 E10.39093
G1 X37.715 Y105.65 E10.41455
G1 X38.206 Y105.495 E10.42996
G1 X38.38 Y105.312 E10.43752
G1 X38.979 Y104.797 E10.46117
G1 X39.184 Y104.654 E10.46865
G1 X39.254 Y104.512 E10.47339
G1 X39.672 Y103.841 E10.49706
G1 X40.155 Y103.217 E10.52068
G1 X40.698 Y102.644 E10.54431
G1 X41.297 Y102.129 E10.56795
G1 X41.945 Y101.678 E10.59159
G1 X42.636 Y101.294 E10.61525
G1 X43.361 Y100.982 E10.63888
G0 F9000 X43.726 Y101.278
G1 F1200 X44.468 Y101.072 E10.66193
G1 X45.226 Y100.944 E10.68494
G1 X46.075 Y100.895 E10.7104
G1 X119.076 Y100.895 E12.89562
G1 X119.844 Y100.935 E12.91864
G1 X119.972 Y100.955 E12.92252
G1 X120.633 Y100.956 E12.9423
G1 X120.685 Y100.948 E12.94388
G1 X121.515 Y100.919 E12.96874
G1 X122.134 Y100.932 E12.98727
G1 X122.343 Y100.919 E12.99354
G1 X123.112 Y100.912 E13.01656
G1 X123.878 Y100.984 E13.03959
G1 X124.632 Y101.136 E13.06261
G1 X125.366 Y101.365 E13.08563
G1 X126.073 Y101.669 E13.10867
G1 X126.744 Y102.045 E13.13169
G1 X127.118 Y102.309 E13.14539
G1 X127.133 Y102.293 E13.14605
G1 X127.728 Y101.805 E13.16909
G1 X128.37 Y101.382 E13.1921
G1 X129.053 Y101.028 E13.21513
G1 X129.769 Y100.746 E13.23816
G1 X130.51 Y100.54 E13.26119
G1 X131.463 Y100.393 E13.29005
G1 X131.87 Y100.36 E13.30227
G1 X132.711 Y100.299 E13.32751
G1 X132.711 Y100.294 E13.32766
G1 X133.379 Y100.232 E13.34775
G1 X134.139 Y100.17 E13.37057
G1 X134.472 Y100.124 E13.38063
G1 X135.254 Y100.016 E13.40427
G1 X136.02 Y99.952 E13.42727
G1 X136.301 Y99.965 E13.43569
G1 X137.457 Y99.788 E13.4707
G1 X137.814 Y99.761 E13.48142
G1 X138.197 Y99.708 E13.49299
G1 X138.364 Y99.668 E13.49813
G1 X139.011 Y99.577 E13.51769
G1 X139.477 Y99.534 E13.5317
G1 X139.885 Y99.505 E13.54394
G1 X140.139 Y99.491 E13.55156
G1 X140.288 Y99.494 E13.55602
G1 X141.567 Y99.227 E13.59513
G1 X142.599 Y99.045 E13.6265
G1 X143.197 Y98.973 E13.64453
G1 X143.432 Y98.931 E13.65168
G1 X143.694 Y98.897 E13.65958
G1 X144.041 Y98.832 E13.67015
G1 X144.48 Y98.749 E13.68353
G1 X145.115 Y98.65 E13.70276
G1 X145.635 Y98.569 E13.71852
G1 X145.968 Y98.515 E13.72862
G1 X146.402 Y98.436 E13.74182
G1 X147.866 Y98.184 E13.78629
G1 X148.279 Y98.09 E13.79897
G1 X148.28 Y98.095 E13.79912
G1 X149.057 Y97.931 E13.82289
G1 X149.29 Y97.898 E13.82994
G1 X150.96 Y97.547 E13.88102
G1 X151.326 Y97.466 E13.89224
G1 X152.641 Y97.193 E13.93244
G1 X153.02 Y97.125 E13.94397
G1 X153.093 Y97.114 E13.94618
G1 X153.498 Y97.01 E13.95869
G1 X153.88 Y96.923 E13.97042
G1 X154.127 Y96.848 E13.97815
G1 X155.905 Y96.412 E14.03295
G1 X155.986 Y96.384 E14.03551
G1 X156.397 Y96.253 E14.04843
G1 X156.564 Y96.205 E14.05363
G1 X157.412 Y96.014 E14.07965
G1 X157.754 Y95.958 E14.09002
G1 X158.519 Y95.874 E14.11306
G1 X159.288 Y95.869 E14.13608
G1 X160.053 Y95.944 E14.15909
G1 X160.807 Y96.098 E14.18212
G1 X161.54 Y96.329 E14.20513
G1 X162.247 Y96.637 E14.22821
G1 X162.302 Y96.551 E14.23127
G1 X162.783 Y95.951 E14.25429
G1 X163.324 Y95.404 E14.27732
G1 X163.919 Y94.916 E14.30035
G1 X164.561 Y94.493 E14.32337
G1 X165.244 Y94.138 E14.34641
G1 X165.959 Y93.857 E14.36941
G1 X166.669 Y93.658 E14.39148
G1 X167.303 Y93.514 E14.41094
G1 X169.201 Y93.104 E14.46907
G1 X169.667 Y93.008 E14.48331
G1 X171.756 Y92.587 E14.5471
G1 X171.92 Y92.556 E14.55209
G1 X174.294 Y92.133 E14.62428
G1 X174.925 Y92.048 E14.64334
G1 X175.225 Y91.985 E14.65251
G1 X177.938 Y91.471 E14.73517
G1 X178.45 Y91.393 E14.75067
G1 X178.586 Y91.377 E14.75477
G1 X178.962 Y91.342 E14.76607
G1 X179.279 Y91.321 E14.77558
G1 X179.768 Y91.305 E14.79023
G1 X179.914 Y91.305 E14.7946
G1 X180.339 Y91.317 E14.80733
G1 X180.617 Y91.333 E14.81566
G1 X180.988 Y91.363 E14.8268
G1 X181.336 Y91.403 E14.83729
G1 X181.608 Y91.441 E14.84551
G1 X182.215 Y91.552 E14.86398
G1 X182.392 Y91.592 E14.86941
G1 X182.722 Y91.674 E14.87959
G1 X183.124 Y91.787 E14.89209
G1 X183.349 Y91.855 E14.89913
G1 X184.004 Y92.088 E14.91994
G1 X184.298 Y92.208 E14.92944
G1 X184.916 Y92.494 E14.94983
G1 X185.191 Y92.637 E14.95911
G1 X185.854 Y93.026 E14.98212
G1 X186.473 Y93.483 E15.00515
G1 X187.041 Y94.001 E15.02816
G1 X187.553 Y94.576 E15.05121
G1 X188.002 Y95.2 E15.07422
G1 X188.383 Y95.868 E15.09724
G1 X188.694 Y96.572 E15.12028
G1 X188.929 Y97.304 E15.14329
G1 X189.049 Y97.83 E15.15944
G1 X189.249 Y98.89 E15.19173
G1 X189.352 Y99.652 E15.21475
G1 X189.375 Y100.421 E15.23778
G1 X189.339 Y100.916 E15.25263
G1 X189.561 Y101.382 E15.26809
G1 X189.818 Y102.106 E15.29108
G1 X189.979 Y102.752 E15.31101
G1 X190.19 Y103.796 E15.34289
G1 X190.303 Y104.557 E15.36592
G1 X190.337 Y105.325 E15.38894
G1 X190.29 Y106.093 E15.41197
G1 X190.164 Y106.852 E15.435
G1 X189.96 Y107.593 E15.45801
G1 X189.68 Y108.31 E15.48105
G1 X189.327 Y108.993 E15.50406
G1 X188.906 Y109.636 E15.52707
G1 X188.431 Y110.219 E15.54958
G1 X188.106 Y110.574 E15.56399
G1 X187.957 Y110.729 E15.57042
G1 X187.523 Y111.145 E15.58842
G1 X187.411 Y111.244 E15.59289
G1 X187.199 Y111.425 E15.60124
G1 X186.989 Y111.597 E15.60936
G1 X186.753 Y111.782 E15.61834
G1 X186.607 Y111.892 E15.62381
G1 X186.17 Y112.197 E15.63976
G1 X185.958 Y112.334 E15.64732
G1 X185.52 Y112.596 E15.6626
G1 X185.205 Y112.77 E15.67337
G1 X184.656 Y113.045 E15.69175
G1 X184.442 Y113.141 E15.69877
G1 X184.156 Y113.262 E15.70807
G1 X183.943 Y113.347 E15.71493
G1 X183.407 Y113.537 E15.73195
G1 X183.07 Y113.639 E15.74249
G1 X182.774 Y113.722 E15.75169
G1 X182.366 Y113.824 E15.76428
G1 X182.062 Y113.888 E15.77358
G1 X176.136 Y115.018 E15.95417
G1 X175.374 Y115.123 E15.97719
G1 X174.605 Y115.148 E16.00023
G1 X173.838 Y115.093 E16.02324
G1 X173.081 Y114.958 E16.04626
G1 X172.342 Y114.746 E16.06928
G1 X171.628 Y114.458 E16.09232
G1 X171.501 Y114.391 E16.09662
