;FLAVOR:Marlin
;TIME:5544
;Filament used: 3.56001m
;Layer height: 0.2
;MINX:57.171
;MINY:84.704
;MINZ:0.2
;MAXX:162.829
;MAXY:135.296
;MAXZ:17
;Generated with Cura_SteamEngine 4.10.0
M140 S70
M105
M190 S70
M104 S215
M105
M109 S215
M82 ;absolute extrusion mode
; Ender 3 Custom Start G-code
G92 E0 ; Reset Extruder
G28 ; Home all axes
G1 Z2.0 F3000 ; Move Z Axis up little to prevent scratching of Heat Bed
G1 X0.1 Y20 Z0.3 F5000.0 ; Move to start position
G1 X0.1 Y200.0 Z0.3 F1500.0 E15 ; Draw the first line
G1 X0.4 Y200.0 Z0.3 F5000.0 ; Move to side a little
G1 X0.4 Y20 Z0.3 F1500.0 E30 ; Draw the second line
G92 E0 ; Reset Extruder
G1 Z2.0 F3000 ; Move Z Axis up little to prevent scratching of Heat Bed
G1 X5 Y20 Z0.3 F5000.0 ; Move over to prevent blob squish
G92 E0
G92 E0
G1 F1500 E-6.5
;LAYER_COUNT:85
;LAYER:0
M107
G1 F300 Z0.4
G0 F6000 X71.322 Y86.459 Z0.4
;TYPE:SKIRT
G1 F300 Z0.2
G1 F1500 E0
G1 F1200 X71.958 Y85.992 E0.02368
G1 X72.638 Y85.591 E0.04738
G1 X73.356 Y85.261 E0.0711
G1 X74.103 Y85.006 E0.09479
G1 X74.872 Y84.827 E0.11849
G1 X75.656 Y84.727 E0.14222
G1 X76.251 Y84.704 E0.16009
G1 X146.993 Y84.704 E2.28357
G1 X147.325 Y84.721 E2.29355
G1 X147.391 Y84.714 E2.29555
G1 X147.793 Y84.704 E2.30762
G1 X151.26 Y84.704 E2.41169
G1 X152.049 Y84.744 E2.4354
G1 X152.584 Y84.817 E2.45161
G1 X153.223 Y84.929 E2.47108
G1 X153.599 Y85.002 E2.48258
G1 X154.487 Y85.229 E2.51009
G1 X154.609 Y85.268 E2.51394
G1 X155.064 Y85.429 E2.52842
G1 X155.194 Y85.479 E2.5326
G1 X155.507 Y85.592 E2.54259
G1 X155.732 Y85.68 E2.54985
G1 X156.452 Y86.004 E2.57355
G1 X156.918 Y86.264 E2.58956
G1 X157.424 Y86.569 E2.6073
G1 X158.078 Y87.01 E2.63098
G1 X158.685 Y87.515 E2.65468
G1 X158.909 Y87.733 E2.66406
G1 X159.286 Y88.07 E2.67924
G1 X159.715 Y88.504 E2.69756
G1 X160.241 Y89.093 E2.72126
G1 X160.506 Y89.468 E2.73504
G1 X160.561 Y89.538 E2.73772
G1 X161.071 Y90.272 E2.76455
G1 X161.176 Y90.443 E2.77057
G1 X161.555 Y91.136 E2.79428
G1 X161.629 Y91.304 E2.79979
G1 X161.761 Y91.552 E2.80822
G1 X161.969 Y92.034 E2.82398
G1 X162.055 Y92.254 E2.83107
G1 X162.178 Y92.593 E2.8419
G1 X162.309 Y92.98 E2.85416
G1 X162.548 Y93.847 E2.88116
G1 X162.563 Y93.917 E2.8833
G1 X162.634 Y94.293 E2.89479
G1 X162.727 Y94.862 E2.9121
G1 X162.815 Y95.647 E2.93581
G1 X162.829 Y96.12 E2.95001
G1 X162.829 Y96.928 E2.97427
G1 X162.789 Y97.717 E2.99798
G1 X162.731 Y98.163 E3.01148
G1 X162.693 Y98.4 E3.01869
G1 X162.604 Y98.881 E3.03337
G1 X162.343 Y99.932 E3.06588
G1 X162.253 Y100.21 E3.07465
G1 X162.074 Y100.705 E3.09045
G1 X161.942 Y101.035 E3.10112
G1 X161.717 Y101.545 E3.11785
G1 X161.626 Y101.733 E3.12412
G1 X161.443 Y102.13 E3.13724
G1 X161.205 Y102.554 E3.15183
G1 X161.084 Y102.754 E3.15885
G1 X160.641 Y103.408 E3.18256
G1 X160.439 Y103.665 E3.19237
G1 X159.939 Y104.276 E3.21607
G1 X159.649 Y104.577 E3.22862
G1 X159.374 Y104.883 E3.24097
G1 X159.213 Y105.042 E3.24776
G1 X158.624 Y105.568 E3.27147
G1 X157.799 Y106.193 E3.30253
G1 X157.45 Y106.417 E3.31498
G1 X156.721 Y106.858 E3.34056
G1 X156.026 Y107.232 E3.36425
G1 X155.287 Y107.519 E3.38804
G1 X154.987 Y107.636 E3.39771
G1 X154.793 Y107.697 E3.40382
G1 X154.792 Y127.496 E3.99813
G1 X154.752 Y128.285 E4.02184
G1 X154.632 Y129.065 E4.04553
G1 X154.435 Y129.83 E4.06924
G1 X154.16 Y130.571 E4.09297
G1 X153.813 Y131.28 E4.11666
G1 X153.395 Y131.95 E4.14037
G1 X152.912 Y132.575 E4.16408
G1 X152.368 Y133.147 E4.18777
G1 X151.769 Y133.662 E4.21148
G1 X151.121 Y134.113 E4.23518
G1 X150.431 Y134.497 E4.25889
G1 X149.706 Y134.809 E4.28258
G1 X148.952 Y135.046 E4.3063
G1 X148.179 Y135.205 E4.32999
G1 X147.393 Y135.286 E4.35371
G1 X146.992 Y135.296 E4.36575
G1 X76.227 Y135.296 E6.48992
G1 X75.438 Y135.256 E6.51364
G1 X74.658 Y135.137 E6.53732
G1 X73.893 Y134.939 E6.56104
G1 X73.153 Y134.665 E6.58473
G1 X72.444 Y134.317 E6.60844
G1 X71.773 Y133.899 E6.63217
G1 X71.149 Y133.416 E6.65585
G1 X70.896 Y133.184 E6.66616
G1 X70.743 Y133.047 E6.67232
G1 X70.19 Y132.483 E6.69603
G1 X69.697 Y131.867 E6.71971
G1 X69.268 Y131.203 E6.74344
G1 X68.909 Y130.5 E6.76714
G1 X68.623 Y129.764 E6.79084
G1 X68.412 Y129.003 E6.81455
G1 X68.292 Y128.293 E6.83616
G1 X67.74 Y128.265 E6.85275
G1 X67.204 Y128.192 E6.86899
G1 X66.769 Y128.117 E6.88224
G1 X65.998 Y127.943 E6.90596
G1 X65.584 Y127.831 E6.91884
G1 X65.198 Y127.691 E6.93116
G1 X65.005 Y127.631 E6.93723
G1 X64.263 Y127.36 E6.96094
G1 X63.279 Y126.858 E6.9941
G1 X62.576 Y126.434 E7.01874
G1 X61.921 Y125.993 E7.04245
G1 X61.65 Y125.767 E7.05304
G1 X61.484 Y125.652 E7.0591
G1 X60.886 Y125.14 E7.08273
G1 X60.738 Y125 E7.08885
G1 X60.192 Y124.429 E7.11256
G1 X59.936 Y124.115 E7.12472
G1 X59.708 Y123.855 E7.1351
G1 X59.596 Y123.694 E7.14099
G1 X59.159 Y123.123 E7.16257
G1 X58.836 Y122.615 E7.18064
G1 X58.729 Y122.431 E7.18703
G1 X58.472 Y121.912 E7.20442
G1 X58.32 Y121.605 E7.2147
G1 X58.015 Y120.936 E7.23677
G1 X57.901 Y120.643 E7.24621
G1 X57.762 Y120.258 E7.25849
G1 X57.669 Y119.976 E7.26741
G1 X57.46 Y119.214 E7.29112
G1 X57.385 Y118.81 E7.30346
G1 X57.346 Y118.62 E7.30928
G1 X57.25 Y118.04 E7.32693
G1 X57.233 Y117.906 E7.33098
G1 X57.171 Y116.924 E7.36052
G1 X57.171 Y116.087 E7.38564
G1 X57.211 Y115.298 E7.40936
G1 X57.283 Y114.77 E7.42535
G1 X57.387 Y114.163 E7.44384
G1 X57.56 Y113.392 E7.46756
G1 X57.708 Y112.918 E7.48246
G1 X57.829 Y112.57 E7.49352
G1 X57.95 Y112.245 E7.50393
G1 X58.056 Y111.979 E7.51253
G1 X58.385 Y111.261 E7.53623
G1 X58.519 Y111.018 E7.54456
G1 X58.896 Y110.324 E7.56827
G1 X59.254 Y109.821 E7.5868
G1 X59.539 Y109.386 E7.60241
G1 X60.035 Y108.771 E7.62613
G1 X60.371 Y108.418 E7.64076
G1 X60.794 Y108.001 E7.65859
G1 X61.169 Y107.669 E7.67362
G1 X61.517 Y107.338 E7.68804
G1 X62.142 Y106.854 E7.71177
G1 X62.514 Y106.61 E7.72512
G1 X63.041 Y106.286 E7.74369
G1 X63.734 Y105.907 E7.7674
G1 X64.414 Y105.618 E7.78958
G1 X64.793 Y105.48 E7.80169
G1 X65.434 Y105.262 E7.82201
G1 X66.415 Y104.998 E7.85251
G1 X66.887 Y104.908 E7.86693
G1 X67.452 Y104.813 E7.88413
G1 X68.241 Y104.722 E7.90797
G1 X68.24 Y92.715 E8.26839
G1 X68.28 Y91.927 E8.29207
G1 X68.399 Y91.146 E8.31578
G1 X68.597 Y90.382 E8.33947
G1 X68.871 Y89.641 E8.36319
G1 X69.219 Y88.932 E8.3869
G1 X69.636 Y88.262 E8.41059
G1 X70.119 Y87.637 E8.4343
G1 X70.525 Y87.2 E8.4522
G1 X70.736 Y86.989 E8.46116
G1 X71.322 Y86.459 E8.48487
G0 F6000 X71.59 Y86.757
G1 F1200 X72.212 Y86.304 E8.50797
G1 X72.877 Y85.918 E8.53105
G1 X73.579 Y85.603 E8.55415
G1 X74.31 Y85.363 E8.57724
G1 X75.061 Y85.2 E8.60031
G1 X75.826 Y85.116 E8.62341
G1 X76.251 Y85.104 E8.63618
G1 X146.993 Y85.104 E10.75966
G1 X147.414 Y85.126 E10.77231
G1 X147.793 Y85.104 E10.78371
G1 X151.26 Y85.104 E10.88778
G1 X152.028 Y85.144 E10.91086
G1 X152.516 Y85.211 E10.92565
G1 X152.992 Y85.293 E10.94015
G1 X153.522 Y85.395 E10.95635
G1 X154.365 Y85.61 E10.98246
G1 X154.487 Y85.649 E10.98631
G1 X154.919 Y85.802 E11.00006
G1 X155.04 Y85.849 E11.00396
G1 X155.361 Y85.964 E11.0142
G1 X155.586 Y86.052 E11.02145
G1 X156.287 Y86.369 E11.04454
G1 X156.711 Y86.606 E11.05912
G1 X157.217 Y86.911 E11.07686
G1 X157.854 Y87.342 E11.09994
G1 X158.194 Y87.642 E11.11355
G1 X158.315 Y87.737 E11.11817
G1 X159.002 Y88.351 E11.14583
G1 X159.431 Y88.785 E11.16415
G1 X159.942 Y89.359 E11.18722
G1 X160.21 Y89.739 E11.20117
G1 X160.246 Y89.785 E11.20293
G1 X160.73 Y90.481 E11.22837
G1 X160.835 Y90.652 E11.2344
G1 X161.203 Y91.327 E11.25747
G1 X161.272 Y91.485 E11.26265
G1 X161.408 Y91.74 E11.27132
G1 X161.596 Y92.18 E11.28569
G1 X161.682 Y92.4 E11.29278
G1 X161.799 Y92.721 E11.30303
G1 X161.93 Y93.108 E11.3153
G1 X162.157 Y93.93 E11.3409
G1 X162.172 Y94 E11.34304
G1 X162.239 Y94.357 E11.35395
G1 X162.332 Y94.926 E11.37125
G1 X162.417 Y95.691 E11.39436
G1 X162.429 Y96.12 E11.40724
G1 X162.429 Y96.928 E11.43149
G1 X162.389 Y97.696 E11.45458
G1 X162.336 Y98.1 E11.46681
G1 X162.298 Y98.337 E11.47402
G1 X162.241 Y98.65 E11.48357
G1 X162.21 Y98.812 E11.48852
G1 X161.962 Y99.809 E11.51936
G1 X161.872 Y100.087 E11.52813
G1 X161.703 Y100.556 E11.54309
G1 X161.571 Y100.886 E11.55376
G1 X161.357 Y101.37 E11.56964
G1 X161.275 Y101.54 E11.57531
G1 X161.079 Y101.963 E11.5893
G1 X160.862 Y102.347 E11.60254
G1 X160.741 Y102.547 E11.60956
G1 X160.31 Y103.183 E11.63262
G1 X160.105 Y103.444 E11.64258
G1 X159.615 Y104.037 E11.66568
G1 X159.374 Y104.285 E11.67606
G1 X159.093 Y104.598 E11.68868
G1 X158.932 Y104.757 E11.69547
G1 X158.357 Y105.268 E11.71857
G1 X158.156 Y105.423 E11.72618
G1 X157.243 Y106.075 E11.75986
G1 X156.514 Y106.516 E11.78544
G1 X155.836 Y106.879 E11.80852
G1 X154.869 Y107.254 E11.83965
G1 X154.683 Y107.312 E11.8455
G1 X154.393 Y107.408 E11.85467
G1 X154.392 Y127.496 E12.45766
G1 X154.352 Y128.264 E12.48074
G1 X154.232 Y129.024 E12.50384
G1 X154.035 Y129.767 E12.52691
G1 X153.761 Y130.486 E12.55001
G1 X153.414 Y131.173 E12.57311
G1 X152.998 Y131.819 E12.59618
G1 X152.516 Y132.419 E12.61928
G1 X151.976 Y132.966 E12.64235
G1 X151.381 Y133.454 E12.66545
G1 X150.739 Y133.877 E12.68853
G1 X150.056 Y134.232 E12.71163
G1 X149.34 Y134.513 E12.73472
G1 X148.599 Y134.719 E12.75781
G1 X147.841 Y134.847 E12.78088
G1 X146.992 Y134.896 E12.80641
G1 X76.227 Y134.896 E14.93058
G1 X75.459 Y134.856 E14.95367
G1 X74.699 Y134.737 E14.97676
G1 X73.956 Y134.539 E14.99984
G1 X73.237 Y134.265 E15.02294
G1 X72.551 Y133.918 E15.04601
G1 X71.904 Y133.502 E15.0691
G1 X71.171 Y132.885 E15.09786
G1 X71.014 Y132.752 E15.10404
G1 X70.476 Y132.203 E15.12711
G1 X69.998 Y131.6 E15.15021
G1 X69.585 Y130.951 E15.1733
G1 X69.242 Y130.263 E15.19638
G1 X68.972 Y129.543 E15.21946
G1 X68.778 Y128.799 E15.24254
G1 X68.662 Y128.038 E15.26564
G1 X68.655 Y127.905 E15.26964
G1 X68.529 Y127.905 E15.27342
G1 X67.761 Y127.865 E15.29651
G1 X67.272 Y127.797 E15.31133
G1 X66.837 Y127.722 E15.32458
G1 X66.087 Y127.553 E15.34766
G1 X65.675 Y127.441 E15.36047
G1 X65.291 Y127.301 E15.37274
G1 X65.123 Y127.249 E15.37802
G1 X64.401 Y126.984 E15.40111
G1 X63.485 Y126.516 E15.43198
G1 X62.782 Y126.092 E15.45663
G1 X62.145 Y125.661 E15.47971
G1 X61.886 Y125.443 E15.48987
G1 X61.713 Y125.323 E15.49619
G1 X61.161 Y124.85 E15.51802
G1 X61.013 Y124.71 E15.52413
G1 X60.482 Y124.153 E15.54723
G1 X60.243 Y123.858 E15.55863
G1 X60.009 Y123.591 E15.56928
G1 X59.904 Y123.44 E15.5748
G1 X59.465 Y122.863 E15.59657
G1 X59.182 Y122.414 E15.6125
G1 X59.075 Y122.23 E15.61889
G1 X58.809 Y121.693 E15.63688
G1 X58.689 Y121.452 E15.64496
G1 X58.593 Y121.242 E15.65189
G1 X58.388 Y120.791 E15.66676
G1 X58.274 Y120.498 E15.6762
G1 X58.142 Y120.133 E15.68785
G1 X58.049 Y119.851 E15.69676
G1 X57.847 Y119.109 E15.71984
G1 X57.775 Y118.721 E15.73169
G1 X57.738 Y118.54 E15.73724
G1 X57.647 Y117.989 E15.754
G1 X57.63 Y117.855 E15.75805
G1 X57.571 Y116.924 E15.78606
G1 X57.571 Y116.087 E15.81118
G1 X57.611 Y115.319 E15.83426
G1 X57.677 Y114.837 E15.84887
G1 X57.781 Y114.23 E15.86735
G1 X57.95 Y113.48 E15.89043
G1 X58.085 Y113.05 E15.90396
G1 X58.206 Y112.702 E15.91502
G1 X58.322 Y112.393 E15.92493
G1 X58.428 Y112.127 E15.93352
G1 X58.749 Y111.428 E15.95661
G1 X58.88 Y111.191 E15.96474
G1 X59.248 Y110.516 E15.98782
G1 X59.596 Y110.03 E16.00576
G1 X59.874 Y109.605 E16.021
G1 X60.36 Y109.008 E16.04411
G1 X60.652 Y108.703 E16.05679
G1 X61.075 Y108.286 E16.07462
G1 X61.441 Y107.962 E16.08929
G1 X61.793 Y107.628 E16.10385
G1 X62.723 Y106.951 E16.13838
G1 X63.25 Y106.627 E16.15695
G1 X63.926 Y106.259 E16.18006
G1 X64.553 Y105.993 E16.2005
G1 X64.921 Y105.859 E16.21226
G1 X65.562 Y105.641 E16.23258
G1 X66.494 Y105.391 E16.26155
G1 X66.953 Y105.302 E16.27558
G1 X67.518 Y105.207 E16.29278
G1 X68.282 Y105.119 E16.31586
G1 X68.641 Y105.108 E16.32664
G1 X68.64 Y92.715 E16.69865
G1 X68.68 Y91.947 E16.72173
G1 X68.799 Y91.188 E16.74479
G1 X68.997 Y90.444 E16.7679
G1 X69.271 Y89.725 E16.791
G1 X69.618 Y89.039 E16.81408
G1 X70.034 Y88.392 E16.83717
G1 X70.515 Y87.792 E16.86025
G1 X70.807 Y87.482 E16.87303
G1 X71.018 Y87.271 E16.88199
G1 X71.59 Y86.757 E16.90507
G0 F6000 X71.858 Y87.054
G1 F1200 X72.464 Y86.617 E16.9275
G1 X73.114 Y86.246 E16.94997
G1 X73.8 Y85.947 E16.97243
G1 X74.514 Y85.723 E16.99489
G1 X75.247 Y85.576 E17.01733
G1 X76.251 Y85.504 E17.04755
G1 X146.993 Y85.504 E19.17103
G1 X147.319 Y85.521 E19.18083
G1 X147.793 Y85.504 E19.19506
G1 X151.26 Y85.504 E19.29913
G1 X152.007 Y85.544 E19.32159
G1 X152.448 Y85.606 E19.33496
G1 X153.07 Y85.714 E19.35391
G1 X153.446 Y85.787 E19.3654
G1 X154.243 Y85.991 E19.3901
G1 X154.365 Y86.03 E19.39394
G1 X154.774 Y86.175 E19.40697
G1 X154.856 Y86.207 E19.40961
G1 X155.216 Y86.337 E19.4211
G1 X155.441 Y86.425 E19.42835
G1 X156.122 Y86.734 E19.4508
G1 X156.505 Y86.949 E19.46399
G1 X157.011 Y87.254 E19.48172
G1 X157.63 Y87.674 E19.50417
G1 X157.982 Y87.985 E19.51827
G1 X158.067 Y88.052 E19.52152
G1 X158.717 Y88.632 E19.54767
G1 X159.146 Y89.066 E19.56599
G1 X159.643 Y89.625 E19.58844
G1 X159.907 Y90.002 E19.60226
G1 X159.931 Y90.032 E19.60341
G1 X160.389 Y90.69 E19.62748
G1 X160.494 Y90.861 E19.6335
G1 X160.851 Y91.519 E19.65597
G1 X160.917 Y91.671 E19.66094
G1 X161.054 Y91.928 E19.66969
G1 X161.224 Y92.325 E19.68265
G1 X161.31 Y92.545 E19.68974
G1 X161.42 Y92.85 E19.69947
G1 X161.551 Y93.237 E19.71174
G1 X161.766 Y94.014 E19.73594
G1 X161.781 Y94.084 E19.73809
G1 X161.844 Y94.422 E19.74841
G1 X161.937 Y94.991 E19.76571
G1 X162.018 Y95.735 E19.78818
G1 X162.029 Y96.12 E19.79974
G1 X162.029 Y96.928 E19.82399
G1 X161.941 Y98.036 E19.85736
G1 X161.903 Y98.273 E19.86456
G1 X161.816 Y98.743 E19.87891
G1 X161.582 Y99.686 E19.90807
G1 X161.492 Y99.964 E19.91685
G1 X161.331 Y100.408 E19.93102
G1 X161.199 Y100.738 E19.94169
G1 X160.997 Y101.196 E19.95672
G1 X160.909 Y101.376 E19.96273
G1 X160.716 Y101.794 E19.97655
G1 X160.52 Y102.139 E19.98846
G1 X160.399 Y102.339 E19.99548
G1 X159.978 Y102.958 E20.01795
G1 X159.772 Y103.222 E20.028
G1 X159.465 Y103.573 E20.042
G1 X159.366 Y103.697 E20.04676
G1 X158.812 Y104.314 E20.07165
G1 X158.651 Y104.473 E20.07844
G1 X158.091 Y104.969 E20.1009
G1 X157.884 Y105.129 E20.10875
G1 X157.036 Y105.732 E20.13999
G1 X156.307 Y106.173 E20.16556
G1 X155.647 Y106.526 E20.18803
G1 X154.751 Y106.872 E20.21686
G1 X154.546 Y106.935 E20.2233
G1 X154.118 Y107.077 E20.23683
G1 X153.993 Y107.105 E20.24068
G1 X153.992 Y127.496 E20.85276
G1 X153.952 Y128.243 E20.87522
G1 X153.833 Y128.982 E20.89768
G1 X153.635 Y129.703 E20.92013
G1 X153.361 Y130.399 E20.94258
G1 X153.015 Y131.063 E20.96506
G1 X152.6 Y131.685 E20.9875
G1 X152.121 Y132.26 E21.00997
G1 X151.584 Y132.78 E21.0324
G1 X150.994 Y133.239 E21.05484
G1 X150.358 Y133.634 E21.07732
G1 X149.684 Y133.958 E21.09976
G1 X148.979 Y134.208 E21.12222
G1 X148.251 Y134.382 E21.14468
G1 X147.509 Y134.477 E21.16714
G1 X146.992 Y134.496 E21.18267
G1 X76.227 Y134.496 E23.30684
G1 X75.48 Y134.456 E23.3293
G1 X74.742 Y134.337 E23.35173
G1 X74.02 Y134.139 E23.37421
G1 X73.324 Y133.866 E23.39665
G1 X72.661 Y133.519 E23.41911
G1 X72.038 Y133.104 E23.44158
G1 X71.44 Y132.592 E23.46521
G1 X71.285 Y132.458 E23.47136
G1 X70.763 Y131.923 E23.4938
G1 X70.3 Y131.335 E23.51626
G1 X69.903 Y130.701 E23.53872
G1 X69.576 Y130.028 E23.56118
G1 X69.323 Y129.324 E23.58363
G1 X69.146 Y128.597 E23.60609
G1 X69.047 Y127.856 E23.62853
G1 X69.033 Y127.505 E23.63908
G1 X68.529 Y127.505 E23.65421
G1 X67.782 Y127.465 E23.67666
G1 X67.34 Y127.403 E23.69006
G1 X66.905 Y127.328 E23.70331
G1 X66.175 Y127.162 E23.72578
G1 X66.013 Y127.108 E23.73091
G1 X65.765 Y127.051 E23.73855
G1 X65.384 Y126.911 E23.75073
G1 X65.241 Y126.867 E23.75522
G1 X64.539 Y126.608 E23.77768
G1 X63.692 Y126.173 E23.80626
G1 X62.989 Y125.749 E23.83091
G1 X62.37 Y125.329 E23.85336
G1 X62.131 Y125.127 E23.86275
