;FLAVOR:Marlin
;TIME:2874
;Filament used: 1.26889m
;Layer height: 0.2
;MINX:91.711
;MINY:91.223
;MINZ:0.2
;MAXX:128.297
;MAXY:120.779
;MAXZ:37.4
;Generated with Cura_SteamEngine 4.10.0
M140 S70
M105
M190 S70
M104 S210
M105
M109 S210
M82 ;absolute extrusion mode
; Ender 3 Custom Start G-code
G92 E0 ; Reset Extruder
G28 ; Home all axes
G1 Z2.0 F3000 ; Move Z Axis up little to prevent scratching of Heat Bed
G1 X0.1 Y20 Z0.3 F5000.0 ; Move to start position
G1 X0.1 Y200.0 Z0.3 F1500.0 E15 ; Draw the first line
G1 X0.4 Y200.0 Z0.3 F5000.0 ; Move to side a little
G1 X0.4 Y20 Z0.3 F1500.0 E30 ; Draw the second line
G92 E0 ; Reset Extruder
G1 Z2.0 F3000 ; Move Z Axis up little to prevent scratching of Heat Bed
G1 X5 Y20 Z0.3 F5000.0 ; Move over to prevent blob squish
G92 E0
G92 E0
G1 F1500 E-6.5
;LAYER_COUNT:186
;LAYER:0
M107
G1 F300 Z0.4
G0 F9000 X94.629 Y93.973 Z0.4
;TYPE:SKIRT
G1 F300 Z0.2
G1 F1500 E0
G1 F1200 X95.244 Y93.416 E0.02484
G1 X95.404 Y93.286 E0.03101
G1 X96.099 Y92.782 E0.05671
G1 X96.276 Y92.668 E0.06301
G1 X96.938 Y92.287 E0.08587
G1 X97.125 Y92.191 E0.09217
G1 X97.899 Y91.845 E0.11754
G1 X98.095 Y91.77 E0.12383
G1 X98.723 Y91.56 E0.14365
G1 X98.841 Y91.526 E0.14732
G1 X99.61 Y91.346 E0.17097
G1 X100.393 Y91.245 E0.1946
G1 X101.183 Y91.223 E0.21826
G1 X101.97 Y91.281 E0.24188
G1 X102.748 Y91.419 E0.26553
G1 X103.508 Y91.635 E0.28918
G1 X104.242 Y91.926 E0.31282
G1 X104.942 Y92.29 E0.33643
G1 X105.603 Y92.723 E0.36009
G1 X106.216 Y93.221 E0.38373
G1 X106.776 Y93.778 E0.40737
G1 X107.105 Y94.179 E0.4229
G1 X112.897 Y94.179 E0.59628
G1 X113.076 Y93.948 E0.60503
G1 X113.619 Y93.375 E0.62866
G1 X114.218 Y92.86 E0.6523
G1 X114.865 Y92.408 E0.67593
G1 X115.555 Y92.023 E0.69958
G1 X116.28 Y91.711 E0.72321
G1 X117.033 Y91.473 E0.74685
G1 X117.807 Y91.313 E0.7705
G1 X118.592 Y91.232 E0.79413
G1 X119.382 Y91.23 E0.81778
G1 X120.167 Y91.309 E0.84139
G1 X120.941 Y91.466 E0.86503
G1 X121.375 Y91.591 E0.87855
G1 X121.591 Y91.66 E0.88534
G1 X122.371 Y91.956 E0.91031
G1 X122.561 Y92.04 E0.91653
G1 X123.301 Y92.415 E0.94137
G1 X123.485 Y92.521 E0.94772
G1 X124.21 Y92.995 E0.97365
G1 X124.376 Y93.117 E0.97982
G1 X124.987 Y93.615 E1.00341
G1 X125.143 Y93.756 E1.00971
G1 X125.7 Y94.313 E1.03329
G1 X125.841 Y94.469 E1.03958
G1 X126.378 Y95.134 E1.06517
G1 X126.5 Y95.303 E1.07141
G1 X126.916 Y95.942 E1.09423
G1 X127.022 Y96.124 E1.10054
G1 X127.402 Y96.865 E1.12546
G1 X127.487 Y97.055 E1.13169
G1 X127.785 Y97.829 E1.15652
G1 X127.85 Y98.029 E1.16282
G1 X128.055 Y98.788 E1.18635
G1 X128.099 Y98.991 E1.19257
G1 X128.237 Y99.867 E1.21911
G1 X128.258 Y100.077 E1.22543
G1 X128.297 Y100.853 E1.24869
G1 X128.297 Y101.062 E1.25495
G1 X128.254 Y101.882 E1.27953
G1 X128.232 Y102.09 E1.28579
G1 X128.107 Y102.879 E1.3097
G1 X128.064 Y103.083 E1.31594
G1 X127.854 Y103.874 E1.34044
G1 X127.789 Y104.075 E1.34676
G1 X127.495 Y104.843 E1.37138
G1 X127.411 Y105.032 E1.37757
G1 X127.051 Y105.742 E1.4014
G1 X126.938 Y105.937 E1.40814
G1 X126.67 Y106.662 E1.43128
G1 X126.322 Y107.371 E1.45492
G1 X125.692 Y108.332 E1.48932
G1 X123.591 Y111.074 E1.59273
G1 X123.08 Y111.676 E1.61636
G1 X122.51 Y112.223 E1.64001
G1 X121.888 Y112.709 E1.66364
G1 X121.22 Y113.13 E1.68728
G1 X120.513 Y113.482 E1.71092
G1 X119.774 Y113.76 E1.73455
G1 X119.011 Y113.962 E1.75818
G1 X118.231 Y114.086 E1.78182
G1 X117.401 Y114.13 E1.8067
G1 X102.604 Y114.131 E2.24964
G1 X101.815 Y114.091 E2.27328
G1 X101.034 Y113.972 E2.29693
G1 X100.27 Y113.774 E2.32056
G1 X99.529 Y113.5 E2.34421
G1 X98.82 Y113.152 E2.36785
G1 X98.15 Y112.735 E2.39147
G1 X97.525 Y112.252 E2.41512
G1 X96.952 Y111.708 E2.43877
G1 X96.41 Y111.073 E2.46376
G1 X94.309 Y108.329 E2.56721
G1 X93.861 Y107.678 E2.59086
G1 X93.482 Y106.986 E2.61448
G1 X93.174 Y106.259 E2.63812
G1 X93.079 Y105.951 E2.64777
G1 X92.814 Y105.49 E2.66368
G1 X92.719 Y105.303 E2.66996
G1 X92.393 Y104.57 E2.69397
G1 X92.318 Y104.375 E2.70023
G1 X92.063 Y103.589 E2.72496
G1 X92.009 Y103.387 E2.73122
G1 X91.841 Y102.601 E2.75528
G1 X91.808 Y102.394 E2.76156
G1 X91.722 Y101.578 E2.78612
G1 X91.711 Y101.37 E2.79235
G1 X91.711 Y100.55 E2.8169
G1 X91.722 Y100.34 E2.8232
G1 X91.809 Y99.514 E2.84806
G1 X91.842 Y99.308 E2.8543
G1 X92.009 Y98.528 E2.87818
G1 X92.063 Y98.326 E2.88444
G1 X92.305 Y97.573 E2.90812
G1 X92.379 Y97.378 E2.91436
G1 X92.74 Y96.569 E2.94088
G1 X92.837 Y96.381 E2.94721
G1 X93.216 Y95.726 E2.96986
G1 X93.329 Y95.551 E2.9761
G1 X93.835 Y94.855 E3.00186
G1 X93.967 Y94.693 E3.00811
G1 X94.48 Y94.123 E3.03107
G1 X94.629 Y93.973 E3.03739
G0 F9000 X94.913 Y94.255
G1 F1200 X95.497 Y93.727 E3.06096
G1 X95.657 Y93.597 E3.06713
G1 X96.316 Y93.119 E3.0915
G1 X96.493 Y93.005 E3.0978
G1 X97.12 Y92.643 E3.11948
G1 X97.307 Y92.547 E3.12577
G1 X98.042 Y92.219 E3.14986
G1 X98.238 Y92.144 E3.15614
G1 X98.834 Y91.944 E3.17496
G1 X98.952 Y91.91 E3.17864
G1 X99.701 Y91.736 E3.20166
G1 X100.465 Y91.64 E3.22471
G1 X101.233 Y91.625 E3.2477
G1 X102 Y91.689 E3.27074
G1 X102.756 Y91.832 E3.29377
G1 X103.492 Y92.053 E3.31677
G1 X104.202 Y92.349 E3.3398
G1 X104.877 Y92.718 E3.36283
G1 X105.511 Y93.154 E3.38586
G1 X106.095 Y93.654 E3.40887
G1 X106.625 Y94.212 E3.43191
G1 X106.908 Y94.579 E3.44578
G1 X113.09 Y94.579 E3.63084
G1 X113.472 Y94.103 E3.64911
G1 X114.012 Y93.556 E3.67211
G1 X114.606 Y93.067 E3.69515
G1 X115.248 Y92.643 E3.71818
G1 X115.93 Y92.288 E3.74119
G1 X116.646 Y92.006 E3.76423
G1 X117.387 Y91.799 E3.78726
G1 X118.145 Y91.671 E3.81027
G1 X118.913 Y91.622 E3.8333
G1 X119.681 Y91.652 E3.85631
G1 X120.442 Y91.763 E3.87933
G1 X121.253 Y91.972 E3.9044
G1 X121.469 Y92.041 E3.91119
G1 X122.209 Y92.322 E3.93488
G1 X122.399 Y92.406 E3.9411
G1 X123.101 Y92.762 E3.96466
G1 X123.285 Y92.868 E3.97102
G1 X123.973 Y93.317 E3.99561
G1 X124.139 Y93.439 E4.00178
G1 X124.719 Y93.912 E4.02418
G1 X124.875 Y94.053 E4.03048
G1 X125.403 Y94.581 E4.05283
G1 X125.544 Y94.737 E4.05912
G1 X126.054 Y95.368 E4.08341
G1 X126.176 Y95.537 E4.08965
G1 X126.571 Y96.144 E4.11133
G1 X126.677 Y96.326 E4.11763
G1 X127.037 Y97.028 E4.14125
G1 X127.122 Y97.218 E4.14748
G1 X127.405 Y97.953 E4.17106
G1 X127.47 Y98.153 E4.17735
G1 X127.664 Y98.872 E4.19964
G1 X127.708 Y99.075 E4.20586
G1 X127.839 Y99.907 E4.23107
G1 X127.86 Y100.117 E4.23739
G1 X127.897 Y100.853 E4.25945
G1 X127.897 Y101.062 E4.26571
G1 X127.856 Y101.84 E4.28903
G1 X127.834 Y102.048 E4.29529
G1 X127.716 Y102.796 E4.31796
G1 X127.673 Y103 E4.3242
G1 X127.473 Y103.751 E4.34746
G1 X127.408 Y103.952 E4.35378
G1 X127.129 Y104.68 E4.37712
G1 X127.045 Y104.869 E4.38331
G1 X126.704 Y105.543 E4.40592
G1 X126.566 Y105.777 E4.41405
G1 X126.544 Y105.859 E4.4166
G1 X126.27 Y106.578 E4.43963
G1 X125.923 Y107.264 E4.46264
G1 X125.375 Y108.089 E4.49229
G1 X123.274 Y110.831 E4.59569
G1 X122.775 Y111.416 E4.61871
G1 X122.218 Y111.947 E4.64175
G1 X121.609 Y112.416 E4.66475
G1 X120.955 Y112.82 E4.68777
G1 X120.262 Y113.154 E4.71079
G1 X119.538 Y113.414 E4.73382
G1 X118.791 Y113.598 E4.75685
G1 X118.029 Y113.703 E4.77988
G1 X117.401 Y113.73 E4.79869
G1 X102.604 Y113.731 E5.24163
G1 X101.835 Y113.691 E5.26468
G1 X101.076 Y113.572 E5.28767
G1 X100.332 Y113.374 E5.31072
G1 X99.613 Y113.1 E5.33375
G1 X98.927 Y112.753 E5.35677
G1 X98.28 Y112.337 E5.37979
G1 X97.68 Y111.856 E5.40281
G1 X97.133 Y111.315 E5.42584
G1 X96.727 Y110.83 E5.44477
G1 X94.626 Y108.086 E5.54822
G1 X94.191 Y107.452 E5.57124
G1 X93.824 Y106.776 E5.59427
G1 X93.529 Y106.065 E5.61731
G1 X93.447 Y105.791 E5.62587
G1 X93.171 Y105.309 E5.6425
G1 X93.076 Y105.122 E5.64877
G1 X92.766 Y104.426 E5.67158
G1 X92.691 Y104.231 E5.67784
G1 X92.449 Y103.486 E5.70128
G1 X92.395 Y103.284 E5.70754
G1 X92.236 Y102.538 E5.73038
G1 X92.203 Y102.331 E5.73665
G1 X92.121 Y101.557 E5.75995
G1 X92.11 Y101.349 E5.76618
G1 X92.11 Y100.571 E5.78947
G1 X92.121 Y100.361 E5.79577
G1 X92.204 Y99.577 E5.81937
G1 X92.237 Y99.371 E5.82561
G1 X92.395 Y98.631 E5.84826
G1 X92.449 Y98.429 E5.85452
G1 X92.679 Y97.714 E5.877
G1 X92.753 Y97.519 E5.88325
G1 X93.096 Y96.752 E5.9084
G1 X93.193 Y96.564 E5.91473
G1 X93.552 Y95.943 E5.9362
G1 X93.665 Y95.768 E5.94244
G1 X94.145 Y95.108 E5.96687
G1 X94.277 Y94.946 E5.97312
G1 X94.764 Y94.405 E5.99491
G1 X94.913 Y94.255 E6.00124
G0 F9000 X95.197 Y94.537
G1 F1200 X95.749 Y94.037 E6.02353
G1 X95.909 Y93.907 E6.02971
G1 X96.533 Y93.455 E6.05277
G1 X96.71 Y93.341 E6.05907
G1 X97.303 Y92.999 E6.07956
G1 X97.49 Y92.903 E6.08586
G1 X98.185 Y92.592 E6.10865
G1 X98.381 Y92.517 E6.11493
G1 X98.945 Y92.329 E6.13273
G1 X99.063 Y92.295 E6.1364
G1 X99.792 Y92.126 E6.1588
G1 X100.534 Y92.037 E6.18117
G1 X101.282 Y92.027 E6.20357
G1 X102.027 Y92.097 E6.22597
G1 X102.76 Y92.246 E6.24836
G1 X103.473 Y92.472 E6.27075
G1 X104.158 Y92.773 E6.29314
G1 X104.807 Y93.146 E6.31555
G1 X105.412 Y93.586 E6.33794
G1 X105.967 Y94.087 E6.36032
G1 X106.465 Y94.645 E6.38271
G1 X106.705 Y94.979 E6.39502
G1 X113.294 Y94.979 E6.59226
G1 X113.389 Y94.837 E6.59737
G1 X113.867 Y94.262 E6.61976
G1 X114.404 Y93.742 E6.64213
G1 X114.994 Y93.281 E6.66455
G1 X115.629 Y92.887 E6.68692
G1 X116.303 Y92.562 E6.70931
G1 X117.008 Y92.311 E6.73171
G1 X117.735 Y92.136 E6.7541
G1 X118.477 Y92.041 E6.77649
G1 X119.225 Y92.025 E6.79889
G1 X119.971 Y92.088 E6.8213
G1 X120.705 Y92.232 E6.84369
G1 X121.131 Y92.353 E6.85694
G1 X121.347 Y92.422 E6.86373
G1 X122.047 Y92.688 E6.88615
G1 X122.237 Y92.772 E6.89237
G1 X122.901 Y93.109 E6.91466
G1 X123.085 Y93.215 E6.92101
G1 X123.736 Y93.639 E6.94427
G1 X123.902 Y93.761 E6.95043
G1 X124.451 Y94.209 E6.97165
G1 X124.607 Y94.35 E6.97794
G1 X125.106 Y94.849 E6.99906
G1 X125.247 Y95.005 E7.00536
G1 X125.73 Y95.602 E7.02835
G1 X125.852 Y95.771 E7.03459
G1 X126.225 Y96.345 E7.05508
G1 X126.331 Y96.527 E7.06138
G1 X126.672 Y97.191 E7.08373
G1 X126.757 Y97.381 E7.08996
G1 X127.024 Y98.076 E7.11224
G1 X127.089 Y98.276 E7.11854
G1 X127.273 Y98.957 E7.13965
G1 X127.317 Y99.16 E7.14587
G1 X127.441 Y99.946 E7.16969
G1 X127.462 Y100.156 E7.17601
G1 X127.497 Y100.853 E7.1969
G1 X127.497 Y101.062 E7.20316
G1 X127.458 Y101.798 E7.22522
G1 X127.436 Y102.006 E7.23148
G1 X127.324 Y102.714 E7.25294
G1 X127.281 Y102.918 E7.25918
G1 X127.092 Y103.628 E7.28117
G1 X127.027 Y103.829 E7.28749
G1 X126.764 Y104.518 E7.30957
G1 X126.68 Y104.707 E7.31576
G1 X126.357 Y105.344 E7.33714
G1 X126.192 Y105.619 E7.34674
G1 X126.144 Y105.795 E7.3522
G1 X125.871 Y106.491 E7.37458
G1 X125.524 Y107.154 E7.39698
G1 X125.057 Y107.845 E7.42195
G1 X122.956 Y110.587 E7.52535
G1 X122.47 Y111.156 E7.54775
G1 X121.926 Y111.67 E7.57015
G1 X121.331 Y112.122 E7.59252
G1 X120.69 Y112.509 E7.61493
G1 X120.012 Y112.824 E7.63731
G1 X119.304 Y113.066 E7.65971
G1 X118.574 Y113.231 E7.68211
G1 X117.831 Y113.317 E7.7045
G1 X117.4 Y113.33 E7.71741
G1 X102.603 Y113.331 E8.16034
G1 X101.856 Y113.291 E8.18274
G1 X101.118 Y113.172 E8.20511
G1 X100.396 Y112.974 E8.22752
G1 X99.7 Y112.701 E8.2499
G1 X99.037 Y112.355 E8.27229
G1 X98.415 Y111.94 E8.29467
G1 X97.84 Y111.461 E8.31708
G1 X97.32 Y110.923 E8.33947
G1 X97.045 Y110.587 E8.35247
G1 X94.944 Y107.843 E8.45592
G1 X94.522 Y107.225 E8.47832
G1 X94.168 Y106.566 E8.50071
G1 X93.886 Y105.873 E8.52311
G1 X93.817 Y105.632 E8.53061
G1 X93.527 Y105.127 E8.54805
G1 X93.432 Y104.94 E8.55433
G1 X93.14 Y104.283 E8.57585
G1 X93.065 Y104.088 E8.5821
G1 X92.835 Y103.383 E8.6043
G1 X92.781 Y103.181 E8.61056
G1 X92.631 Y102.475 E8.63216
G1 X92.598 Y102.268 E8.63844
G1 X92.521 Y101.536 E8.66047
G1 X92.51 Y101.328 E8.66671
G1 X92.51 Y100.592 E8.68874
G1 X92.521 Y100.382 E8.69503
G1 X92.599 Y99.641 E8.71734
G1 X92.632 Y99.435 E8.72358
G1 X92.781 Y98.734 E8.74503
G1 X92.835 Y98.532 E8.75129
G1 X93.053 Y97.856 E8.77255
G1 X93.127 Y97.661 E8.7788
G1 X93.451 Y96.935 E8.8026
G1 X93.548 Y96.747 E8.80893
G1 X93.888 Y96.16 E8.82923
G1 X94.001 Y95.985 E8.83547
G1 X94.455 Y95.36 E8.85859
G1 X94.587 Y95.198 E8.86485
G1 X95.048 Y94.687 E8.88545
G1 X95.197 Y94.537 E8.89178
G0 F9000 X95.481 Y94.819
G1 F1200 X96.001 Y94.348 E8.91278
G1 X96.161 Y94.218 E8.91895
G1 X96.749 Y93.791 E8.9407
G1 X96.926 Y93.677 E8.94701
G1 X97.486 Y93.355 E8.96634
G1 X97.673 Y93.259 E8.97264
G1 X98.328 Y92.966 E8.99411
G1 X98.524 Y92.891 E9.0004
G1 X99.056 Y92.713 E9.01719
G1 X99.174 Y92.679 E9.02087
G1 X99.882 Y92.517 E9.04261
G1 X100.603 Y92.433 E9.06433
G1 X101.33 Y92.429 E9.0861
G1 X102.052 Y92.505 E9.10783
G1 X102.762 Y92.66 E9.12958
G1 X103.45 Y92.892 E9.15132
G1 X104.109 Y93.198 E9.17307
G1 X104.73 Y93.575 E9.19481
G1 X105.305 Y94.018 E9.21654
G1 X105.829 Y94.521 E9.23828
G1 X106.294 Y95.079 E9.26003
G1 X106.493 Y95.379 E9.2708
G1 X113.507 Y95.379 E9.48076
G1 X113.786 Y94.976 E9.49543
G1 X114.262 Y94.427 E9.51718
G1 X114.796 Y93.934 E9.53894
G1 X115.38 Y93.503 E9.56067
G1 X116.008 Y93.139 E9.58239
G1 X116.673 Y92.845 E9.60416
G1 X117.366 Y92.627 E9.62591
G1 X118.078 Y92.486 E9.64763
G1 X118.802 Y92.424 E9.66938
G1 X119.528 Y92.442 E9.69112
G1 X120.248 Y92.54 E9.71287
G1 X121.009 Y92.734 E9.73638
G1 X121.225 Y92.803 E9.74317
G1 X121.886 Y93.054 E9.76434
G1 X122.076 Y93.138 E9.77055
G1 X122.702 Y93.455 E9.79156
G1 X122.886 Y93.561 E9.79791
G1 X123.5 Y93.962 E9.81987
G1 X123.666 Y94.084 E9.82603
G1 X124.183 Y94.506 E9.84601
G1 X124.339 Y94.647 E9.8523
G1 X124.809 Y95.117 E9.8722
G1 X124.95 Y95.273 E9.8785
G1 X125.405 Y95.836 E9.90016
G1 X125.527 Y96.005 E9.9064
G1 X125.879 Y96.546 E9.92572
G1 X125.985 Y96.728 E9.93203
G1 X126.307 Y97.355 E9.95313
G1 X126.392 Y97.545 E9.95936
G1 X126.644 Y98.2 E9.98037
G1 X126.709 Y98.4 E9.98666
G1 X126.882 Y99.042 E10.00657
G1 X126.926 Y99.245 E10.01278
G1 X127.043 Y99.986 E10.03524
G1 X127.064 Y100.196 E10.04156
G1 X127.097 Y100.853 E10.06125
G1 X127.097 Y101.062 E10.0675
G1 X127.06 Y101.756 E10.08831
G1 X127.038 Y101.964 E10.09457
G1 X126.933 Y102.631 E10.11478
G1 X126.89 Y102.835 E10.12102
G1 X126.712 Y103.505 E10.14177
G1 X126.647 Y103.706 E10.1481
G1 X126.398 Y104.356 E10.16893
G1 X126.314 Y104.545 E10.17512
G1 X126.01 Y105.145 E10.19526
G1 X125.821 Y105.457 E10.20618
G1 X125.744 Y105.729 E10.21464
G1 X125.471 Y106.402 E10.23638
G1 X125.126 Y107.041 E10.25812
G1 X124.74 Y107.602 E10.2785
G1 X122.639 Y110.344 E10.38191
G1 X122.166 Y110.896 E10.40367
G1 X121.636 Y111.392 E10.42539
G1 X121.054 Y111.826 E10.44713
G1 X120.428 Y112.195 E10.46888
G1 X119.765 Y112.492 E10.49063
G1 X119.073 Y112.714 E10.51238
G1 X118.362 Y112.86 E10.53411
G1 X117.4 Y112.93 E10.56298
G1 X102.603 Y112.931 E11.00591
G1 X101.878 Y112.891 E11.02765
G1 X101.162 Y112.772 E11.04938
G1 X100.463 Y112.574 E11.07112
G1 X99.79 Y112.301 E11.09286
G1 X99.151 Y111.956 E11.1146
G1 X98.553 Y111.543 E11.13636
G1 X98.005 Y111.066 E11.1581
G1 X97.363 Y110.343 E11.18705
G1 X95.262 Y107.599 E11.2905
G1 X94.853 Y106.999 E11.31224
G1 X94.512 Y106.358 E11.33397
G1 X94.244 Y105.683 E11.35571
G1 X94.186 Y105.473 E11.36223
G1 X93.884 Y104.946 E11.38041
G1 X93.789 Y104.759 E11.38669
G1 X93.513 Y104.139 E11.40701
G1 X93.438 Y103.944 E11.41326
G1 X93.222 Y103.28 E11.43416
G1 X93.168 Y103.078 E11.44042
G1 X93.026 Y102.412 E11.46081
G1 X92.993 Y102.205 E11.46708
G1 X92.92 Y101.515 E11.48785
G1 X92.909 Y101.307 E11.49408
G1 X92.909 Y100.613 E11.51486
G1 X92.92 Y100.403 E11.52115
G1 X92.994 Y99.704 E11.54219
G1 X93.027 Y99.498 E11.54844
G1 X93.168 Y98.837 E11.56867
G1 X93.222 Y98.635 E11.57493
G1 X93.427 Y97.998 E11.59496
G1 X93.501 Y97.803 E11.6012
G1 X93.807 Y97.119 E11.62363
G1 X93.904 Y96.931 E11.62997
G1 X94.224 Y96.377 E11.64912
G1 X94.337 Y96.202 E11.65535
G1 X94.765 Y95.613 E11.67715
G1 X94.897 Y95.451 E11.6834
G1 X95.332 Y94.969 E11.70284
G1 X95.481 Y94.819 E11.70917
G0 F9000 X95.764 Y95.101
