;FLAVOR:Marlin
;TIME:2953
;Filament used: 1.57529m
;Layer height: 0.2
;MINX:93.396
;MINY:88.004
;MINZ:0.2
;MAXX:126.604
;MAXY:131.996
;MAXZ:32
;Generated with Cura_SteamEngine 4.10.0
M140 S70
M105
M190 S70
M104 S210
M105
M109 S210
M82 ;absolute extrusion mode
; Ender 3 Custom Start G-code
G92 E0 ; Reset Extruder
G28 ; Home all axes
G1 Z2.0 F3000 ; Move Z Axis up little to prevent scratching of Heat Bed
G1 X0.1 Y20 Z0.3 F5000.0 ; Move to start position
G1 X0.1 Y200.0 Z0.3 F1500.0 E15 ; Draw the first line
G1 X0.4 Y200.0 Z0.3 F5000.0 ; Move to side a little
G1 X0.4 Y20 Z0.3 F1500.0 E30 ; Draw the second line
G92 E0 ; Reset Extruder
G1 Z2.0 F3000 ; Move Z Axis up little to prevent scratching of Heat Bed
G1 X5 Y20 Z0.3 F5000.0 ; Move over to prevent blob squish
G92 E0
G92 E0
G1 F1500 E-6.5
;LAYER_COUNT:160
;LAYER:0
M107
G1 F300 Z0.4
G0 F9000 X95.599 Y90.968 Z0.4
;TYPE:SKIRT
G1 F300 Z0.2
G1 F1500 E0
G1 F1200 X96.181 Y90.375 E0.02487
G1 X96.336 Y90.233 E0.03116
G1 X96.945 Y89.729 E0.05483
G1 X97.735 Y89.212 E0.08309
G1 X97.917 Y89.108 E0.08936
G1 X98.622 Y88.751 E0.11302
G1 X99.432 Y88.444 E0.13895
G1 X99.672 Y88.368 E0.14648
G1 X100.436 Y88.168 E0.17012
G1 X101.216 Y88.046 E0.19376
G1 X102.027 Y88.004 E0.21807
G1 X102.349 Y88.004 E0.22771
G1 X103.138 Y88.044 E0.25135
G1 X103.918 Y88.163 E0.27497
G1 X104.707 Y88.369 E0.29938
G1 X104.912 Y88.434 E0.30582
G1 X105.651 Y88.71 E0.32943
G1 X106.193 Y88.97 E0.34743
G1 X106.256 Y89.003 E0.34956
G1 X115.018 Y89.003 E0.61184
G1 X115.514 Y89.019 E0.62669
G1 X115.718 Y89.032 E0.63281
G1 X116.203 Y89.078 E0.6474
G1 X116.408 Y89.104 E0.65358
G1 X116.766 Y89.158 E0.66442
G1 X116.984 Y89.196 E0.67104
G1 X117.684 Y89.351 E0.69251
G1 X117.876 Y89.403 E0.69846
G1 X118.172 Y89.49 E0.7077
G1 X118.58 Y89.618 E0.7205
G1 X119.571 Y90.005 E0.75234
G1 X119.894 Y90.159 E0.76305
G1 X120.095 Y90.254 E0.76971
G1 X121.05 Y90.782 E0.80237
G1 X121.226 Y90.896 E0.80865
G1 X121.451 Y91.048 E0.81678
G1 X121.62 Y91.166 E0.82295
G1 X121.923 Y91.388 E0.83419
G1 X122.09 Y91.517 E0.84051
G1 X122.347 Y91.725 E0.85041
G1 X122.512 Y91.864 E0.85686
G1 X123.002 Y92.314 E0.87678
G1 X123.298 Y92.61 E0.88931
G1 X123.782 Y93.139 E0.91077
G1 X123.91 Y93.293 E0.91677
G1 X124.101 Y93.532 E0.92593
G1 X124.226 Y93.695 E0.93207
G1 X124.383 Y93.908 E0.93999
G1 X124.513 Y94.09 E0.94669
G1 X124.939 Y94.756 E0.97036
G1 X125.144 Y95.115 E0.98273
G1 X125.45 Y95.707 E1.00268
G1 X125.537 Y95.895 E1.00888
G1 X125.703 Y96.281 E1.02146
G1 X125.857 Y96.667 E1.0339
G1 X126.176 Y97.652 E1.06489
G1 X126.279 Y98.061 E1.07752
G1 X126.388 Y98.564 E1.09292
G1 X126.426 Y98.772 E1.09925
G1 X126.496 Y99.232 E1.11318
G1 X126.547 Y99.651 E1.12581
G1 X126.604 Y100.593 E1.15406
G1 X126.604 Y101.006 E1.16643
G1 X126.547 Y101.948 E1.19468
G1 X126.496 Y102.367 E1.20731
G1 X126.428 Y102.814 E1.22085
G1 X126.39 Y103.024 E1.22723
G1 X126.276 Y103.553 E1.24343
G1 X126.189 Y103.889 E1.25382
G1 X126.137 Y104.08 E1.25975
G1 X125.929 Y104.731 E1.28021
G1 X125.853 Y104.937 E1.28678
G1 X125.754 Y105.192 E1.29497
G1 X125.675 Y105.385 E1.30121
G1 X125.534 Y105.708 E1.31176
G1 X125.446 Y105.898 E1.31803
G1 X125.139 Y106.492 E1.33804
G1 X124.936 Y106.847 E1.35028
G1 X124.496 Y107.532 E1.37465
G1 X124.365 Y107.714 E1.38137
G1 X124.039 Y108.135 E1.39731
G1 X123.947 Y108.25 E1.40171
G1 X123.303 Y108.983 E1.43092
G1 X123.011 Y109.276 E1.4433
G1 X122.545 Y109.707 E1.4623
G1 X122.376 Y109.851 E1.46895
G1 X122.021 Y110.136 E1.48258
G1 X121.853 Y110.263 E1.48888
G1 X121.601 Y110.446 E1.4982
G1 X121.437 Y110.56 E1.50418
G1 X120.827 Y110.943 E1.52574
G1 X120.49 Y111.131 E1.5373
G1 X120.298 Y111.234 E1.54382
G1 X120.068 Y111.353 E1.55157
G1 X119.714 Y111.526 E1.56336
G1 X119.52 Y111.616 E1.56977
G1 X118.544 Y111.991 E1.60106
G1 X118.229 Y112.089 E1.61094
G1 X118.229 Y123.197 E1.94345
G1 X118.189 Y123.986 E1.9671
G1 X118.07 Y124.766 E1.99071
G1 X117.872 Y125.531 E2.01437
G1 X117.598 Y126.271 E2.03799
G1 X117.25 Y126.98 E2.06163
G1 X116.832 Y127.651 E2.0853
G1 X116.349 Y128.275 E2.10892
G1 X115.806 Y128.848 E2.13255
G1 X115.207 Y129.363 E2.15619
G1 X114.559 Y129.814 E2.17983
G1 X113.868 Y130.198 E2.20349
G1 X113.143 Y130.51 E2.22712
G1 X112.39 Y130.747 E2.25075
G1 X111.616 Y130.906 E2.2744
G1 X110.831 Y130.987 E2.29802
G1 X110.429 Y130.997 E2.31006
G1 X106.266 Y130.997 E2.43468
G1 X106.202 Y131.034 E2.43689
G1 X105.534 Y131.338 E2.45886
G1 X105.341 Y131.415 E2.46508
G1 X104.594 Y131.67 E2.48871
G1 X103.766 Y131.858 E2.51412
G1 X103.614 Y131.884 E2.51874
G1 X102.83 Y131.978 E2.54237
G1 X102.299 Y131.996 E2.55828
G1 X102.077 Y131.996 E2.56492
G1 X101.288 Y131.956 E2.58857
G1 X100.185 Y131.763 E2.62209
G1 X99.981 Y131.712 E2.62839
G1 X99.226 Y131.482 E2.65201
G1 X98.659 Y131.252 E2.67033
G1 X98.429 Y131.148 E2.67788
G1 X97.727 Y130.787 E2.70151
G1 X97.065 Y130.356 E2.72516
G1 X96.66 Y130.042 E2.7405
G1 X96.495 Y129.905 E2.74692
G1 X95.914 Y129.37 E2.77056
G1 X95.451 Y128.856 E2.79127
G1 X95.322 Y128.699 E2.79735
G1 X94.853 Y128.064 E2.82098
G1 X94.278 Y127.039 E2.85616
G1 X94.19 Y126.85 E2.8624
G1 X93.826 Y125.916 E2.89241
G1 X93.761 Y125.711 E2.89885
G1 X93.561 Y124.947 E2.92249
G1 X93.439 Y124.166 E2.94615
G1 X93.396 Y123.353 E2.97052
G1 X93.396 Y123.041 E2.97986
G1 X93.421 Y122.548 E2.99464
G1 X93.421 Y97.297 E3.7505
G1 X93.396 Y96.778 E3.76606
G1 X93.448 Y95.902 E3.79233
G1 X93.485 Y95.584 E3.80191
G1 X93.616 Y94.805 E3.82555
G1 X93.825 Y94.043 E3.84921
G1 X94.249 Y93.012 E3.88258
G1 X94.34 Y92.829 E3.88869
G1 X94.727 Y92.141 E3.91232
G1 X94.982 Y91.762 E3.926
G1 X95.108 Y91.586 E3.93248
G1 X95.599 Y90.968 E3.9561
G0 F9000 X95.913 Y91.217
G1 F1200 X96.451 Y90.67 E3.97907
G1 X96.606 Y90.528 E3.98536
G1 X97.2 Y90.038 E4.00841
G1 X97.934 Y89.559 E4.03465
G1 X98.116 Y89.455 E4.04092
G1 X98.802 Y89.109 E4.06392
G1 X99.553 Y88.825 E4.08796
G1 X99.793 Y88.749 E4.09549
G1 X100.537 Y88.555 E4.11851
G1 X101.298 Y88.44 E4.14155
G1 X102.027 Y88.404 E4.1634
G1 X102.349 Y88.404 E4.17304
G1 X103.117 Y88.444 E4.19606
G1 X103.877 Y88.563 E4.21908
G1 X104.586 Y88.75 E4.24103
G1 X104.791 Y88.815 E4.24747
G1 X105.511 Y89.085 E4.27049
G1 X106.007 Y89.324 E4.28697
G1 X106.157 Y89.403 E4.29204
G1 X115.018 Y89.403 E4.55729
G1 X115.489 Y89.418 E4.5714
G1 X115.693 Y89.431 E4.57751
G1 X116.153 Y89.475 E4.59135
G1 X116.358 Y89.501 E4.59753
G1 X116.698 Y89.552 E4.60782
G1 X116.916 Y89.59 E4.61445
G1 X117.579 Y89.737 E4.63478
G1 X117.771 Y89.789 E4.64073
G1 X118.052 Y89.871 E4.64949
G1 X118.46 Y89.999 E4.66229
G1 X119.401 Y90.367 E4.69254
G1 X119.717 Y90.517 E4.70301
G1 X119.926 Y90.617 E4.70995
G1 X120.833 Y91.118 E4.74096
G1 X121.009 Y91.232 E4.74724
G1 X121.222 Y91.376 E4.75494
G1 X121.391 Y91.494 E4.76111
G1 X121.679 Y91.705 E4.77179
G1 X121.846 Y91.834 E4.77811
G1 X122.09 Y92.031 E4.7875
G1 X122.255 Y92.17 E4.79395
G1 X122.72 Y92.596 E4.81283
G1 X123.016 Y92.892 E4.82536
G1 X123.474 Y93.395 E4.84573
G1 X123.602 Y93.549 E4.85172
G1 X123.783 Y93.776 E4.86041
G1 X123.908 Y93.939 E4.86656
G1 X124.058 Y94.141 E4.87409
G1 X124.188 Y94.323 E4.88079
G1 X124.592 Y94.954 E4.90322
G1 X124.797 Y95.313 E4.91559
G1 X125.087 Y95.875 E4.93452
G1 X125.174 Y96.063 E4.94072
G1 X125.331 Y96.429 E4.95264
G1 X125.485 Y96.815 E4.96508
G1 X125.788 Y97.75 E4.9945
G1 X125.891 Y98.159 E5.00713
G1 X125.995 Y98.636 E5.02174
G1 X126.033 Y98.844 E5.02807
G1 X126.099 Y99.28 E5.04127
G1 X126.15 Y99.699 E5.05391
G1 X126.204 Y100.593 E5.08072
G1 X126.204 Y101.006 E5.09308
G1 X126.15 Y101.9 E5.11989
G1 X126.099 Y102.319 E5.13253
G1 X126.035 Y102.743 E5.14536
G1 X125.997 Y102.953 E5.15175
G1 X125.888 Y103.454 E5.1671
G1 X125.803 Y103.784 E5.1773
G1 X125.751 Y103.975 E5.18322
G1 X125.554 Y104.592 E5.20261
G1 X125.478 Y104.798 E5.20918
G1 X125.383 Y105.04 E5.21697
G1 X125.304 Y105.233 E5.22321
G1 X125.171 Y105.54 E5.23322
G1 X125.083 Y105.73 E5.23949
G1 X124.792 Y106.293 E5.25846
G1 X124.589 Y106.648 E5.2707
G1 X124.171 Y107.298 E5.29384
G1 X124.04 Y107.48 E5.30055
G1 X123.731 Y107.88 E5.31568
G1 X123.63 Y108.006 E5.32051
G1 X123.02 Y108.701 E5.3482
G1 X122.728 Y108.994 E5.36058
G1 X122.285 Y109.403 E5.37863
G1 X122.116 Y109.547 E5.38527
G1 X121.779 Y109.817 E5.3982
G1 X121.611 Y109.944 E5.4045
G1 X121.373 Y110.117 E5.41331
G1 X121.209 Y110.231 E5.41929
G1 X120.63 Y110.595 E5.43976
G1 X120.301 Y110.779 E5.45105
G1 X119.891 Y110.994 E5.4649
G1 X119.545 Y111.163 E5.47643
G1 X119.351 Y111.253 E5.48283
G1 X118.425 Y111.609 E5.51253
G1 X118.018 Y111.735 E5.52528
G1 X117.829 Y111.784 E5.53113
G1 X117.829 Y123.197 E5.87277
G1 X117.789 Y123.965 E5.89579
G1 X117.67 Y124.725 E5.91881
G1 X117.472 Y125.468 E5.94183
G1 X117.198 Y126.187 E5.96486
G1 X116.851 Y126.873 E5.98787
G1 X116.435 Y127.52 E6.0109
G1 X115.954 Y128.12 E6.03392
G1 X115.413 Y128.667 E6.05695
G1 X114.818 Y129.155 E6.07998
G1 X114.176 Y129.578 E6.103
G1 X113.493 Y129.933 E6.12604
G1 X112.778 Y130.214 E6.14904
G1 X112.036 Y130.42 E6.17209
G1 X111.278 Y130.548 E6.1951
G1 X110.429 Y130.597 E6.22056
G1 X106.158 Y130.597 E6.3484
G1 X106.002 Y130.687 E6.3538
G1 X105.386 Y130.966 E6.37404
G1 X105.193 Y131.043 E6.38026
G1 X104.465 Y131.291 E6.40328
G1 X103.699 Y131.464 E6.42679
G1 X103.547 Y131.49 E6.4314
G1 X102.783 Y131.58 E6.45443
G1 X102.299 Y131.596 E6.46893
G1 X102.077 Y131.596 E6.47557
G1 X101.309 Y131.556 E6.49859
G1 X100.282 Y131.375 E6.52981
G1 X100.078 Y131.324 E6.5361
G1 X99.343 Y131.099 E6.55911
G1 X98.824 Y130.888 E6.57588
G1 X98.594 Y130.784 E6.58344
G1 X97.911 Y130.431 E6.60645
G1 X97.268 Y130.009 E6.62948
G1 X96.916 Y129.734 E6.64285
G1 X96.751 Y129.597 E6.64927
G1 X96.185 Y129.076 E6.67229
G1 X95.76 Y128.602 E6.69135
G1 X95.631 Y128.445 E6.69743
G1 X95.175 Y127.826 E6.72045
G1 X94.641 Y126.871 E6.7532
G1 X94.553 Y126.682 E6.75944
G1 X94.207 Y125.795 E6.78794
G1 X94.142 Y125.59 E6.79438
G1 X93.948 Y124.845 E6.81742
G1 X93.832 Y124.085 E6.84044
G1 X93.796 Y123.353 E6.86238
G1 X93.796 Y123.041 E6.87172
G1 X93.821 Y122.561 E6.8861
G1 X93.821 Y97.293 E7.64248
G1 X93.796 Y96.76 E7.65845
G1 X93.846 Y95.948 E7.6828
G1 X93.883 Y95.63 E7.69239
G1 X94.011 Y94.871 E7.71543
G1 X94.218 Y94.13 E7.73846
G1 X94.607 Y93.19 E7.76891
G1 X94.698 Y93.007 E7.77503
G1 X95.076 Y92.337 E7.79806
G1 X95.307 Y91.994 E7.81043
G1 X95.433 Y91.818 E7.81691
G1 X95.913 Y91.217 E7.83994
G0 F9000 X96.226 Y91.467
G1 F1200 X96.721 Y90.965 E7.86104
G1 X96.876 Y90.823 E7.86733
G1 X97.454 Y90.347 E7.88975
G1 X98.132 Y89.906 E7.91396
G1 X98.314 Y89.802 E7.92023
G1 X98.982 Y89.466 E7.94262
G1 X99.674 Y89.207 E7.96473
G1 X99.914 Y89.131 E7.97227
G1 X100.638 Y88.943 E7.99466
G1 X101.378 Y88.834 E8.01705
G1 X102.027 Y88.804 E8.0365
G1 X102.349 Y88.804 E8.04614
G1 X103.096 Y88.844 E8.06853
G1 X103.834 Y88.963 E8.09091
G1 X104.465 Y89.131 E8.11045
G1 X104.67 Y89.196 E8.11689
G1 X105.37 Y89.46 E8.13929
G1 X105.82 Y89.678 E8.15425
G1 X106.055 Y89.803 E8.16222
G1 X115.018 Y89.803 E8.43052
G1 X115.463 Y89.817 E8.44385
G1 X115.667 Y89.83 E8.44997
G1 X116.103 Y89.872 E8.46308
G1 X116.308 Y89.898 E8.46927
G1 X116.629 Y89.946 E8.47898
G1 X116.847 Y89.984 E8.4856
G1 X117.475 Y90.123 E8.50486
G1 X117.667 Y90.175 E8.51081
G1 X117.932 Y90.253 E8.51908
G1 X118.34 Y90.381 E8.53188
G1 X119.23 Y90.729 E8.56049
G1 X119.54 Y90.876 E8.57076
G1 X119.758 Y90.98 E8.57799
G1 X120.616 Y91.454 E8.60733
G1 X120.993 Y91.704 E8.62087
G1 X121.162 Y91.822 E8.62704
G1 X121.434 Y92.021 E8.63713
G1 X121.601 Y92.15 E8.64345
G1 X121.832 Y92.336 E8.65232
G1 X121.997 Y92.475 E8.65878
G1 X122.437 Y92.879 E8.67666
G1 X122.733 Y93.175 E8.68919
G1 X123.166 Y93.651 E8.70846
G1 X123.294 Y93.805 E8.71445
G1 X123.466 Y94.019 E8.72267
G1 X123.732 Y94.373 E8.73592
G1 X123.862 Y94.555 E8.74262
G1 X124.245 Y95.153 E8.76388
G1 X124.45 Y95.512 E8.77625
G1 X124.724 Y96.043 E8.79414
G1 X124.811 Y96.231 E8.80034
G1 X124.96 Y96.577 E8.81161
G1 X125.114 Y96.963 E8.82405
G1 X125.4 Y97.848 E8.8519
G1 X125.503 Y98.257 E8.86452
G1 X125.601 Y98.708 E8.87834
G1 X125.639 Y98.916 E8.88467
G1 X125.702 Y99.328 E8.89714
G1 X125.753 Y99.747 E8.90978
G1 X125.804 Y100.593 E8.93515
G1 X125.804 Y101.006 E8.94751
G1 X125.753 Y101.852 E8.97288
G1 X125.702 Y102.271 E8.98551
G1 X125.641 Y102.671 E8.99763
G1 X125.603 Y102.881 E9.00402
G1 X125.5 Y103.356 E9.01856
G1 X125.417 Y103.679 E9.02855
G1 X125.365 Y103.87 E9.03447
G1 X125.178 Y104.454 E9.05283
G1 X125.013 Y104.889 E9.06676
G1 X124.934 Y105.082 E9.073
G1 X124.808 Y105.372 E9.08246
G1 X124.72 Y105.562 E9.08873
G1 X124.445 Y106.095 E9.10668
G1 X124.242 Y106.45 E9.11893
G1 X123.846 Y107.064 E9.1408
G1 X123.715 Y107.246 E9.14751
G1 X123.423 Y107.624 E9.16181
G1 X123.314 Y107.761 E9.16705
G1 X122.736 Y108.418 E9.19324
G1 X122.444 Y108.711 E9.20562
G1 X122.026 Y109.098 E9.22268
G1 X121.857 Y109.242 E9.22932
G1 X121.538 Y109.498 E9.24157
G1 X121.37 Y109.625 E9.24787
G1 X121.144 Y109.789 E9.25623
G1 X120.98 Y109.903 E9.26221
G1 X120.433 Y110.247 E9.28155
G1 X120.112 Y110.426 E9.29255
G1 X119.714 Y110.636 E9.30602
G1 X119.377 Y110.8 E9.31724
G1 X119.183 Y110.89 E9.32364
G1 X118.307 Y111.227 E9.35174
G1 X117.9 Y111.353 E9.36449
G1 X117.429 Y111.474 E9.37905
G1 X117.429 Y123.197 E9.72997
G1 X117.389 Y123.944 E9.75236
G1 X117.27 Y124.682 E9.77474
G1 X117.072 Y125.404 E9.79715
G1 X116.799 Y126.1 E9.81953
G1 X116.452 Y126.763 E9.84193
G1 X116.037 Y127.386 E9.86433
G1 X115.558 Y127.96 E9.88671
G1 X115.021 Y128.481 E9.90911
G1 X114.431 Y128.94 E9.93149
G1 X113.795 Y129.335 E9.9539
G1 X113.121 Y129.659 E9.97628
G1 X112.416 Y129.909 E9.99867
G1 X111.688 Y130.083 E10.02108
G1 X110.946 Y130.178 E10.04347
G1 X110.429 Y130.197 E10.05896
G1 X106.051 Y130.197 E10.19001
G1 X105.802 Y130.34 E10.19861
G1 X105.238 Y130.595 E10.21713
G1 X105.045 Y130.672 E10.22335
G1 X104.336 Y130.911 E10.24575
G1 X103.631 Y131.07 E10.26738
G1 X103.479 Y131.096 E10.272
G1 X102.736 Y131.182 E10.29439
G1 X102.299 Y131.196 E10.30748
G1 X102.077 Y131.196 E10.31412
G1 X101.33 Y131.156 E10.33652
G1 X100.379 Y130.987 E10.36543
G1 X100.175 Y130.936 E10.37172
G1 X99.46 Y130.716 E10.39412
G1 X98.989 Y130.523 E10.40935
G1 X98.759 Y130.419 E10.41691
G1 X98.095 Y130.075 E10.43929
G1 X97.471 Y129.662 E10.46169
G1 X97.171 Y129.427 E10.4731
G1 X97.006 Y129.29 E10.47952
G1 X96.457 Y128.782 E10.50191
G1 X96.07 Y128.348 E10.51932
G1 X95.941 Y128.191 E10.5254
G1 X95.497 Y127.588 E10.54782
G1 X95.003 Y126.702 E10.57818
G1 X94.915 Y126.513 E10.58442
G1 X94.588 Y125.674 E10.61138
G1 X94.523 Y125.469 E10.61781
G1 X94.336 Y124.745 E10.6402
G1 X94.226 Y124.005 E10.66259
G1 X94.196 Y123.353 E10.68213
G1 X94.196 Y123.041 E10.69147
G1 X94.221 Y122.574 E10.70547
G1 X94.221 Y97.291 E11.46229
G1 X94.196 Y96.741 E11.47877
G1 X94.243 Y95.994 E11.50118
G1 X94.28 Y95.676 E11.51076
G1 X94.406 Y94.939 E11.53314
G1 X94.61 Y94.219 E11.55554
G1 X94.965 Y93.368 E11.58315
G1 X95.056 Y93.185 E11.58926
G1 X95.632 Y92.227 E11.62273
G1 X95.758 Y92.051 E11.6292
G1 X96.226 Y91.467 E11.65161
G0 F9000 X96.538 Y91.718
G1 F1200 X96.992 Y91.259 E11.67093
G1 X97.147 Y91.117 E11.67723
G1 X97.708 Y90.657 E11.69894
G1 X98.33 Y90.254 E11.72113
G1 X98.512 Y90.15 E11.7274
G1 X99.162 Y89.824 E11.74917
G1 X99.795 Y89.588 E11.76939
G1 X100.035 Y89.512 E11.77693
G1 X100.738 Y89.331 E11.79866
G1 X101.457 Y89.229 E11.8204
G1 X102.027 Y89.204 E11.83747
G1 X102.349 Y89.204 E11.84711
G1 X103.074 Y89.244 E11.86885
G1 X103.791 Y89.363 E11.8906
G1 X104.344 Y89.513 E11.90776
G1 X104.549 Y89.578 E11.91419
G1 X105.228 Y89.835 E11.93593
G1 X105.633 Y90.031 E11.94939
G1 X105.946 Y90.203 E11.96009
G1 X115.018 Y90.203 E12.23165
G1 X115.438 Y90.216 E12.24423
G1 X115.642 Y90.229 E12.25035
G1 X116.052 Y90.268 E12.26267
