;FLAVOR:Marlin
;TIME:998
;Filament used: 0.611668m
;Layer height: 0.2
;MINX:87.203
;MINY:93.257
;MINZ:0.2
;MAXX:132.798
;MAXY:126.742
;MAXZ:10.8
;Generated with Cura_SteamEngine 4.10.0
M140 S70
M105
M190 S70
M104 S210
M105
M109 S210
M82 ;absolute extrusion mode
; Ender 3 Custom Start G-code
G92 E0 ; Reset Extruder
G28 ; Home all axes
G1 Z2.0 F3000 ; Move Z Axis up little to prevent scratching of Heat Bed
G1 X0.1 Y20 Z0.3 F5000.0 ; Move to start position
G1 X0.1 Y200.0 Z0.3 F1500.0 E15 ; Draw the first line
G1 X0.4 Y200.0 Z0.3 F5000.0 ; Move to side a little
G1 X0.4 Y20 Z0.3 F1500.0 E30 ; Draw the second line
G92 E0 ; Reset Extruder
G1 Z2.0 F3000 ; Move Z Axis up little to prevent scratching of Heat Bed
G1 X5 Y20 Z0.3 F5000.0 ; Move over to prevent blob squish
G92 E0
G92 E0
G1 F1500 E-6.5
;LAYER_COUNT:53
;LAYER:0
M107
G1 F300 Z0.4
G0 F9000 X92.442 Y95.582 Z0.4
;TYPE:SKIRT
G1 F300 Z0.2
G1 F1500 E0
G1 F1200 X93.037 Y95.064 E0.02361
G1 X93.682 Y94.608 E0.04726
G1 X94.37 Y94.22 E0.0709
G1 X95.094 Y93.904 E0.09455
G1 X95.845 Y93.662 E0.11817
G1 X96.618 Y93.498 E0.14182
G1 X97.403 Y93.412 E0.16546
G1 X97.855 Y93.399 E0.179
G1 X103.516 Y93.4 E0.34846
G1 X103.81 Y93.352 E0.35737
G1 X104.045 Y93.322 E0.36446
G1 X105.031 Y93.259 E0.39404
G1 X114.891 Y93.257 E0.68919
G1 X115.242 Y93.265 E0.6997
G1 X115.465 Y93.275 E0.70638
G1 X116.252 Y93.35 E0.73005
G1 X116.504 Y93.4 E0.73774
G1 X122.148 Y93.401 E0.90668
G1 X122.937 Y93.441 E0.93033
G1 X123.717 Y93.561 E0.95396
G1 X124.482 Y93.759 E0.97761
G1 X125.222 Y94.033 E1.00123
G1 X125.931 Y94.381 E1.02487
G1 X126.602 Y94.798 E1.04852
G1 X127.226 Y95.281 E1.07214
G1 X127.799 Y95.825 E1.09579
G1 X128.313 Y96.424 E1.11942
G1 X128.576 Y96.784 E1.13277
G1 X129.013 Y97.42 E1.15587
G1 X129.244 Y97.777 E1.16859
G1 X129.653 Y98.448 E1.19212
G1 X129.846 Y98.783 E1.20369
G1 X130.221 Y99.473 E1.2272
G1 X130.409 Y99.841 E1.23957
G1 X130.747 Y100.55 E1.26308
G1 X130.915 Y100.928 E1.27546
G1 X131.215 Y101.654 E1.29898
G1 X131.359 Y102.03 E1.31103
G1 X131.621 Y102.77 E1.33453
G1 X131.75 Y103.167 E1.34702
G1 X131.972 Y103.92 E1.37052
G1 X132.075 Y104.309 E1.38257
G1 X132.258 Y105.073 E1.40609
G1 X132.343 Y105.469 E1.41821
G1 X132.486 Y106.241 E1.44171
G1 X132.55 Y106.649 E1.45407
G1 X132.652 Y107.428 E1.47759
G1 X132.693 Y107.819 E1.48936
G1 X132.755 Y108.594 E1.51263
G1 X132.778 Y109.019 E1.52537
G1 X132.798 Y109.81 E1.54906
G1 X132.797 Y110.206 E1.56091
G1 X132.777 Y110.991 E1.58442
G1 X132.755 Y111.418 E1.59722
G1 X132.692 Y112.201 E1.62073
G1 X132.65 Y112.597 E1.63265
G1 X132.548 Y113.369 E1.65596
G1 X132.487 Y113.754 E1.66763
G1 X132.344 Y114.534 E1.69137
G1 X132.253 Y114.962 E1.70447
G1 X132.07 Y115.718 E1.72775
G1 X131.968 Y116.097 E1.7395
G1 X131.743 Y116.857 E1.76323
G1 X131.62 Y117.238 E1.77521
G1 X131.361 Y117.972 E1.79851
G1 X131.204 Y118.38 E1.8116
G1 X130.899 Y119.111 E1.83531
G1 X130.74 Y119.467 E1.84698
G1 X130.405 Y120.169 E1.87026
G1 X130.213 Y120.544 E1.88287
G1 X129.833 Y121.241 E1.90663
G1 X129.649 Y121.56 E1.91766
G1 X129.244 Y122.226 E1.94099
G1 X129.006 Y122.594 E1.95411
G1 X128.574 Y123.222 E1.97693
G1 X128.094 Y123.849 E2.00056
G1 X127.554 Y124.424 E2.02418
G1 X126.957 Y124.942 E2.04784
G1 X126.312 Y125.397 E2.07146
G1 X125.623 Y125.784 E2.09512
G1 X124.9 Y126.1 E2.11874
G1 X124.148 Y126.34 E2.14237
G1 X123.375 Y126.504 E2.16602
G1 X122.59 Y126.588 E2.18965
G1 X122.147 Y126.601 E2.20292
G1 X116.507 Y126.6 E2.37175
G1 X116.346 Y126.628 E2.37664
G1 X115.562 Y126.723 E2.40028
G1 X115.015 Y126.742 E2.41667
G1 X104.996 Y126.742 E2.71658
G1 X104.207 Y126.702 E2.74022
G1 X103.569 Y126.61 E2.75952
G1 X103.514 Y126.6 E2.76119
G1 X97.85 Y126.599 E2.93074
G1 X97.061 Y126.559 E2.95439
G1 X96.281 Y126.439 E2.97801
G1 X95.516 Y126.241 E3.00167
G1 X94.776 Y125.967 E3.02529
G1 X94.067 Y125.619 E3.04893
G1 X93.396 Y125.202 E3.07258
G1 X92.772 Y124.719 E3.0962
G1 X92.199 Y124.175 E3.11985
G1 X91.685 Y123.576 E3.14348
G1 X91.424 Y123.219 E3.15671
G1 X90.988 Y122.585 E3.17975
G1 X90.753 Y122.222 E3.19269
G1 X90.345 Y121.552 E3.21617
G1 X90.154 Y121.22 E3.22764
G1 X89.779 Y120.53 E3.25115
G1 X89.587 Y120.154 E3.26378
G1 X89.249 Y119.443 E3.28735
G1 X89.088 Y119.08 E3.29924
G1 X88.788 Y118.356 E3.3227
G1 X88.642 Y117.974 E3.33494
G1 X88.382 Y117.24 E3.35825
G1 X88.252 Y116.841 E3.37081
G1 X88.028 Y116.081 E3.39453
G1 X87.925 Y115.695 E3.40648
G1 X87.742 Y114.932 E3.42997
G1 X87.657 Y114.532 E3.44221
G1 X87.514 Y113.759 E3.46574
G1 X87.451 Y113.362 E3.47778
G1 X87.349 Y112.59 E3.50109
G1 X87.305 Y112.168 E3.51379
G1 X87.244 Y111.378 E3.53751
G1 X87.224 Y110.987 E3.54923
G1 X87.203 Y110.204 E3.57267
G1 X87.203 Y109.786 E3.58518
G1 X87.224 Y109.001 E3.60869
G1 X87.245 Y108.598 E3.62077
G1 X87.306 Y107.823 E3.64404
G1 X87.349 Y107.412 E3.65641
G1 X87.453 Y106.626 E3.68015
G1 X87.515 Y106.237 E3.69194
G1 X87.656 Y105.471 E3.71525
G1 X87.745 Y105.052 E3.72807
G1 X87.931 Y104.282 E3.75179
G1 X88.034 Y103.898 E3.76369
G1 X88.257 Y103.145 E3.78719
G1 X88.382 Y102.76 E3.79931
G1 X88.644 Y102.019 E3.82284
G1 X88.799 Y101.617 E3.83574
G1 X89.098 Y100.9 E3.85899
G1 X89.257 Y100.544 E3.87066
G1 X89.598 Y99.829 E3.89437
G1 X89.782 Y99.467 E3.90653
G1 X90.157 Y98.776 E3.93006
G1 X90.361 Y98.423 E3.94227
G1 X90.767 Y97.76 E3.96554
G1 X90.987 Y97.42 E3.97766
G1 X91.422 Y96.786 E4.00068
G1 X91.901 Y96.158 E4.02432
G1 X92.442 Y95.582 E4.04797
G0 F9000 X92.748 Y95.843
G1 F1200 X93.332 Y95.342 E4.07101
G1 X93.964 Y94.904 E4.09403
G1 X94.639 Y94.534 E4.11707
G1 X95.348 Y94.236 E4.14009
G1 X96.084 Y94.014 E4.1631
G1 X96.839 Y93.869 E4.18611
G1 X97.855 Y93.799 E4.2166
G1 X103.539 Y93.8 E4.38674
G1 X103.861 Y93.749 E4.3965
G1 X104.096 Y93.719 E4.4036
G1 X105.031 Y93.659 E4.43164
G1 X114.891 Y93.657 E4.72679
G1 X115.225 Y93.664 E4.73679
G1 X115.448 Y93.674 E4.74347
G1 X116.213 Y93.749 E4.76648
G1 X116.465 Y93.8 E4.77418
G1 X122.148 Y93.801 E4.9443
G1 X122.916 Y93.841 E4.96732
G1 X123.676 Y93.961 E4.99035
G1 X124.419 Y94.159 E5.01337
G1 X125.138 Y94.432 E5.03639
G1 X125.824 Y94.779 E5.0594
G1 X126.471 Y95.196 E5.08244
G1 X127.071 Y95.677 E5.10546
G1 X127.618 Y96.218 E5.12849
G1 X128.246 Y97.01 E5.15875
G1 X128.683 Y97.646 E5.18185
G1 X128.903 Y97.986 E5.19397
G1 X129.312 Y98.657 E5.21749
G1 X129.495 Y98.974 E5.22845
G1 X129.87 Y99.664 E5.25196
G1 X130.048 Y100.014 E5.26371
G1 X130.386 Y100.723 E5.28722
G1 X130.545 Y101.081 E5.29895
G1 X130.845 Y101.807 E5.32246
G1 X130.982 Y102.163 E5.33388
G1 X131.244 Y102.903 E5.35738
G1 X131.366 Y103.28 E5.36924
G1 X131.588 Y104.033 E5.39274
G1 X131.686 Y104.402 E5.40417
G1 X131.869 Y105.166 E5.42768
G1 X131.949 Y105.542 E5.43919
G1 X132.092 Y106.314 E5.46269
G1 X132.153 Y106.701 E5.47442
G1 X132.255 Y107.48 E5.49794
G1 X132.294 Y107.851 E5.50911
G1 X132.356 Y108.626 E5.53238
G1 X132.378 Y109.029 E5.54446
G1 X132.398 Y109.82 E5.56815
G1 X132.398 Y110.195 E5.57937
G1 X132.378 Y110.98 E5.60288
G1 X132.356 Y111.385 E5.61502
G1 X132.293 Y112.168 E5.63853
G1 X132.253 Y112.544 E5.64985
G1 X132.151 Y113.316 E5.67316
G1 X132.094 Y113.681 E5.68422
G1 X131.951 Y114.461 E5.70796
G1 X131.864 Y114.868 E5.72042
G1 X131.681 Y115.624 E5.7437
G1 X131.585 Y115.984 E5.75485
G1 X131.36 Y116.744 E5.77858
G1 X131.242 Y117.105 E5.78995
G1 X130.983 Y117.839 E5.81325
G1 X130.834 Y118.226 E5.82566
G1 X130.529 Y118.957 E5.84937
G1 X130.379 Y119.295 E5.86044
G1 X130.044 Y119.997 E5.88372
G1 X129.862 Y120.352 E5.89566
G1 X129.482 Y121.049 E5.91943
G1 X129.308 Y121.352 E5.92989
G1 X128.903 Y122.018 E5.95322
G1 X128.677 Y122.367 E5.96567
G1 X128.245 Y122.995 E5.98848
G1 X127.777 Y123.605 E6.0115
G1 X127.247 Y124.163 E6.03454
G1 X126.663 Y124.664 E6.05757
G1 X126.03 Y125.101 E6.08059
G1 X125.355 Y125.47 E6.10362
G1 X124.646 Y125.767 E6.12663
G1 X123.909 Y125.988 E6.14966
G1 X123.154 Y126.132 E6.17267
G1 X122.147 Y126.201 E6.20288
G1 X116.465 Y126.2 E6.37297
G1 X116.278 Y126.233 E6.37865
G1 X115.514 Y126.325 E6.40169
G1 X115.015 Y126.342 E6.41664
G1 X104.996 Y126.342 E6.71655
G1 X104.228 Y126.302 E6.73957
G1 X103.642 Y126.217 E6.75729
G1 X103.55 Y126.2 E6.76009
G1 X97.85 Y126.199 E6.93072
G1 X97.082 Y126.159 E6.95374
G1 X96.322 Y126.039 E6.97677
G1 X95.579 Y125.841 E6.99979
G1 X94.86 Y125.568 E7.02281
G1 X94.174 Y125.221 E7.04582
G1 X93.527 Y124.804 E7.06886
G1 X92.927 Y124.323 E7.09188
G1 X92.38 Y123.782 E7.11491
G1 X91.754 Y122.992 E7.14508
G1 X91.318 Y122.358 E7.16812
G1 X91.095 Y122.014 E7.18039
G1 X90.687 Y121.344 E7.20387
G1 X90.505 Y121.029 E7.21476
G1 X90.13 Y120.339 E7.23827
G1 X89.949 Y119.982 E7.25025
G1 X89.611 Y119.271 E7.27381
G1 X89.458 Y118.927 E7.28508
G1 X89.158 Y118.203 E7.30854
G1 X89.019 Y117.841 E7.32015
G1 X88.759 Y117.107 E7.34346
G1 X88.636 Y116.728 E7.35539
G1 X88.412 Y115.968 E7.3791
G1 X88.314 Y115.602 E7.39045
G1 X88.131 Y114.839 E7.41393
G1 X88.05 Y114.459 E7.42556
G1 X87.907 Y113.686 E7.4491
G1 X87.848 Y113.309 E7.46052
G1 X87.746 Y112.537 E7.48383
G1 X87.704 Y112.138 E7.49584
G1 X87.643 Y111.348 E7.51956
G1 X87.624 Y110.976 E7.53071
G1 X87.603 Y110.193 E7.55415
G1 X87.603 Y109.797 E7.56601
G1 X87.624 Y109.012 E7.58951
G1 X87.644 Y108.629 E7.60099
G1 X87.705 Y107.854 E7.62427
G1 X87.746 Y107.464 E7.636
G1 X87.85 Y106.678 E7.65974
G1 X87.908 Y106.309 E7.67092
G1 X88.049 Y105.543 E7.69423
G1 X88.134 Y105.145 E7.70642
G1 X88.32 Y104.375 E7.73013
G1 X88.418 Y104.012 E7.74138
G1 X88.641 Y103.259 E7.76489
G1 X88.759 Y102.893 E7.7764
G1 X89.021 Y102.152 E7.79993
G1 X89.168 Y101.771 E7.81215
G1 X89.467 Y101.054 E7.83541
G1 X89.618 Y100.717 E7.84646
G1 X89.959 Y100.002 E7.87017
G1 X90.134 Y99.657 E7.88175
G1 X90.509 Y98.966 E7.90529
G1 X90.702 Y98.631 E7.91686
G1 X91.108 Y97.968 E7.94013
G1 X91.317 Y97.646 E7.95162
G1 X91.752 Y97.012 E7.97464
G1 X92.22 Y96.402 E7.99766
G1 X92.748 Y95.843 E8.02067
G0 F9000 X93.054 Y96.104
G1 F1200 X93.625 Y95.621 E8.04306
G1 X94.244 Y95.201 E8.06545
G1 X94.905 Y94.85 E8.08785
G1 X95.599 Y94.572 E8.11023
G1 X96.319 Y94.369 E8.13263
G1 X97.057 Y94.245 E8.15503
G1 X97.855 Y94.199 E8.17895
G1 X103.65 Y94.2 E8.35242
G1 X103.912 Y94.145 E8.36044
G1 X104.147 Y94.115 E8.36753
G1 X105.032 Y94.059 E8.39407
G1 X114.892 Y94.057 E8.68922
G1 X115.207 Y94.064 E8.69866
G1 X115.43 Y94.074 E8.70534
G1 X116.174 Y94.147 E8.72771
G1 X116.428 Y94.2 E8.73548
G1 X122.148 Y94.201 E8.90671
G1 X122.895 Y94.241 E8.9291
G1 X123.633 Y94.361 E8.95148
G1 X124.355 Y94.558 E8.97388
G1 X125.051 Y94.832 E8.99627
G1 X125.714 Y95.178 E9.01866
G1 X126.337 Y95.593 E9.04107
G1 X126.911 Y96.072 E9.06345
G1 X127.431 Y96.61 E9.08584
G1 X127.916 Y97.237 E9.10957
G1 X128.353 Y97.873 E9.13267
G1 X128.561 Y98.194 E9.14412
G1 X128.97 Y98.865 E9.16764
G1 X129.143 Y99.165 E9.17801
G1 X129.518 Y99.855 E9.20152
G1 X129.687 Y100.186 E9.21264
G1 X130.025 Y100.895 E9.23615
G1 X130.175 Y101.234 E9.24725
G1 X130.475 Y101.96 E9.27077
G1 X130.605 Y102.297 E9.28158
G1 X130.867 Y103.037 E9.30508
G1 X130.982 Y103.393 E9.31628
G1 X131.204 Y104.146 E9.33977
G1 X131.297 Y104.495 E9.35059
G1 X131.48 Y105.259 E9.3741
G1 X131.556 Y105.615 E9.385
G1 X131.699 Y106.387 E9.4085
G1 X131.757 Y106.753 E9.41959
G1 X131.859 Y107.532 E9.44311
G1 X131.896 Y107.883 E9.45368
G1 X131.958 Y108.658 E9.47695
G1 X131.978 Y109.039 E9.48837
G1 X131.998 Y109.83 E9.51206
G1 X131.998 Y110.185 E9.52268
G1 X131.978 Y110.97 E9.54619
G1 X131.957 Y111.353 E9.55767
G1 X131.894 Y112.136 E9.58118
G1 X131.857 Y112.492 E9.5919
G1 X131.755 Y113.264 E9.61521
G1 X131.7 Y113.609 E9.62567
G1 X131.557 Y114.389 E9.6494
G1 X131.476 Y114.774 E9.66118
G1 X131.293 Y115.53 E9.68447
G1 X131.201 Y115.87 E9.69501
G1 X130.976 Y116.63 E9.71873
G1 X130.865 Y116.972 E9.7295
G1 X130.606 Y117.706 E9.7528
G1 X130.465 Y118.072 E9.76454
G1 X130.16 Y118.803 E9.78825
G1 X130.018 Y119.123 E9.79873
G1 X129.683 Y119.825 E9.82201
G1 X129.511 Y120.161 E9.83331
G1 X129.131 Y120.858 E9.85707
G1 X128.966 Y121.144 E9.86696
G1 X128.561 Y121.81 E9.89029
G1 X128.347 Y122.14 E9.90206
G1 X127.915 Y122.768 E9.92488
G1 X127.459 Y123.361 E9.94727
G1 X126.942 Y123.902 E9.96967
G1 X126.37 Y124.384 E9.99206
G1 X125.75 Y124.803 E10.01446
G1 X125.089 Y125.153 E10.03685
G1 X124.395 Y125.431 E10.05923
G1 X123.674 Y125.633 E10.08165
G1 X122.937 Y125.756 E10.10401
G1 X122.147 Y125.801 E10.1277
G1 X116.423 Y125.8 E10.29904
G1 X116.21 Y125.839 E10.30552
G1 X115.467 Y125.927 E10.32792
G1 X115.015 Y125.942 E10.34146
G1 X104.996 Y125.942 E10.64137
G1 X104.249 Y125.902 E10.66376
G1 X103.716 Y125.824 E10.67989
G1 X103.586 Y125.8 E10.68384
G1 X97.85 Y125.799 E10.85554
G1 X97.103 Y125.759 E10.87794
G1 X96.365 Y125.639 E10.90032
G1 X95.643 Y125.442 E10.92272
G1 X94.947 Y125.168 E10.94511
G1 X94.284 Y124.822 E10.9675
G1 X93.661 Y124.407 E10.98991
G1 X93.087 Y123.928 E11.01229
G1 X92.567 Y123.39 E11.03468
G1 X92.083 Y122.765 E11.05835
G1 X91.647 Y122.131 E11.08138
G1 X91.436 Y121.806 E11.09298
G1 X91.028 Y121.136 E11.11646
G1 X90.857 Y120.838 E11.12674
G1 X90.482 Y120.148 E11.15025
G1 X90.31 Y119.81 E11.1616
G1 X89.972 Y119.099 E11.18517
G1 X89.827 Y118.774 E11.19582
G1 X89.527 Y118.05 E11.21928
G1 X89.396 Y117.707 E11.23027
G1 X89.136 Y116.973 E11.25358
G1 X89.02 Y116.615 E11.26485
G1 X88.796 Y115.855 E11.28856
G1 X88.703 Y115.509 E11.29929
G1 X88.52 Y114.746 E11.32278
G1 X88.444 Y114.386 E11.33379
G1 X88.301 Y113.613 E11.35732
G1 X88.244 Y113.257 E11.36811
G1 X88.142 Y112.485 E11.39142
G1 X88.103 Y112.107 E11.4028
G1 X88.042 Y111.317 E11.42652
G1 X88.024 Y110.966 E11.43704
G1 X88.003 Y110.183 E11.46049
G1 X88.003 Y109.808 E11.47171
G1 X88.024 Y109.023 E11.49522
G1 X88.043 Y108.661 E11.50607
G1 X88.104 Y107.886 E11.52934
G1 X88.142 Y107.517 E11.54044
G1 X88.246 Y106.731 E11.56418
G1 X88.302 Y106.382 E11.57476
G1 X88.443 Y105.616 E11.59807
G1 X88.523 Y105.239 E11.60961
G1 X88.709 Y104.469 E11.63332
G1 X88.801 Y104.125 E11.64398
G1 X89.024 Y103.372 E11.66749
G1 X89.136 Y103.027 E11.67835
G1 X89.398 Y102.286 E11.70187
G1 X89.537 Y101.925 E11.71345
G1 X89.836 Y101.208 E11.73671
G1 X89.979 Y100.889 E11.74717
G1 X90.32 Y100.174 E11.77088
G1 X90.486 Y99.848 E11.78183
G1 X90.861 Y99.157 E11.80537
G1 X91.043 Y98.84 E11.81631
G1 X91.449 Y98.177 E11.83958
G1 X91.647 Y97.873 E11.85044
G1 X92.082 Y97.239 E11.87346
G1 X92.538 Y96.645 E11.89587
G1 X93.054 Y96.104 E11.91825
G0 F9000 X93.359 Y96.366
G1 F1200 X93.917 Y95.902 E11.93998
G1 X94.523 Y95.501 E11.96173
G1 X95.169 Y95.17 E11.98346
G1 X95.848 Y94.911 E12.00521
G1 X96.551 Y94.729 E12.02695
G1 X97.27 Y94.625 E12.04869
G1 X97.855 Y94.599 E12.06622
G1 X103.681 Y94.6 E12.24062
G1 X103.962 Y94.542 E12.24921
G1 X104.197 Y94.512 E12.2563
G1 X105.032 Y94.459 E12.28135
G1 X114.892 Y94.457 E12.5765
G1 X115.189 Y94.464 E12.58539
G1 X115.412 Y94.474 E12.59207
G1 X116.134 Y94.546 E12.61379
G1 X116.389 Y94.6 E12.62159
G1 X122.148 Y94.601 E12.79398
G1 X122.873 Y94.641 E12.81572
G1 X123.59 Y94.761 E12.83748
G1 X124.289 Y94.958 E12.85922
G1 X124.962 Y95.231 E12.88096
G1 X125.601 Y95.577 E12.90271
G1 X126.198 Y95.99 E12.92444
G1 X126.746 Y96.467 E12.94619
G1 X127.238 Y97.001 E12.96792
G1 X127.587 Y97.463 E12.98526
G1 X128.024 Y98.099 E13.00836
G1 X128.22 Y98.402 E13.01916
G1 X128.629 Y99.073 E13.04268
G1 X128.792 Y99.356 E13.05246
G1 X129.167 Y100.046 E13.07596
G1 X129.326 Y100.358 E13.08645
G1 X129.664 Y101.067 E13.10996
G1 X129.806 Y101.386 E13.12041
G1 X130.106 Y102.112 E13.14392
G1 X130.228 Y102.43 E13.15412
G1 X130.49 Y103.17 E13.17762
G1 X130.599 Y103.507 E13.18822
G1 X130.821 Y104.26 E13.21172
G1 X130.908 Y104.589 E13.22191
G1 X131.091 Y105.353 E13.24542
G1 X131.163 Y105.688 E13.25568
G1 X131.306 Y106.46 E13.27918
G1 X131.36 Y106.805 E13.28964
