;FLAVOR:Marlin
;TIME:3077
;Filament used: 1.29523m
;Layer height: 0.2
;MINX:76.129
;MINY:93.745
;MINZ:0.2
;MAXX:143.871
;MAXY:122.393
;MAXZ:29.2
;Generated with Cura_SteamEngine 4.10.0
M140 S70
M105
M190 S70
M104 S210
M105
M109 S210
M82 ;absolute extrusion mode
; Ender 3 Custom Start G-code
G92 E0 ; Reset Extruder
G28 ; Home all axes
G1 Z2.0 F3000 ; Move Z Axis up little to prevent scratching of Heat Bed
G1 X0.1 Y20 Z0.3 F5000.0 ; Move to start position
G1 X0.1 Y200.0 Z0.3 F1500.0 E15 ; Draw the first line
G1 X0.4 Y200.0 Z0.3 F5000.0 ; Move to side a little
G1 X0.4 Y20 Z0.3 F1500.0 E30 ; Draw the second line
G92 E0 ; Reset Extruder
G1 Z2.0 F3000 ; Move Z Axis up little to prevent scratching of Heat Bed
G1 X5 Y20 Z0.3 F5000.0 ; Move over to prevent blob squish
G92 E0
G92 E0
G1 F1500 E-6.5
;LAYER_COUNT:145
;LAYER:0
M107
G1 F300 Z0.4
G0 F9000 X79.151 Y101.991 Z0.4
;TYPE:SKIRT
G1 F300 Z0.2
G1 F1500 E0
G1 F1200 X79.799 Y101.54 E0.02363
G1 X80.49 Y101.156 E0.0473
G1 X81.215 Y100.844 E0.07092
G1 X81.968 Y100.607 E0.09455
G1 X82.742 Y100.448 E0.11821
G1 X83.527 Y100.367 E0.14183
G1 X83.961 Y100.357 E0.15482
G1 X84.201 Y100.358 E0.16201
G1 X84.99 Y100.401 E0.18566
G1 X85.77 Y100.524 E0.2093
G1 X86.534 Y100.725 E0.23295
G1 X87.273 Y101.002 E0.25657
G1 X87.418 Y101.074 E0.26142
G1 X87.625 Y100.959 E0.26851
G1 X88.35 Y100.647 E0.29213
G1 X89.103 Y100.41 E0.31576
G1 X89.877 Y100.251 E0.33942
G1 X90.678 Y100.17 E0.36351
G1 X90.959 Y100.156 E0.37194
G1 X91.375 Y100.13 E0.38441
G1 X91.865 Y100.086 E0.39914
G1 X92.447 Y100.051 E0.41659
G1 X92.724 Y100.026 E0.42492
G1 X96.173 Y99.77 E0.52845
G1 X96.524 Y99.726 E0.53903
G1 X97.537 Y99.621 E0.56952
G1 X98.456 Y99.535 E0.59715
G1 X98.757 Y99.52 E0.60617
G1 X99.503 Y99.433 E0.62865
G1 X100.025 Y99.396 E0.64432
G1 X101.491 Y99.206 E0.68857
G1 X102.78 Y99.014 E0.72758
G1 X103.097 Y98.973 E0.73715
G1 X103.76 Y98.902 E0.75711
G1 X104.472 Y98.862 E0.77845
G1 X106.08 Y98.576 E0.82734
G1 X106.385 Y98.528 E0.83659
G1 X109.327 Y98.124 E0.92548
G1 X109.41 Y98.095 E0.92811
G1 X110.179 Y97.914 E0.95176
G1 X110.36 Y97.886 E0.95724
G1 X110.932 Y97.779 E0.97466
G1 X111.714 Y97.673 E0.99828
G1 X112.503 Y97.647 E1.02191
G1 X113.291 Y97.701 E1.04556
G1 X114.07 Y97.834 E1.06921
G1 X114.831 Y98.045 E1.09285
G1 X115.566 Y98.332 E1.11647
G1 X115.892 Y98.499 E1.12744
G1 X116.057 Y98.286 E1.1355
G1 X116.6 Y97.713 E1.15913
G1 X117.199 Y97.198 E1.18278
G1 X117.847 Y96.747 E1.20641
G1 X118.538 Y96.363 E1.23008
G1 X119.263 Y96.051 E1.2537
G1 X120.062 Y95.803 E1.27875
G1 X120.85 Y95.603 E1.30308
G1 X121.861 Y95.341 E1.33434
G1 X121.994 Y95.298 E1.33853
G1 X123.054 Y94.983 E1.37163
G1 X123.261 Y94.915 E1.37815
G1 X123.781 Y94.764 E1.39436
G1 X124.04 Y94.698 E1.40236
G1 X124.303 Y94.645 E1.41039
G1 X124.411 Y94.614 E1.41376
G1 X126.83 Y94.007 E1.48841
G1 X127.604 Y93.853 E1.51203
G1 X128.39 Y93.779 E1.53567
G1 X128.561 Y93.764 E1.54081
G1 X129.101 Y93.745 E1.55698
G1 X133.653 Y93.745 E1.69324
G1 X134.312 Y93.778 E1.71299
G1 X134.521 Y93.793 E1.71926
G1 X134.912 Y93.834 E1.73103
G1 X135.116 Y93.861 E1.73719
G1 X135.475 Y93.917 E1.74807
G1 X135.686 Y93.955 E1.75449
G1 X136.169 Y94.058 E1.76927
G1 X136.368 Y94.107 E1.7754
G1 X136.748 Y94.211 E1.7872
G1 X136.951 Y94.272 E1.79354
G1 X137.263 Y94.373 E1.80336
G1 X137.459 Y94.441 E1.80957
G1 X137.912 Y94.614 E1.82408
G1 X138.108 Y94.696 E1.83044
G1 X138.479 Y94.863 E1.84262
G1 X138.664 Y94.952 E1.84877
G1 X138.974 Y95.11 E1.85918
G1 X139.162 Y95.211 E1.86557
G1 X139.534 Y95.424 E1.8784
G1 X139.711 Y95.532 E1.88461
G1 X140.101 Y95.786 E1.89854
G1 X140.275 Y95.907 E1.90489
G1 X140.556 Y96.112 E1.9153
G1 X140.721 Y96.238 E1.92151
G1 X141.063 Y96.515 E1.93469
G1 X141.147 Y96.587 E1.938
G1 X141.72 Y97.13 E1.96163
G1 X142.235 Y97.729 E1.98528
G1 X142.687 Y98.377 E2.00893
G1 X143.07 Y99.067 E2.03255
G1 X143.383 Y99.792 E2.05619
G1 X143.62 Y100.546 E2.07985
G1 X143.78 Y101.319 E2.10348
G1 X143.861 Y102.104 E2.1271
G1 X143.871 Y102.509 E2.13923
G1 X143.871 Y103.545 E2.17024
G1 X143.831 Y104.334 E2.19389
G1 X143.712 Y105.114 E2.21751
G1 X143.604 Y105.531 E2.2304
G1 X143.621 Y105.584 E2.23207
G1 X143.78 Y106.358 E2.25572
G1 X143.861 Y107.143 E2.27934
G1 X143.871 Y107.553 E2.29162
G1 X143.87 Y108.589 E2.32263
G1 X143.829 Y109.377 E2.34625
G1 X143.709 Y110.158 E2.3699
G1 X143.51 Y110.922 E2.39354
G1 X143.236 Y111.662 E2.41716
G1 X142.887 Y112.371 E2.44081
G1 X142.469 Y113.041 E2.46445
G1 X141.985 Y113.665 E2.48809
G1 X141.163 Y114.489 E2.52293
G1 X141.076 Y114.564 E2.52637
G1 X140.705 Y114.865 E2.54067
G1 X140.538 Y114.992 E2.54695
G1 X140.262 Y115.192 E2.55715
G1 X140.089 Y115.312 E2.56346
G1 X139.689 Y115.572 E2.57774
G1 X139.511 Y115.68 E2.58397
G1 X139.161 Y115.88 E2.59604
G1 X138.977 Y115.979 E2.60229
G1 X138.634 Y116.152 E2.61379
G1 X138.445 Y116.242 E2.62006
G1 X138.079 Y116.406 E2.63206
G1 X137.886 Y116.486 E2.63831
G1 X137.489 Y116.637 E2.65103
G1 X137.293 Y116.706 E2.65725
G1 X136.928 Y116.825 E2.66874
G1 X136.723 Y116.886 E2.67514
G1 X136.301 Y116.999 E2.68822
G1 X136.099 Y117.047 E2.69444
G1 X135.718 Y117.127 E2.70609
G1 X135.513 Y117.165 E2.71233
G1 X135.105 Y117.23 E2.7247
G1 X134.899 Y117.257 E2.73092
G1 X134.522 Y117.297 E2.74227
G1 X134.29 Y117.316 E2.74923
G1 X133.655 Y117.342 E2.76826
G1 X124.794 Y117.345 E3.0335
G1 X123.877 Y117.575 E3.0618
G1 X123.103 Y117.728 E3.08542
G1 X122.317 Y117.803 E3.10906
G1 X121.527 Y117.797 E3.1327
G1 X120.742 Y117.712 E3.15634
G1 X119.969 Y117.547 E3.18
G1 X119.218 Y117.306 E3.20361
G1 X118.494 Y116.989 E3.22727
G1 X118.453 Y116.966 E3.22868
G1 X118.289 Y117.178 E3.2367
G1 X117.745 Y117.751 E3.26035
G1 X117.147 Y118.266 E3.28397
G1 X116.499 Y118.717 E3.30761
G1 X115.809 Y119.101 E3.33124
G1 X115.083 Y119.413 E3.3549
G1 X114.33 Y119.65 E3.37853
G1 X113.781 Y119.772 E3.39536
G1 X112.179 Y120.067 E3.44412
G1 X111.928 Y120.109 E3.45174
G1 X107.155 Y120.828 E3.59623
G1 X106.834 Y120.87 E3.60592
G1 X106.675 Y120.887 E3.61071
G1 X104.844 Y121.156 E3.66611
G1 X104.577 Y121.191 E3.67417
G1 X102.025 Y121.476 E3.75103
G1 X97.303 Y121.923 E3.89301
G1 X96.906 Y121.951 E3.90493
G1 X96.803 Y121.955 E3.90801
G1 X94.566 Y122.113 E3.97514
G1 X94.364 Y122.124 E3.9812
G1 X92.416 Y122.21 E4.03957
G1 X91.309 Y122.245 E4.07272
G1 X90.52 Y122.23 E4.09634
G1 X89.736 Y122.135 E4.11998
G1 X88.966 Y121.962 E4.14361
G1 X88.217 Y121.711 E4.16725
G1 X87.765 Y121.507 E4.1821
G1 X87.609 Y121.594 E4.18744
G1 X86.884 Y121.906 E4.21107
G1 X86.131 Y122.143 E4.2347
G1 X85.357 Y122.302 E4.25835
G1 X84.572 Y122.383 E4.28198
G1 X84.17 Y122.393 E4.29401
G1 X83.929 Y122.393 E4.30123
G1 X83.14 Y122.353 E4.32488
G1 X82.36 Y122.234 E4.34849
G1 X81.595 Y122.036 E4.37215
G1 X80.855 Y121.762 E4.39577
G1 X80.146 Y121.414 E4.41941
G1 X79.475 Y120.996 E4.44308
G1 X78.851 Y120.513 E4.4667
G1 X78.278 Y119.97 E4.49033
G1 X77.763 Y119.371 E4.51397
G1 X77.312 Y118.723 E4.53761
G1 X76.928 Y118.032 E4.56127
G1 X76.616 Y117.307 E4.5849
G1 X76.379 Y116.554 E4.60853
G1 X76.22 Y115.78 E4.63218
G1 X76.139 Y114.995 E4.6558
G1 X76.129 Y114.593 E4.66784
G1 X76.129 Y108.157 E4.8605
G1 X76.169 Y107.368 E4.88415
G1 X76.288 Y106.588 E4.90776
G1 X76.486 Y105.823 E4.93142
G1 X76.76 Y105.083 E4.95504
G1 X77.108 Y104.374 E4.97868
G1 X77.526 Y103.703 E5.00235
G1 X78.009 Y103.079 E5.02597
G1 X78.552 Y102.506 E5.0496
G1 X79.151 Y101.991 E5.07324
G0 F9000 X79.54 Y102.199
G1 F1200 X80.182 Y101.776 E5.09626
G1 X80.865 Y101.421 E5.1193
G1 X81.58 Y101.14 E5.1423
G1 X82.322 Y100.934 E5.16535
G1 X83.08 Y100.806 E5.18836
G1 X83.96 Y100.757 E5.21474
G1 X84.2 Y100.758 E5.22193
G1 X84.968 Y100.801 E5.24495
G1 X85.727 Y100.924 E5.26797
G1 X86.47 Y101.125 E5.29101
G1 X87.187 Y101.401 E5.31401
G1 X87.425 Y101.523 E5.32201
G1 X88 Y101.224 E5.34141
G1 X88.715 Y100.943 E5.36441
G1 X89.457 Y100.737 E5.38746
G1 X90.215 Y100.609 E5.41047
G1 X90.698 Y100.569 E5.42498
G1 X91.004 Y100.554 E5.43415
G1 X91.427 Y100.528 E5.44684
G1 X91.475 Y100.522 E5.44828
G1 X91.889 Y100.485 E5.46073
G1 X92.486 Y100.449 E5.47863
G1 X92.754 Y100.425 E5.48668
G1 X96.211 Y100.168 E5.59045
G1 X96.565 Y100.124 E5.60113
G1 X97.575 Y100.019 E5.63153
G1 X98.494 Y99.933 E5.65915
G1 X98.792 Y99.918 E5.66809
G1 X99.549 Y99.83 E5.6909
G1 X100.076 Y99.793 E5.70671
G1 X101.552 Y99.601 E5.75127
G1 X102.839 Y99.41 E5.79022
G1 X103.14 Y99.371 E5.7993
G1 X103.803 Y99.3 E5.81926
G1 X104.516 Y99.261 E5.84064
G1 X106.15 Y98.97 E5.89032
G1 X106.44 Y98.924 E5.89911
G1 X109.424 Y98.514 E5.98927
G1 X109.54 Y98.474 E5.99294
G1 X110.318 Y98.314 E6.01672
G1 X110.316 Y98.301 E6.01711
G1 X111.005 Y98.172 E6.0381
G1 X111.768 Y98.07 E6.06114
G1 X112.536 Y98.048 E6.08414
G1 X113.303 Y98.105 E6.10716
G1 X114.06 Y98.242 E6.13019
G1 X114.799 Y98.457 E6.15323
G1 X115.511 Y98.747 E6.17624
G1 X115.998 Y99.007 E6.19277
G1 X116.452 Y98.441 E6.21449
G1 X116.993 Y97.894 E6.23751
G1 X117.588 Y97.406 E6.26055
G1 X118.23 Y96.983 E6.28356
G1 X118.913 Y96.628 E6.30661
G1 X119.628 Y96.347 E6.3296
G1 X120.16 Y96.191 E6.3462
G1 X120.967 Y95.987 E6.37111
G1 X121.96 Y95.729 E6.40183
G1 X122.108 Y95.682 E6.40647
G1 X123.162 Y95.369 E6.43939
G1 X123.386 Y95.295 E6.44645
G1 X123.88 Y95.151 E6.46185
G1 X124.139 Y95.085 E6.46985
G1 X124.402 Y95.032 E6.47788
G1 X124.508 Y95.002 E6.48118
G1 X126.927 Y94.395 E6.55584
G1 X127.682 Y94.246 E6.57887
G1 X128.448 Y94.177 E6.60189
G1 X128.628 Y94.16 E6.60731
G1 X129.101 Y94.145 E6.62147
G1 X133.653 Y94.145 E6.75773
G1 X134.28 Y94.178 E6.77653
G1 X134.489 Y94.191 E6.7828
G1 X134.86 Y94.231 E6.79397
G1 X135.064 Y94.258 E6.80013
G1 X135.405 Y94.311 E6.81046
G1 X135.616 Y94.349 E6.81687
G1 X136.073 Y94.447 E6.83086
G1 X136.272 Y94.496 E6.837
G1 X136.633 Y94.594 E6.8482
G1 X136.836 Y94.655 E6.85454
G1 X137.132 Y94.751 E6.86386
G1 X137.328 Y94.819 E6.87007
G1 X137.758 Y94.983 E6.88384
G1 X137.954 Y95.065 E6.8902
G1 X138.306 Y95.224 E6.90176
G1 X138.491 Y95.313 E6.90791
G1 X138.785 Y95.462 E6.91778
G1 X138.973 Y95.563 E6.92416
G1 X139.325 Y95.765 E6.93631
G1 X139.502 Y95.873 E6.94252
G1 X139.873 Y96.115 E6.95578
G1 X140.047 Y96.236 E6.96212
G1 X140.313 Y96.43 E6.97198
G1 X140.478 Y96.556 E6.97819
G1 X140.803 Y96.819 E6.99071
G1 X140.887 Y96.891 E6.99402
G1 X141.444 Y97.421 E7.01703
G1 X141.943 Y98.006 E7.04005
G1 X142.379 Y98.64 E7.06308
G1 X142.746 Y99.315 E7.08608
G1 X143.042 Y100.026 E7.10914
G1 X143.262 Y100.763 E7.13216
G1 X143.404 Y101.518 E7.15516
G1 X143.471 Y102.509 E7.18489
G1 X143.471 Y103.545 E7.2159
G1 X143.431 Y104.313 E7.23892
G1 X143.312 Y105.073 E7.26195
G1 X143.186 Y105.547 E7.27663
G1 X143.294 Y105.938 E7.28877
G1 X143.422 Y106.696 E7.31178
G1 X143.471 Y107.552 E7.33745
G1 X143.47 Y108.588 E7.36846
G1 X143.429 Y109.356 E7.39148
G1 X143.309 Y110.116 E7.41452
G1 X143.111 Y110.859 E7.43753
G1 X142.836 Y111.578 E7.46058
G1 X142.489 Y112.264 E7.48359
G1 X142.072 Y112.91 E7.5066
G1 X141.59 Y113.51 E7.52964
G1 X140.902 Y114.186 E7.55851
G1 X140.815 Y114.261 E7.56195
G1 X140.462 Y114.546 E7.57553
G1 X140.295 Y114.673 E7.58181
G1 X140.034 Y114.863 E7.59148
G1 X139.861 Y114.983 E7.59778
G1 X139.482 Y115.23 E7.61132
G1 X139.304 Y115.338 E7.61755
G1 X138.971 Y115.528 E7.62903
G1 X138.787 Y115.627 E7.63529
G1 X138.463 Y115.791 E7.64616
G1 X138.274 Y115.881 E7.65242
G1 X137.926 Y116.036 E7.66383
G1 X137.733 Y116.116 E7.67008
G1 X137.356 Y116.26 E7.68216
G1 X137.16 Y116.329 E7.68838
G1 X136.813 Y116.442 E7.6993
G1 X136.608 Y116.503 E7.70571
G1 X136.209 Y116.61 E7.71807
G1 X136.007 Y116.658 E7.72429
G1 X135.645 Y116.734 E7.73536
G1 X135.44 Y116.772 E7.7416
G1 X135.053 Y116.833 E7.75333
G1 X134.847 Y116.86 E7.75955
G1 X134.489 Y116.898 E7.77032
G1 X134.257 Y116.917 E7.77729
G1 X133.655 Y116.942 E7.79533
G1 X124.744 Y116.945 E8.06207
G1 X123.78 Y117.187 E8.09182
G1 X123.025 Y117.335 E8.11485
G1 X122.259 Y117.405 E8.13788
G1 X121.49 Y117.394 E8.1609
G1 X120.726 Y117.304 E8.18393
G1 X119.976 Y117.134 E8.20695
G1 X119.247 Y116.888 E8.22998
G1 X118.548 Y116.568 E8.25299
G1 X118.351 Y116.451 E8.25985
G1 X117.893 Y117.023 E8.28178
G1 X117.353 Y117.57 E8.30479
G1 X116.758 Y118.058 E8.32783
G1 X116.116 Y118.482 E8.35086
G1 X115.433 Y118.836 E8.37389
G1 X114.718 Y119.118 E8.39689
G1 X113.708 Y119.379 E8.42812
G1 X112.106 Y119.674 E8.47688
G1 X111.868 Y119.713 E8.4841
G1 X107.095 Y120.432 E8.62859
G1 X106.79 Y120.472 E8.6378
G1 X106.655 Y120.487 E8.64186
G1 X104.786 Y120.761 E8.69841
G1 X104.532 Y120.793 E8.70607
G1 X101.856 Y121.091 E8.78667
G1 X97.266 Y121.525 E8.92468
G1 X96.889 Y121.551 E8.93599
G1 X96.795 Y121.555 E8.93881
G1 X94.538 Y121.714 E9.00654
G1 X94.346 Y121.725 E9.01229
G1 X92.404 Y121.81 E9.07048
G1 X91.297 Y121.845 E9.10364
G1 X90.528 Y121.83 E9.12666
G1 X89.765 Y121.734 E9.14968
G1 X89.015 Y121.56 E9.17273
G1 X88.288 Y121.309 E9.19575
G1 X87.753 Y121.059 E9.21343
G1 X87.234 Y121.329 E9.23094
G1 X86.519 Y121.61 E9.25393
G1 X85.777 Y121.816 E9.27699
G1 X85.019 Y121.944 E9.3
G1 X84.17 Y121.993 E9.32545
G1 X83.929 Y121.993 E9.33267
G1 X83.161 Y121.953 E9.35569
G1 X82.401 Y121.834 E9.37871
G1 X81.658 Y121.636 E9.40173
G1 X80.939 Y121.362 E9.42476
G1 X80.253 Y121.015 E9.44778
G1 X79.606 Y120.599 E9.4708
G1 X79.006 Y120.118 E9.49382
G1 X78.459 Y119.577 E9.51685
G1 X77.971 Y118.982 E9.53989
G1 X77.548 Y118.34 E9.5629
G1 X77.193 Y117.657 E9.58594
G1 X76.912 Y116.942 E9.60894
G1 X76.706 Y116.2 E9.63199
G1 X76.578 Y115.442 E9.655
G1 X76.529 Y114.593 E9.68046
G1 X76.529 Y108.157 E9.87311
G1 X76.569 Y107.389 E9.89613
G1 X76.688 Y106.629 E9.91916
G1 X76.886 Y105.886 E9.94218
G1 X77.16 Y105.167 E9.96521
G1 X77.507 Y104.481 E9.98822
G1 X77.923 Y103.834 E10.01125
G1 X78.404 Y103.234 E10.03427
G1 X78.945 Y102.687 E10.0573
G1 X79.54 Y102.199 E10.08033
G0 F9000 X79.927 Y102.414
G1 F1200 X80.563 Y102.019 E10.10274
G1 X81.237 Y101.695 E10.12513
G1 X81.942 Y101.445 E10.14752
G1 X82.67 Y101.271 E10.16993
G1 X83.412 Y101.176 E10.19232
G1 X83.958 Y101.157 E10.20867
G1 X84.198 Y101.158 E10.21586
G1 X84.945 Y101.201 E10.23825
G1 X85.683 Y101.324 E10.26065
G1 X86.404 Y101.524 E10.28305
G1 X87.099 Y101.801 E10.30544
G1 X87.441 Y101.982 E10.31703
G1 X87.698 Y101.822 E10.32609
G1 X88.372 Y101.498 E10.34847
G1 X89.077 Y101.248 E10.37087
G1 X89.805 Y101.074 E10.39327
G1 X90.717 Y100.969 E10.42075
G1 X90.994 Y100.955 E10.42905
G1 X91.46 Y100.926 E10.44303
G1 X91.913 Y100.884 E10.45665
G1 X92.525 Y100.847 E10.475
G1 X92.783 Y100.824 E10.48276
G1 X96.249 Y100.566 E10.58679
G1 X96.607 Y100.521 E10.59759
G1 X97.612 Y100.417 E10.62784
G1 X98.531 Y100.331 E10.65547
G1 X98.828 Y100.317 E10.66437
G1 X99.595 Y100.227 E10.68749
G1 X100.113 Y100.191 E10.70303
G1 X101.606 Y99.997 E10.7481
G1 X102.898 Y99.805 E10.7872
G1 X103.183 Y99.769 E10.7958
G1 X103.846 Y99.698 E10.81576
G1 X104.551 Y99.66 E10.83689
G1 X106.22 Y99.363 E10.88763
G1 X106.494 Y99.32 E10.89594
G1 X109.52 Y98.904 E10.98737
G1 X109.67 Y98.853 E10.99211
G1 X110.392 Y98.705 E11.01417
G1 X110.39 Y98.695 E11.01448
G1 X111.079 Y98.566 E11.03546
G1 X111.82 Y98.467 E11.05784
G1 X112.568 Y98.449 E11.08024
G1 X113.314 Y98.51 E11.10264
G1 X114.048 Y98.651 E11.12502
G1 X114.764 Y98.869 E11.14742
G1 X115.452 Y99.163 E11.16982
G1 X116.105 Y99.528 E11.19221
G1 X116.125 Y99.542 E11.19294
G1 X116.369 Y99.175 E11.20613
G1 X116.848 Y98.601 E11.22851
G1 X117.385 Y98.08 E11.25091
G1 X117.975 Y97.621 E11.27329
G1 X118.611 Y97.226 E11.2957
G1 X119.285 Y96.902 E11.31808
G1 X120.258 Y96.578 E11.34878
G1 X121.091 Y96.368 E11.3745
G1 X122.064 Y96.115 E11.40459
G1 X122.222 Y96.065 E11.40955
G1 X123.3 Y95.745 E11.44321
G1 X123.512 Y95.675 E11.44989
G1 X123.978 Y95.539 E11.46443
G1 X124.237 Y95.473 E11.47243
