;FLAVOR:Marlin
;TIME:480
;Filament used: 0.144094m
;Layer height: 0.2
;MINX:94.187
;MINY:92.08
;MINZ:0.2
;MAXX:125.826
;MAXY:127.933
;MAXZ:8
;Generated with Cura_SteamEngine 4.10.0
M140 S70
M105
M190 S70
M104 S210
M105
M109 S210
M82 ;absolute extrusion mode
; Ender 3 Custom Start G-code
G92 E0 ; Reset Extruder
G28 ; Home all axes
G1 Z2.0 F3000 ; Move Z Axis up little to prevent scratching of Heat Bed
G1 X0.1 Y20 Z0.3 F5000.0 ; Move to start position
G1 X0.1 Y200.0 Z0.3 F1500.0 E15 ; Draw the first line
G1 X0.4 Y200.0 Z0.3 F5000.0 ; Move to side a little
G1 X0.4 Y20 Z0.3 F1500.0 E30 ; Draw the second line
G92 E0 ; Reset Extruder
G1 Z2.0 F3000 ; Move Z Axis up little to prevent scratching of Heat Bed
G1 X5 Y20 Z0.3 F5000.0 ; Move over to prevent blob squish
G92 E0
G92 E0
G1 F1500 E-6.5
;LAYER_COUNT:40
;LAYER:0
M107
G1 F300 Z0.4
G0 F9000 X98.627 Y103.02 Z0.4
;TYPE:SKIRT
G1 F300 Z0.2
G1 F1500 E0
G1 F1200 X99.135 Y102.546 E0.0208
G1 X99.504 Y102.223 E0.03548
G1 X99.666 Y102.084 E0.04187
G1 X101.214 Y100.782 E0.10242
G1 X103.093 Y99.107 E0.17777
G1 X104.927 Y97.378 E0.25322
G1 X105.932 Y96.388 E0.29544
G1 X106.687 Y95.635 E0.32736
G1 X107.152 Y95.184 E0.34675
G1 X107.852 Y94.56 E0.37483
G1 X108.603 Y93.998 E0.4029
G1 X109.399 Y93.503 E0.43096
G1 X110.235 Y93.077 E0.45905
G1 X111.103 Y92.723 E0.48711
G1 X111.999 Y92.445 E0.51519
G1 X112.915 Y92.244 E0.54326
G1 X113.845 Y92.122 E0.57134
G1 X114.782 Y92.08 E0.59942
G1 X115.719 Y92.118 E0.62749
G1 X116.65 Y92.235 E0.65558
G1 X117.567 Y92.431 E0.68365
G1 X118.464 Y92.705 E0.71172
G1 X119.334 Y93.054 E0.73978
G1 X120.172 Y93.475 E0.76785
G1 X120.971 Y93.967 E0.79594
G1 X121.725 Y94.525 E0.82402
G1 X122.428 Y95.145 E0.85208
G1 X123.076 Y95.823 E0.88015
G1 X123.665 Y96.553 E0.90823
G1 X124.188 Y97.331 E0.93629
G1 X124.644 Y98.151 E0.96438
G1 X125.028 Y99.007 E0.99246
G1 X125.338 Y99.892 E1.02053
G1 X125.571 Y100.8 E1.04859
G1 X125.726 Y101.725 E1.07667
G1 X125.808 Y102.882 E1.11139
G1 X125.826 Y103.968 E1.1439
G1 X125.825 Y105.734 E1.19677
G1 X125.82 Y106.071 E1.20686
G1 X125.826 Y108.787 E1.28816
G1 X125.825 Y110.951 E1.35293
G1 X125.815 Y111.683 E1.37485
G1 X125.762 Y112.62 E1.40294
G1 X125.63 Y113.548 E1.431
G1 X125.419 Y114.462 E1.45908
G1 X125.131 Y115.355 E1.48717
G1 X124.768 Y116.219 E1.51522
G1 X124.332 Y117.05 E1.54331
G1 X123.828 Y117.841 E1.57139
G1 X123.089 Y118.772 E1.60697
G1 X123.093 Y118.775 E1.60712
G1 X121.338 Y120.829 E1.68799
G1 X119.956 Y122.537 E1.75376
G1 X119.496 Y123.07 E1.77483
G1 X119.298 Y123.285 E1.78358
G1 X118.985 Y123.611 E1.79711
G1 X118.808 Y123.788 E1.8046
G1 X118.27 Y124.291 E1.82665
G1 X118.079 Y124.458 E1.83424
G1 X117.331 Y125.057 E1.86293
G1 X117.186 Y125.163 E1.86831
G1 X116.587 Y125.571 E1.89
G1 X116.215 Y125.807 E1.90319
G1 X115.201 Y126.378 E1.93802
G1 X115.104 Y126.426 E1.94126
G1 X114.702 Y126.615 E1.95456
G1 X114.417 Y126.742 E1.9639
G1 X113.766 Y127.007 E1.98494
G1 X113.642 Y127.053 E1.9889
G1 X113.014 Y127.265 E2.00874
G1 X112.675 Y127.368 E2.01934
G1 X111.832 Y127.588 E2.04542
G1 X111.686 Y127.62 E2.0499
G1 X110.511 Y127.812 E2.08554
G1 X109.964 Y127.871 E2.10201
G1 X108.637 Y127.933 E2.14177
G1 X108.263 Y127.928 E2.15297
G1 X107.327 Y127.876 E2.18103
G1 X105.99 Y127.659 E2.22158
G1 X105.857 Y127.629 E2.22566
G1 X104.951 Y127.384 E2.25375
G1 X104.07 Y127.063 E2.28182
G1 X103.22 Y126.668 E2.30988
G1 X102.406 Y126.201 E2.33797
G1 X101.635 Y125.667 E2.36604
G1 X100.912 Y125.07 E2.39411
G1 X100.515 Y124.693 E2.4105
G1 X99.928 Y124.107 E2.43533
G1 X99.001 Y123.158 E2.47504
G1 X98.49 Y122.663 E2.49633
G1 X97.48 Y121.667 E2.5388
G1 X96.841 Y120.981 E2.56686
G1 X96.263 Y120.243 E2.59492
G1 X95.75 Y119.458 E2.62299
G1 X95.305 Y118.632 E2.65108
G1 X94.932 Y117.771 E2.67916
G1 X94.634 Y116.882 E2.70723
G1 X94.413 Y115.97 E2.73532
G1 X94.271 Y115.05 E2.76319
G1 X94.259 Y114.942 E2.76644
G1 X94.194 Y113.919 E2.79712
G1 X94.187 Y113.518 E2.80913
G1 X94.215 Y112.509 E2.83934
G1 X94.238 Y112.2 E2.84862
G1 X94.348 Y111.268 E2.87671
G1 X94.386 Y111.032 E2.88387
G1 X94.546 Y110.229 E2.90838
G1 X94.608 Y109.969 E2.91638
G1 X94.803 Y109.259 E2.93842
G1 X94.871 Y109.04 E2.94528
G1 X95.211 Y108.099 E2.97523
G1 X95.34 Y107.787 E2.98534
G1 X95.768 Y106.872 E3.01558
G1 X95.963 Y106.501 E3.02812
G1 X96.577 Y105.473 E3.06397
G1 X96.736 Y105.237 E3.07248
G1 X97.425 Y104.321 E3.10679
G1 X97.636 Y104.069 E3.11663
G1 X98.317 Y103.328 E3.14676
G1 X98.627 Y103.02 E3.15984
G0 F9000 X98.909 Y103.303
G1 F1200 X99.398 Y102.847 E3.17985
G1 X99.767 Y102.524 E3.19453
G1 X101.454 Y101.103 E3.26056
G1 X103.37 Y99.396 E3.33737
G1 X105.222 Y97.649 E3.41359
G1 X106.213 Y96.673 E3.45522
G1 X106.965 Y95.922 E3.48703
G1 X107.43 Y95.471 E3.50643
G1 X108.118 Y94.859 E3.53399
G1 X108.857 Y94.31 E3.56155
G1 X109.64 Y93.826 E3.5891
G1 X110.463 Y93.412 E3.61668
G1 X111.318 Y93.072 E3.64422
G1 X112.2 Y92.806 E3.6718
G1 X113.101 Y92.619 E3.69934
G1 X114.015 Y92.51 E3.7269
G1 X114.935 Y92.481 E3.75445
G1 X115.854 Y92.532 E3.782
G1 X116.766 Y92.662 E3.80958
G1 X117.662 Y92.871 E3.83712
G1 X118.538 Y93.157 E3.8647
G1 X119.385 Y93.518 E3.89226
G1 X120.197 Y93.951 E3.91981
G1 X120.969 Y94.453 E3.94738
G1 X121.694 Y95.02 E3.97493
G1 X122.368 Y95.648 E4.0025
G1 X122.984 Y96.331 E4.03004
G1 X123.539 Y97.066 E4.05761
G1 X124.028 Y97.846 E4.08516
G1 X124.447 Y98.666 E4.11273
G1 X124.794 Y99.519 E4.14029
G1 X125.065 Y100.398 E4.16783
G1 X125.259 Y101.298 E4.19539
G1 X125.374 Y102.212 E4.22296
G1 X125.408 Y102.889 E4.24325
G1 X125.426 Y103.968 E4.27556
G1 X125.425 Y105.728 E4.32824
G1 X125.42 Y106.065 E4.33833
G1 X125.426 Y108.787 E4.41981
G1 X125.425 Y110.946 E4.48444
G1 X125.415 Y111.678 E4.50635
G1 X125.362 Y112.597 E4.53391
G1 X125.23 Y113.508 E4.56146
G1 X125.02 Y114.404 E4.58901
G1 X124.732 Y115.279 E4.61658
G1 X124.37 Y116.125 E4.64413
G1 X123.935 Y116.937 E4.6717
G1 X123.432 Y117.708 E4.69926
G1 X122.786 Y118.512 E4.73013
G1 X121.039 Y120.563 E4.81078
G1 X119.645 Y122.286 E4.87712
G1 X119.202 Y122.799 E4.89741
G1 X119.004 Y123.014 E4.90616
G1 X118.702 Y123.328 E4.9192
G1 X118.525 Y123.505 E4.9267
G1 X118.007 Y123.99 E4.94794
G1 X117.816 Y124.157 E4.95553
G1 X117.095 Y124.734 E4.98318
G1 X116.95 Y124.84 E4.98855
G1 X116.372 Y125.234 E5.00949
G1 X116 Y125.47 E5.02268
G1 X115.023 Y126.019 E5.05623
G1 X114.926 Y126.067 E5.05947
G1 X114.54 Y126.249 E5.07224
G1 X114.255 Y126.376 E5.08158
G1 X113.627 Y126.632 E5.10188
G1 X113.503 Y126.678 E5.10584
G1 X112.898 Y126.882 E5.12495
G1 X112.559 Y126.985 E5.13556
G1 X111.746 Y127.197 E5.16071
G1 X111.6 Y127.229 E5.16518
G1 X110.468 Y127.414 E5.19952
G1 X109.921 Y127.473 E5.21599
G1 X108.642 Y127.533 E5.25431
G1 X108.268 Y127.528 E5.26551
G1 X107.349 Y127.476 E5.29306
G1 X106.078 Y127.269 E5.33161
G1 X105.945 Y127.239 E5.33569
G1 X105.056 Y126.998 E5.36326
G1 X104.192 Y126.68 E5.39082
G1 X103.359 Y126.289 E5.41837
G1 X102.562 Y125.827 E5.44595
G1 X101.809 Y125.297 E5.47351
G1 X100.797 Y124.41 E5.51379
G1 X100.214 Y123.828 E5.53845
G1 X99.283 Y122.874 E5.57835
G1 X98.771 Y122.378 E5.59969
G1 X97.761 Y121.382 E5.64215
G1 X97.134 Y120.708 E5.66971
G1 X96.568 Y119.982 E5.69726
G1 X96.068 Y119.209 E5.72482
G1 X95.636 Y118.396 E5.75238
G1 X95.276 Y117.549 E5.77993
G1 X94.991 Y116.673 E5.80751
G1 X94.783 Y115.777 E5.83504
G1 X94.669 Y115.006 E5.85837
G1 X94.657 Y114.898 E5.86162
G1 X94.594 Y113.912 E5.8912
G1 X94.587 Y113.511 E5.9032
G1 X94.614 Y112.539 E5.93231
G1 X94.637 Y112.23 E5.94159
G1 X94.743 Y111.332 E5.96865
G1 X94.781 Y111.096 E5.97581
G1 X94.935 Y110.322 E5.99943
G1 X94.997 Y110.062 E6.00743
G1 X95.185 Y109.378 E6.02867
G1 X95.253 Y109.159 E6.03553
G1 X95.58 Y108.252 E6.06439
G1 X95.709 Y107.94 E6.0745
G1 X96.122 Y107.058 E6.10365
G1 X96.317 Y106.687 E6.1162
G1 X96.909 Y105.696 E6.15075
G1 X97.068 Y105.46 E6.15927
G1 X97.732 Y104.578 E6.19232
G1 X97.943 Y104.326 E6.20216
G1 X98.599 Y103.611 E6.2312
G1 X98.909 Y103.303 E6.24428
G0 F9000 X99.191 Y103.587
G1 F1200 X99.662 Y103.148 E6.26356
G1 X100.181 Y102.696 E6.28416
G1 X101.731 Y101.391 E6.34481
G1 X103.645 Y99.687 E6.42152
G1 X105.495 Y97.942 E6.49765
G1 X106.494 Y96.958 E6.53962
G1 X107.244 Y96.209 E6.57135
G1 X107.709 Y95.758 E6.59074
G1 X108.384 Y95.159 E6.61776
G1 X109.11 Y94.621 E6.64481
G1 X109.88 Y94.15 E6.67183
G1 X110.69 Y93.749 E6.69888
G1 X111.531 Y93.421 E6.7259
G1 X112.398 Y93.169 E6.75293
G1 X113.284 Y92.995 E6.77996
G1 X114.182 Y92.899 E6.80699
G1 X115.085 Y92.884 E6.83403
G1 X115.986 Y92.948 E6.86106
G1 X116.878 Y93.092 E6.88811
G1 X117.753 Y93.314 E6.91513
G1 X118.605 Y93.612 E6.94215
G1 X119.428 Y93.985 E6.9692
G1 X120.214 Y94.429 E6.99622
G1 X120.958 Y94.941 E7.02326
G1 X121.654 Y95.517 E7.0503
G1 X122.296 Y96.152 E7.07733
G1 X122.88 Y96.841 E7.10437
G1 X123.4 Y97.58 E7.13142
G1 X123.853 Y98.361 E7.15844
G1 X124.235 Y99.179 E7.18547
G1 X124.543 Y100.028 E7.2125
G1 X124.775 Y100.901 E7.23954
G1 X124.928 Y101.791 E7.26657
G1 X125.008 Y102.896 E7.29974
G1 X125.026 Y103.968 E7.33183
G1 X125.025 Y105.722 E7.38434
G1 X125.02 Y106.06 E7.39446
G1 X125.026 Y108.788 E7.47612
G1 X125.025 Y110.94 E7.54053
G1 X125.015 Y111.672 E7.56245
G1 X124.963 Y112.574 E7.58949
G1 X124.831 Y113.467 E7.61651
G1 X124.621 Y114.346 E7.64357
G1 X124.333 Y115.202 E7.6706
G1 X123.972 Y116.029 E7.69761
G1 X123.538 Y116.821 E7.72465
G1 X123.036 Y117.572 E7.75169
G1 X122.483 Y118.253 E7.77795
G1 X120.725 Y120.315 E7.85906
G1 X119.334 Y122.034 E7.92525
G1 X118.908 Y122.528 E7.94478
G1 X118.71 Y122.743 E7.95353
G1 X118.419 Y123.045 E7.96608
G1 X118.242 Y123.222 E7.97358
G1 X117.744 Y123.689 E7.99401
G1 X117.553 Y123.856 E8.00161
G1 X116.859 Y124.411 E8.02821
G1 X116.714 Y124.517 E8.03358
G1 X116.158 Y124.896 E8.05373
G1 X115.786 Y125.132 E8.06691
G1 X114.846 Y125.661 E8.0992
G1 X114.749 Y125.709 E8.10244
G1 X114.377 Y125.884 E8.11475
G1 X114.092 Y126.011 E8.12409
G1 X113.488 Y126.257 E8.14361
G1 X113.364 Y126.303 E8.14757
G1 X112.781 Y126.499 E8.16598
G1 X112.442 Y126.602 E8.17659
G1 X111.661 Y126.806 E8.20075
G1 X111.515 Y126.838 E8.20522
G1 X110.425 Y127.016 E8.23828
G1 X109.878 Y127.075 E8.25475
G1 X108.648 Y127.133 E8.29161
G1 X108.274 Y127.128 E8.30281
G1 X107.372 Y127.076 E8.32985
G1 X106.166 Y126.879 E8.36643
G1 X106.033 Y126.849 E8.37051
G1 X105.161 Y126.611 E8.39757
G1 X104.314 Y126.298 E8.4246
G1 X103.499 Y125.91 E8.45162
G1 X102.72 Y125.453 E8.47866
G1 X101.985 Y124.927 E8.50571
G1 X101.08 Y124.127 E8.54187
G1 X100.5 Y123.548 E8.5664
G1 X99.564 Y122.59 E8.60649
G1 X99.052 Y122.094 E8.62783
G1 X98.042 Y121.098 E8.67029
G1 X97.428 Y120.436 E8.69732
G1 X96.874 Y119.722 E8.72437
G1 X96.386 Y118.962 E8.75141
G1 X95.967 Y118.162 E8.77844
G1 X95.621 Y117.328 E8.80547
G1 X95.349 Y116.467 E8.8325
G1 X95.155 Y115.585 E8.85953
G1 X95.066 Y114.961 E8.8784
G1 X95.054 Y114.853 E8.88165
G1 X94.994 Y113.905 E8.91009
G1 X94.987 Y113.504 E8.92209
G1 X95.013 Y112.569 E8.95009
G1 X95.036 Y112.26 E8.95937
G1 X95.138 Y111.396 E8.98541
G1 X95.176 Y111.16 E8.99256
G1 X95.324 Y110.415 E9.0153
G1 X95.386 Y110.155 E9.0233
G1 X95.567 Y109.496 E9.04376
G1 X95.635 Y109.277 E9.05062
G1 X95.95 Y108.405 E9.07838
G1 X96.079 Y108.093 E9.08848
G1 X96.476 Y107.244 E9.11654
G1 X96.671 Y106.873 E9.12909
G1 X97.241 Y105.92 E9.16233
G1 X97.4 Y105.684 E9.17084
G1 X98.038 Y104.835 E9.20263
G1 X98.249 Y104.583 E9.21247
G1 X98.881 Y103.895 E9.24044
G1 X99.191 Y103.587 E9.25352
G1 F1500 E2.75352
G1 F300 Z0.4
;MESH:096screenrgb_lens_display_arm.stl
G0 F9000 X111.209 Y112.748 Z0.4
;TYPE:WALL-INNER
G1 F300 Z0.2
G1 F1500 E9.25352
G1 F1800 X113.886 Y110.07 E9.35553
G1 X114.226 Y109.73 E9.36849
G1 X114.226 Y110.21 E9.37544
G1 X114.226 Y110.211 E9.37547
G1 X114.226 Y111.286 E9.40443
G1 X111.533 Y113.984 E9.50713
G1 X111.432 Y114.341 E9.51712
G1 X111.32 Y114.623 E9.5253
G1 X111.179 Y114.9 E9.53367
G1 X111.022 Y115.142 E9.54144
G1 X110.823 Y115.389 E9.54999
G1 X110.607 Y115.605 E9.55822
G1 X110.374 Y115.792 E9.56627
G1 X110.113 Y115.962 E9.57466
G1 X109.843 Y116.1 E9.58283
G1 X109.57 Y116.205 E9.59071
G1 X109.438 Y116.241 E9.59439
G1 X109.272 Y116.285 E9.59902
G1 X109.057 Y116.318 E9.60488
G1 X109.079 Y116.235
G1 X109.122 Y116.069 E9.6085
G1 X109.38 Y115.094 E9.63567
G1 X109.484 Y115.054 E9.63867
G1 X109.807 Y114.849 E9.64898
G1 X110.088 Y114.565 E9.65974
G1 X110.277 Y114.266 E9.66927
G1 X110.422 Y113.872 E9.68058
G1 X110.475 Y113.532 E9.68985
G1 X110.427 Y113.033 E9.70336
G1 X110.274 Y112.646 E9.71457
G1 X110.234 Y112.543 E9.71755
G1 X110.147 Y112.425 E9.7215
G1 X110.007 Y112.236 E9.72783
G1 X109.738 Y111.99 E9.73765
G1 X109.486 Y111.853 E9.74538
G1 X109.317 Y111.761 E9.75056
G1 X108.868 Y111.654 E9.763
G1 X108.519 Y111.652 E9.7724
G1 X108.14 Y111.72 E9.78278
G1 X107.777 Y111.882 E9.79348
G1 X107.496 Y112.084 E9.80281
G1 X107.234 Y112.358 E9.81302
G1 X107.059 Y112.648 E9.82215
G1 X107.024 Y112.738 E9.82475
G1 X106.742 Y112.81 E9.83259
G1 X106.015 Y113.004 E9.85286
G1 X105.957 Y113.019 E9.85447
G1 X105.911 Y113.032 E9.85576
G1 X105.826 Y113.053 E9.85812
G1 X105.799 Y113.06 E9.85887
G1 X105.803 Y113.02
G1 X105.808 Y112.982
G1 X105.87 Y112.697 E9.8645
G1 X105.888 Y112.64 E9.866
G1 X105.962 Y112.408 E9.87256
G1 X106.084 Y112.135 E9.88061
G1 X106.243 Y111.864 E9.88908
G1 X106.421 Y111.62 E9.89722
G1 X106.623 Y111.396 E9.90534
G1 X106.84 Y111.201 E9.9132
G1 X107.103 Y111.008 E9.92199
G1 X107.356 Y110.862 E9.92986
G1 X107.643 Y110.734 E9.93833
G1 X107.771 Y110.689 E9.94198
G1 X108.135 Y110.584 E9.95219
G1 X109.044 Y109.68 E9.98672
G1 X113.886 Y104.839 E10.17119
G1 X114.226 Y104.499 E10.18414
G1 X114.226 Y104.979 E10.1911
G1 X114.226 Y104.98 E10.19112
G1 X114.226 Y106.05 E10.21995
G1 X113.019 Y107.262 E10.26603
G1 X109.698 Y110.584 E10.39258
G1 X109.293 Y111.099 E10.41023
G1 X109.758 Y111.563 E10.42793
G1 X109.961 Y111.766 E10.43487
G1 X110.218 Y112.023 E10.44241
G1 X110.418 Y112.223 E10.44862
G1 X110.488 Y112.295 E10.45089
G1 X110.565 Y112.374 E10.4537
G1 X110.926 Y112.746 E10.46766
G1 X110.927 Y112.747 E10.4677
G1 X111.067 Y112.89 E10.47309
G1 X111.209 Y112.748 E10.47657
G0 F9000 X111.071 Y112.32
;TYPE:WALL-OUTER
G1 F1800 X111.298 Y112.093 E10.48522
G1 X114.626 Y108.764 E10.61204
G1 X114.626 Y111.452 E10.68445
G1 X111.89 Y114.193 E10.78879
G1 X111.811 Y114.472 E10.7966
G1 X111.686 Y114.787 E10.80573
G1 X111.529 Y115.096 E10.81507
G1 X111.342 Y115.383 E10.8243
G1 X111.123 Y115.655 E10.83371
G1 X110.877 Y115.901 E10.84308
G1 X110.605 Y116.119 E10.85247
G1 X110.317 Y116.307 E10.86174
G1 X110.009 Y116.464 E10.87105
G1 X109.691 Y116.586 E10.88023
G1 X109.356 Y116.676 E10.88957
G1 X109.015 Y116.729 E10.89887
G1 X108.669 Y116.75 E10.90821
G1 X108.53 Y116.745 E10.91195
G1 X108.748 Y115.921 E10.93492
G1 X108.916 Y115.288 E10.95256
G1 X109.045 Y114.794 E10.96632
G1 X109.303 Y114.695 E10.97376
G1 X109.555 Y114.535 E10.9818
G1 X109.773 Y114.315 E10.99015
G1 X109.916 Y114.088 E10.99737
G1 X110.033 Y113.771 E11.00648
G1 X110.072 Y113.52 E11.01332
G1 X110.034 Y113.127 E11.02396
G1 X109.881 Y112.739 E11.03519
G1 X109.708 Y112.505 E11.04303
G1 X109.504 Y112.318 E11.05049
G1 X109.173 Y112.138 E11.06064
G1 X108.82 Y112.054 E11.07042
G1 X108.553 Y112.052 E11.07761
G1 X108.259 Y112.105 E11.08566
G1 X107.977 Y112.231 E11.09398
G1 X107.759 Y112.387 E11.1012
G1 X107.554 Y112.602 E11.1092
G1 X107.419 Y112.825 E11.11623
G1 X107.326 Y113.065 E11.12316
G1 X107.174 Y113.113 E11.12745
G1 X106.843 Y113.197 E11.13665
G1 X106.009 Y113.42 E11.15991
G1 X105.753 Y113.485 E11.16703
G1 X105.374 Y113.586 E11.1776
G1 X105.374 Y113.269 E11.18614
G1 X105.412 Y112.919 E11.19562
G1 X105.483 Y112.594 E11.20458
G1 X105.587 Y112.268 E11.2138
